P3
400 225
255
204 226 255
204 226 255
204 226 255
204 226 255
204 226 255
204 226 255
204 226 255
204 226 255
204 226 255
204 226 255
204 226 255
204 226 255
204 226 255
204 226 255
204 226 255
203 226 255
203 226 255
203 226 255
203 226 255
203 226 255
203 226 255
203 226 255
203 226 255
203 225 255
203 225 255
203 225 255
203 225 255
203 225 255
203 225 255
203 225 255
203 225 255
203 225 255
202 225 255
202 225 255
202 225 255
202 225 255
202 225 255
202 225 255
202 225 255
202 225 255
202 225 255
202 225 255
202 225 255
202 225 255
202 225 255
202 225 255
202 225 255
202 225 255
201 225 255
201 225 255
201 225 255
201 225 255
201 224 255
201 224 255
201 224 255
201 224 255
201 224 255
201 224 255
201 224 255
201 224 255
201 224 255
201 224 255
201 224 255
200 224 255
200 224 255
200 224 255
200 224 255
200 224 255
200 224 255
200 224 255
200 224 255
200 224 255
200 224 255
200 224 255
200 224 255
200 224 255
200 224 255
200 224 255
199 224 255
199 224 255
199 223 255
199 223 255
199 223 255
199 223 255
199 223 255
199 223 255
199 223 255
199 223 255
199 223 255
199 223 255
199 223 255
199 223 255
198 223 255
198 223 255
198 223 255
198 223 255
198 223 255
198 223 255
198 223 255
198 223 255
198 223 255
198 223 255
198 223 255
198 223 255
198 223 255
198 223 255
197 222 255
197 222 255
197 222 255
197 222 255
197 222 255
197 222 255
197 222 255
197 222 255
197 222 255
197 222 255
197 222 255
197 222 255
197 222 255
197 222 255
197 222 255
196 222 255
196 222 255
196 222 255
196 222 255
196 222 255
196 222 255
196 222 255
196 222 255
196 222 255
196 222 255
196 222 255
196 222 255
196 222 255
196 222 255
196 221 255
196 221 255
195 221 255
195 221 255
195 221 255
195 221 255
195 221 255
195 221 255
195 221 255
195 221 255
195 221 255
195 221 255
195 221 255
195 221 255
195 221 255
195 221 255
195 221 255
195 221 255
195 221 255
195 221 255
194 221 255
194 221 255
194 221 255
194 221 255
194 221 255
194 221 255
194 221 255
194 221 255
194 221 255
194 221 255
194 221 255
194 221 255
194 221 255
194 221 255
194 221 255
194 221 255
194 221 255
194 221 255
194 221 255
194 221 255
194 221 255
194 221 255
194 220 255
194 220 255
194 220 255
194 220 255
194 220 255
194 220 255
194 220 255
194 220 255
194 220 255
193 220 255
193 220 255
193 220 255
193 220 255
193 220 255
193 220 255
193 220 255
193 220 255
193 220 255
193 220 255
193 220 255
193 220 255
193 220 255
193 220 255
193 220 255
193 220 255
193 220 255
193 220 255
193 220 255
193 220 255
193 220 255
193 220 255
193 220 255
193 220 255
193 220 255
193 220 255
193 220 255
194 220 255
194 220 255
194 220 255
194 220 255
194 220 255
194 220 255
194 220 255
194 220 255
194 220 255
194 220 255
194 221 255
194 221 255
194 221 255
194 221 255
194 221 255
194 221 255
194 221 255
194 221 255
194 221 255
194 221 255
194 221 255
194 221 255
194 221 255
194 221 255
194 221 255
194 221 255
194 221 255
194 221 255
194 221 255
194 221 255
194 221 255
194 221 255
195 221 255
195 221 255
195 221 255
195 221 255
195 221 255
195 221 255
195 221 255
195 221 255
195 221 255
195 221 255
195 221 255
195 221 255
195 221 255
195 221 255
195 221 255
195 221 255
195 221 255
195 221 255
196 221 255
196 221 255
196 222 255
196 222 255
196 222 255
196 222 255
196 222 255
196 222 255
196 222 255
196 222 255
196 222 255
196 222 255
196 222 255
196 222 255
196 222 255
196 222 255
197 222 255
197 222 255
197 222 255
197 222 255
197 222 255
197 222 255
197 222 255
197 222 255
197 222 255
197 222 255
197 222 255
197 222 255
197 222 255
197 222 255
197 223 255
198 223 255
198 223 255
198 223 255
198 223 255
198 223 255
198 223 255
198 223 255
198 223 255
198 223 255
198 223 255
198 223 255
198 223 255
198 223 255
198 223 255
199 223 255
199 223 255
199 223 255
199 223 255
199 223 255
199 223 255
199 223 255
199 223 255
199 223 255
199 223 255
199 223 255
199 223 255
199 224 255
199 224 255
199 224 255
200 224 255
200 224 255
200 224 255
200 224 255
200 224 255
200 224 255
200 224 255
200 224 255
200 224 255
200 224 255
200 224 255
200 224 255
200 224 255
200 224 255
201 224 255
201 224 255
201 224 255
201 224 255
201 224 255
201 224 255
201 224 255
201 224 255
201 224 255
201 224 255
201 225 255
201 225 255
201 225 255
201 225 255
201 225 255
202 225 255
202 225 255
202 225 255
202 225 255
202 225 255
202 225 255
202 225 255
202 225 255
202 225 255
202 225 255
202 225 255
202 225 255
202 225 255
202 225 255
202 225 255
202 225 255
203 225 255
203 225 255
203 225 255
203 225 255
203 225 255
203 225 255
203 225 255
203 225 255
203 225 255
203 226 255
203 226 255
203 226 255
203 226 255
203 226 255
203 226 255
203 226 255
203 226 255
204 226 255
204 226 255
204 226 255
204 226 255
204 226 255
204 226 255
204 226 255
204 226 255
204 226 255
204 226 255
204 226 255
204 226 255
204 226 255
204 226 255
204 226 255
204 226 255
204 226 255
204 226 255
204 226 255
204 226 255
204 226 255
204 226 255
204 226 255
204 226 255
204 226 255
204 226 255
204 226 255
204 226 255
204 226 255
204 226 255
204 226 255
204 226 255
204 226 255
203 226 255
203 226 255
203 226 255
203 226 255
203 226 255
203 226 255
203 226 255
203 225 255
203 225 255
203 225 255
203 225 255
203 225 255
203 225 255
203 225 255
203 225 255
203 225 255
202 225 255
202 225 255
202 225 255
202 225 255
202 225 255
202 225 255
202 225 255
202 225 255
202 225 255
202 225 255
202 225 255
202 225 255
202 225 255
202 225 255
202 225 255
202 225 255
201 225 255
201 225 255
201 225 255
201 225 255
201 225 255
201 224 255
201 224 255
201 224 255
201 224 255
201 224 255
201 224 255
201 224 255
201 224 255
201 224 255
201 224 255
200 224 255
200 224 255
200 224 255
200 224 255
200 224 255
200 224 255
200 224 255
200 224 255
200 224 255
200 224 255
200 224 255
200 224 255
200 224 255
200 224 255
200 224 255
199 224 255
199 224 255
199 223 255
199 223 255
199 223 255
199 223 255
199 223 255
199 223 255
199 223 255
199 223 255
199 223 255
199 223 255
199 223 255
199 223 255
198 223 255
198 223 255
198 223 255
198 223 255
198 223 255
198 223 255
198 223 255
198 223 255
198 223 255
198 223 255
198 223 255
198 223 255
198 223 255
198 223 255
197 223 255
197 222 255
197 222 255
197 222 255
197 222 255
197 222 255
197 222 255
197 222 255
197 222 255
197 222 255
197 222 255
197 222 255
197 222 255
197 222 255
197 222 255
196 222 255
196 222 255
196 222 255
196 222 255
196 222 255
196 222 255
196 222 255
196 222 255
196 222 255
196 222 255
196 222 255
196 222 255
196 222 255
196 222 255
196 222 255
196 221 255
195 221 255
195 221 255
195 221 255
195 221 255
195 221 255
195 221 255
195 221 255
195 221 255
195 221 255
195 221 255
195 221 255
195 221 255
195 221 255
195 221 255
195 221 255
195 221 255
195 221 255
195 221 255
195 221 255
194 221 255
194 221 255
194 221 255
194 221 255
194 221 255
194 221 255
194 221 255
194 221 255
194 221 255
194 221 255
194 221 255
194 221 255
194 221 255
194 221 255
194 221 255
194 221 255
194 221 255
194 221 255
194 221 255
194 221 255
194 221 255
194 221 255
194 221 255
194 221 255
194 221 255
194 220 255
194 220 255
194 220 255
194 220 255
194 220 255
194 220 255
194 220 255
194 220 255
194 220 255
194 220 255
194 220 255
194 220 255
194 220 255
194 220 255
194 220 255
194 220 255
194 220 255
194 220 255
194 220 255
194 220 255
194 220 255
194 220 255
194 220 255
194 220 255
194 220 255
194 220 255
194 220 255
194 220 255
194 220 255
194 220 255
194 220 255
194 220 255
194 220 255
194 220 255
194 221 255
194 221 255
194 221 255
194 221 255
194 221 255
194 221 255
194 221 255
194 221 255
194 221 255
194 221 255
194 221 255
194 221 255
194 221 255
194 221 255
194 221 255
194 221 255
194 221 255
194 221 255
194 221 255
194 221 255
194 221 255
194 221 255
194 221 255
194 221 255
195 221 255
195 221 255
195 221 255
195 221 255
195 221 255
195 221 255
195 221 255
195 221 255
195 221 255
195 221 255
195 221 255
195 221 255
195 221 255
195 221 255
195 221 255
195 221 255
195 221 255
195 221 255
195 221 255
195 221 255
196 221 255
196 221 255
196 222 255
196 222 255
196 222 255
196 222 255
196 222 255
196 222 255
196 222 255
196 222 255
196 222 255
196 222 255
196 222 255
196 222 255
196 222 255
196 222 255
197 222 255
197 222 255
197 222 255
197 222 255
197 222 255
197 222 255
197 222 255
197 222 255
197 222 255
197 222 255
197 222 255
197 222 255
197 222 255
197 222 255
197 223 255
198 223 255
198 223 255
198 223 255
198 223 255
198 223 255
198 223 255
198 223 255
198 223 255
198 223 255
198 223 255
198 223 255
198 223 255
198 223 255
198 223 255
199 223 255
199 223 255
199 223 255
199 223 255
199 223 255
199 223 255
199 223 255
199 223 255
199 223 255
199 223 255
199 223 255
199 223 255
199 224 255
199 224 255
199 224 255
200 224 255
200 224 255
200 224 255
200 224 255
200 224 255
200 224 255
200 224 255
200 224 255
200 224 255
200 224 255
200 224 255
200 224 255
200 224 255
200 224 255
201 224 255
201 224 255
201 224 255
201 224 255
201 224 255
201 224 255
201 224 255
201 224 255
201 224 255
201 224 255
201 224 255
201 225 255
201 225 255
201 225 255
201 225 255
202 225 255
202 225 255
202 225 255
202 225 255
202 225 255
202 225 255
202 225 255
202 225 255
202 225 255
202 225 255
202 225 255
202 225 255
202 225 255
202 225 255
202 225 255
202 225 255
203 225 255
203 225 255
203 225 255
203 225 255
203 225 255
203 225 255
203 225 255
203 225 255
203 225 255
203 226 255
203 226 255
203 226 255
203 226 255
203 226 255
203 226 255
203 226 255
204 226 255
204 226 255
204 226 255
204 226 255
204 226 255
204 226 255
204 226 255
204 226 255
204 226 255
204 226 255
204 226 255
204 226 255
204 226 255
204 226 255
204 226 255
204 226 255
204 226 255
204 226 255
205 226 255
205 226 255
204 226 255
204 226 255
204 226 255
204 226 255
204 226 255
204 226 255
204 226 255
204 226 255
204 226 255
204 226 255
204 226 255
204 226 255
204 226 255
204 226 255
204 226 255
204 226 255
204 226 255
204 226 255
203 226 255
203 226 255
203 226 255
203 226 255
203 226 255
203 226 255
203 226 255
203 225 255
203 225 255
203 225 255
203 225 255
203 225 255
203 225 255
203 225 255
203 225 255
203 225 255
202 225 255
202 225 255
202 225 255
202 225 255
202 225 255
202 225 255
202 225 255
202 225 255
202 225 255
202 225 255
202 225 255
202 225 255
202 225 255
202 225 255
202 225 255
202 225 255
201 225 255
201 225 255
201 225 255
201 225 255
201 225 255
201 224 255
201 224 255
201 224 255
201 224 255
201 224 255
201 224 255
201 224 255
201 224 255
201 224 255
201 224 255
200 224 255
200 224 255
200 224 255
200 224 255
200 224 255
200 224 255
200 224 255
200 224 255
200 224 255
200 224 255
200 224 255
200 224 255
200 224 255
200 224 255
200 224 255
199 224 255
199 224 255
199 223 255
199 223 255
199 223 255
199 223 255
199 223 255
199 223 255
199 223 255
199 223 255
199 223 255
199 223 255
199 223 255
199 223 255
198 223 255
198 223 255
198 223 255
198 223 255
198 223 255
198 223 255
198 223 255
198 223 255
198 223 255
198 223 255
198 223 255
198 223 255
198 223 255
198 223 255
197 223 255
197 222 255
197 222 255
197 222 255
197 222 255
197 222 255
197 222 255
197 222 255
197 222 255
197 222 255
197 222 255
197 222 255
197 222 255
197 222 255
197 222 255
196 222 255
196 222 255
196 222 255
196 222 255
196 222 255
196 222 255
196 222 255
196 222 255
196 222 255
196 222 255
196 222 255
196 222 255
196 222 255
196 222 255
196 222 255
196 221 255
195 221 255
195 221 255
195 221 255
195 221 255
195 221 255
195 221 255
195 221 255
195 221 255
195 221 255
195 221 255
195 221 255
195 221 255
195 221 255
195 221 255
195 221 255
195 221 255
195 221 255
195 221 255
195 221 255
195 221 255
195 221 255
194 221 255
194 221 255
194 221 255
194 221 255
194 221 255
194 221 255
194 221 255
194 221 255
194 221 255
194 221 255
194 221 255
194 221 255
194 221 255
194 221 255
194 221 255
194 221 255
194 221 255
194 221 255
194 221 255
194 221 255
194 221 255
194 221 255
194 221 255
194 221 255
194 221 255
194 221 255
194 221 255
194 221 255
194 221 255
194 221 255
194 221 255
194 220 255
194 220 255
194 220 255
194 220 255
194 220 255
194 220 255
194 220 255
194 220 255
194 220 255
194 220 255
194 220 255
194 220 255
194 220 255
194 220 255
194 221 255
194 221 255
194 221 255
194 221 255
194 221 255
194 221 255
194 221 255
194 221 255
194 221 255
194 221 255
194 221 255
194 221 255
194 221 255
194 221 255
194 221 255
194 221 255
194 221 255
194 221 255
194 221 255
194 221 255
194 221 255
194 221 255
194 221 255
194 221 255
194 221 255
194 221 255
194 221 255
194 221 255
194 221 255
194 221 255
194 221 255
195 221 255
195 221 255
195 221 255
195 221 255
195 221 255
195 221 255
195 221 255
195 221 255
195 221 255
195 221 255
195 221 255
195 221 255
195 221 255
195 221 255
195 221 255
195 221 255
195 221 255
195 221 255
195 221 255
195 221 255
196 221 255
196 221 255
196 222 255
196 222 255
196 222 255
196 222 255
196 222 255
196 222 255
196 222 255
196 222 255
196 222 255
196 222 255
196 222 255
196 222 255
196 222 255
196 222 255
196 222 255
197 222 255
197 222 255
197 222 255
197 222 255
197 222 255
197 222 255
197 222 255
197 222 255
197 222 255
197 222 255
197 222 255
197 222 255
197 222 255
197 222 255
197 223 255
198 223 255
198 223 255
198 223 255
198 223 255
198 223 255
198 223 255
198 223 255
198 223 255
198 223 255
198 223 255
198 223 255
198 223 255
198 223 255
198 223 255
199 223 255
199 223 255
199 223 255
199 223 255
199 223 255
199 223 255
199 223 255
199 223 255
199 223 255
199 223 255
199 223 255
199 223 255
199 224 255
199 224 255
200 224 255
200 224 255
200 224 255
200 224 255
200 224 255
200 224 255
200 224 255
200 224 255
200 224 255
200 224 255
200 224 255
200 224 255
200 224 255
200 224 255
200 224 255
201 224 255
201 224 255
201 224 255
201 224 255
201 224 255
201 224 255
201 224 255
201 224 255
201 224 255
201 224 255
201 225 255
201 225 255
201 225 255
201 225 255
201 225 255
202 225 255
202 225 255
202 225 255
202 225 255
202 225 255
202 225 255
202 225 255
202 225 255
202 225 255
202 225 255
202 225 255
202 225 255
202 225 255
202 225 255
202 225 255
203 225 255
203 225 255
203 225 255
203 225 255
203 225 255
203 225 255
203 225 255
203 225 255
203 225 255
203 225 255
203 226 255
203 226 255
203 226 255
203 226 255
203 226 255
203 226 255
203 226 255
204 226 255
204 226 255
204 226 255
204 226 255
204 226 255
204 226 255
204 226 255
204 226 255
204 226 255
204 226 255
204 226 255
204 226 255
204 226 255
204 226 255
204 226 255
204 226 255
204 226 255
204 226 255
205 226 255
205 226 255
205 226 255
205 226 255
205 226 255
205 226 255
205 226 255
204 226 255
204 226 255
204 226 255
204 226 255
204 226 255
204 226 255
204 226 255
204 226 255
204 226 255
204 226 255
204 226 255
204 226 255
204 226 255
204 226 255
204 226 255
204 226 255
204 226 255
203 226 255
203 226 255
203 226 255
203 226 255
203 226 255
203 226 255
203 226 255
203 226 255
203 225 255
203 225 255
203 225 255
203 225 255
203 225 255
203 225 255
203 225 255
203 225 255
203 225 255
202 225 255
202 225 255
202 225 255
202 225 255
202 225 255
202 225 255
202 225 255
202 225 255
202 225 255
202 225 255
202 225 255
202 225 255
202 225 255
202 225 255
202 225 255
201 225 255
201 225 255
201 225 255
201 225 255
201 225 255
201 224 255
201 224 255
201 224 255
201 224 255
201 224 255
201 224 255
201 224 255
201 224 255
201 224 255
201 224 255
200 224 255
200 224 255
200 224 255
200 224 255
200 224 255
200 224 255
200 224 255
200 224 255
200 224 255
200 224 255
200 224 255
200 224 255
200 224 255
200 224 255
200 224 255
199 224 255
199 224 255
199 223 255
199 223 255
199 223 255
199 223 255
199 223 255
199 223 255
199 223 255
199 223 255
199 223 255
199 223 255
199 223 255
199 223 255
198 223 255
198 223 255
198 223 255
198 223 255
198 223 255
198 223 255
198 223 255
198 223 255
198 223 255
198 223 255
198 223 255
198 223 255
198 223 255
198 223 255
197 223 255
197 222 255
197 222 255
197 222 255
197 222 255
197 222 255
197 222 255
197 222 255
197 222 255
197 222 255
197 222 255
197 222 255
197 222 255
197 222 255
197 222 255
196 222 255
196 222 255
196 222 255
196 222 255
196 222 255
196 222 255
196 222 255
196 222 255
196 222 255
196 222 255
196 222 255
196 222 255
196 222 255
196 222 255
196 222 255
196 222 255
196 221 255
195 221 255
195 221 255
195 221 255
195 221 255
195 221 255
195 221 255
195 221 255
195 221 255
195 221 255
195 221 255
195 221 255
195 221 255
195 221 255
195 221 255
195 221 255
195 221 255
195 221 255
195 221 255
195 221 255
195 221 255
195 221 255
194 221 255
194 221 255
194 221 255
194 221 255
194 221 255
194 221 255
194 221 255
194 221 255
194 221 255
194 221 255
194 221 255
194 221 255
194 221 255
194 221 255
194 221 255
194 221 255
194 221 255
194 221 255
194 221 255
194 221 255
194 221 255
194 221 255
194 221 255
194 221 255
194 221 255
194 221 255
194 221 255
194 221 255
194 221 255
194 221 255
194 221 255
194 221 255
194 221 255
194 221 255
194 221 255
194 221 255
194 221 255
194 221 255
194 221 255
194 221 255
194 221 255
194 221 255
194 221 255
194 221 255
194 221 255
194 221 255
194 221 255
194 221 255
194 221 255
194 221 255
194 221 255
194 221 255
194 221 255
194 221 255
194 221 255
194 221 255
194 221 255
194 221 255
194 221 255
194 221 255
194 221 255
194 221 255
194 221 255
194 221 255
194 221 255
194 221 255
194 221 255
194 221 255
194 221 255
194 221 255
195 221 255
195 221 255
195 221 255
195 221 255
195 221 255
195 221 255
195 221 255
195 221 255
195 221 255
195 221 255
195 221 255
195 221 255
195 221 255
195 221 255
195 221 255
195 221 255
195 221 255
195 221 255
195 221 255
195 221 255
195 221 255
196 221 255
196 222 255
196 222 255
196 222 255
196 222 255
196 222 255
196 222 255
196 222 255
196 222 255
196 222 255
196 222 255
196 222 255
196 222 255
196 222 255
196 222 255
196 222 255
196 222 255
197 222 255
197 222 255
197 222 255
197 222 255
197 222 255
197 222 255
197 222 255
197 222 255
197 222 255
197 222 255
197 222 255
197 222 255
197 222 255
197 222 255
197 223 255
198 223 255
198 223 255
198 223 255
198 223 255
198 223 255
198 223 255
198 223 255
198 223 255
198 223 255
198 223 255
198 223 255
198 223 255
198 223 255
198 223 255
199 223 255
199 223 255
199 223 255
199 223 255
199 223 255
199 223 255
199 223 255
199 223 255
199 223 255
199 223 255
199 223 255
199 223 255
199 224 255
199 224 255
200 224 255
200 224 255
200 224 255
200 224 255
200 224 255
200 224 255
200 224 255
200 224 255
200 224 255
200 224 255
200 224 255
200 224 255
200 224 255
200 224 255
200 224 255
201 224 255
201 224 255
201 224 255
201 224 255
201 224 255
201 224 255
201 224 255
201 224 255
201 224 255
201 224 255
201 225 255
201 225 255
201 225 255
201 225 255
201 225 255
202 225 255
202 225 255
202 225 255
202 225 255
202 225 255
202 225 255
202 225 255
202 225 255
202 225 255
202 225 255
202 225 255
202 225 255
202 225 255
202 225 255
202 225 255
203 225 255
203 225 255
203 225 255
203 225 255
203 225 255
203 225 255
203 225 255
203 225 255
203 225 255
203 226 255
203 226 255
203 226 255
203 226 255
203 226 255
203 226 255
203 226 255
203 226 255
204 226 255
204 226 255
204 226 255
204 226 255
204 226 255
204 226 255
204 226 255
204 226 255
204 226 255
204 226 255
204 226 255
204 226 255
204 226 255
204 226 255
204 226 255
204 226 255
204 226 255
204 226 255
205 226 255
205 226 255
205 226 255
205 226 255
205 226 255
205 226 255
205 226 255
205 226 255
205 226 255
205 226 255
205 226 255
204 226 255
204 226 255
204 226 255
204 226 255
204 226 255
204 226 255
204 226 255
204 226 255
204 226 255
204 226 255
204 226 255
204 226 255
204 226 255
204 226 255
204 226 255
204 226 255
204 226 255
203 226 255
203 226 255
203 226 255
203 226 255
203 226 255
203 226 255
203 226 255
203 226 255
203 225 255
203 225 255
203 225 255
203 225 255
203 225 255
203 225 255
203 225 255
203 225 255
203 225 255
202 225 255
202 225 255
202 225 255
202 225 255
202 225 255
202 225 255
202 225 255
202 225 255
202 225 255
202 225 255
202 225 255
202 225 255
202 225 255
202 225 255
202 225 255
201 225 255
201 225 255
201 225 255
201 225 255
201 225 255
201 224 255
201 224 255
201 224 255
201 224 255
201 224 255
201 224 255
201 224 255
201 224 255
201 224 255
201 224 255
200 224 255
200 224 255
200 224 255
200 224 255
200 224 255
200 224 255
200 224 255
200 224 255
200 224 255
200 224 255
200 224 255
200 224 255
200 224 255
200 224 255
200 224 255
199 224 255
199 224 255
199 223 255
199 223 255
199 223 255
199 223 255
199 223 255
199 223 255
199 223 255
199 223 255
199 223 255
199 223 255
199 223 255
199 223 255
198 223 255
198 223 255
198 223 255
198 223 255
198 223 255
198 223 255
198 223 255
198 223 255
198 223 255
198 223 255
198 223 255
198 223 255
198 223 255
198 223 255
198 223 255
197 222 255
197 222 255
197 222 255
197 222 255
197 222 255
197 222 255
197 222 255
197 222 255
197 222 255
197 222 255
197 222 255
197 222 255
197 222 255
197 222 255
197 222 255
196 222 255
196 222 255
196 222 255
196 222 255
196 222 255
196 222 255
196 222 255
196 222 255
196 222 255
196 222 255
196 222 255
196 222 255
196 222 255
196 222 255
196 222 255
196 221 255
196 221 255
195 221 255
195 221 255
195 221 255
195 221 255
195 221 255
195 221 255
195 221 255
195 221 255
195 221 255
195 221 255
195 221 255
195 221 255
195 221 255
195 221 255
195 221 255
195 221 255
195 221 255
195 221 255
195 221 255
195 221 255
195 221 255
195 221 255
194 221 255
194 221 255
194 221 255
194 221 255
194 221 255
194 221 255
194 221 255
194 221 255
194 221 255
194 221 255
194 221 255
194 221 255
194 221 255
194 221 255
194 221 255
194 221 255
194 221 255
194 221 255
194 221 255
194 221 255
194 221 255
194 221 255
194 221 255
194 221 255
194 221 255
194 221 255
194 221 255
194 221 255
194 221 255
194 221 255
194 221 255
194 221 255
194 221 255
194 221 255
194 221 255
194 221 255
194 221 255
194 221 255
194 221 255
194 221 255
194 221 255
194 221 255
194 221 255
194 221 255
194 221 255
194 221 255
194 221 255
194 221 255
194 221 255
194 221 255
194 221 255
194 221 255
194 221 255
194 221 255
194 221 255
194 221 255
194 221 255
194 221 255
194 221 255
194 221 255
194 221 255
194 221 255
195 221 255
195 221 255
195 221 255
195 221 255
195 221 255
195 221 255
195 221 255
195 221 255
195 221 255
195 221 255
195 221 255
195 221 255
195 221 255
195 221 255
195 221 255
195 221 255
195 221 255
195 221 255
195 221 255
195 221 255
195 221 255
195 221 255
196 221 255
196 221 255
196 222 255
196 222 255
196 222 255
196 222 255
196 222 255
196 222 255
196 222 255
196 222 255
196 222 255
196 222 255
196 222 255
196 222 255
196 222 255
196 222 255
196 222 255
197 222 255
197 222 255
197 222 255
197 222 255
197 222 255
197 222 255
197 222 255
197 222 255
197 222 255
197 222 255
197 222 255
197 222 255
197 222 255
197 222 255
197 222 255
198 223 255
198 223 255
198 223 255
198 223 255
198 223 255
198 223 255
198 223 255
198 223 255
198 223 255
198 223 255
198 223 255
198 223 255
198 223 255
198 223 255
198 223 255
199 223 255
199 223 255
199 223 255
199 223 255
199 223 255
199 223 255
199 223 255
199 223 255
199 223 255
199 223 255
199 223 255
199 223 255
199 224 255
199 224 255
200 224 255
200 224 255
200 224 255
200 224 255
200 224 255
200 224 255
200 224 255
200 224 255
200 224 255
200 224 255
200 224 255
200 224 255
200 224 255
200 224 255
200 224 255
201 224 255
201 224 255
201 224 255
201 224 255
201 224 255
201 224 255
201 224 255
201 224 255
201 224 255
201 224 255
201 225 255
201 225 255
201 225 255
201 225 255
201 225 255
202 225 255
202 225 255
202 225 255
202 225 255
202 225 255
202 225 255
202 225 255
202 225 255
202 225 255
202 225 255
202 225 255
202 225 255
202 225 255
202 225 255
202 225 255
203 225 255
203 225 255
203 225 255
203 225 255
203 225 255
203 225 255
203 225 255
203 225 255
203 225 255
203 226 255
203 226 255
203 226 255
203 226 255
203 226 255
203 226 255
203 226 255
203 226 255
204 226 255
204 226 255
204 226 255
204 226 255
204 226 255
204 226 255
204 226 255
204 226 255
204 226 255
204 226 255
204 226 255
204 226 255
204 226 255
204 226 255
204 226 255
204 226 255
204 226 255
205 226 255
205 226 255
205 226 255
205 226 255
205 226 255
205 226 255
205 226 255
205 227 255
205 227 255
205 226 255
205 226 255
205 226 255
205 226 255
205 226 255
205 226 255
205 226 255
204 226 255
204 226 255
204 226 255
204 226 255
204 226 255
204 226 255
204 226 255
204 226 255
204 226 255
204 226 255
204 226 255
204 226 255
204 226 255
204 226 255
204 226 255
204 226 255
204 226 255
204 226 255
203 226 255
203 226 255
203 226 255
203 226 255
203 226 255
203 226 255
203 226 255
203 225 255
203 225 255
203 225 255
203 225 255
203 225 255
203 225 255
203 225 255
203 225 255
203 225 255
202 225 255
202 225 255
202 225 255
202 225 255
202 225 255
202 225 255
202 225 255
202 225 255
202 225 255
202 225 255
202 225 255
202 225 255
202 225 255
202 225 255
202 225 255
202 225 255
201 225 255
201 225 255
201 225 255
201 225 255
201 224 255
201 224 255
201 224 255
201 224 255
201 224 255
201 224 255
201 224 255
201 224 255
201 224 255
201 224 255
200 224 255
200 224 255
200 224 255
200 224 255
200 224 255
200 224 255
200 224 255
200 224 255
200 224 255
200 224 255
200 224 255
200 224 255
200 224 255
200 224 255
200 224 255
199 224 255
199 224 255
199 223 255
199 223 255
199 223 255
199 223 255
199 223 255
199 223 255
199 223 255
199 223 255
199 223 255
199 223 255
199 223 255
199 223 255
198 223 255
198 223 255
198 223 255
198 223 255
198 223 255
198 223 255
198 223 255
198 223 255
198 223 255
198 223 255
198 223 255
198 223 255
198 223 255
198 223 255
198 223 255
197 222 255
197 222 255
197 222 255
197 222 255
197 222 255
197 222 255
197 222 255
197 222 255
197 222 255
197 222 255
197 222 255
197 222 255
197 222 255
197 222 255
197 222 255
196 222 255
196 222 255
196 222 255
196 222 255
196 222 255
196 222 255
196 222 255
196 222 255
196 222 255
196 222 255
196 222 255
196 222 255
196 222 255
196 222 255
196 222 255
196 222 255
196 221 255
195 221 255
195 221 255
195 221 255
195 221 255
195 221 255
195 221 255
195 221 255
195 221 255
195 221 255
195 221 255
195 221 255
195 221 255
195 221 255
195 221 255
195 221 255
195 221 255
195 221 255
195 221 255
195 221 255
195 221 255
195 221 255
195 221 255
195 221 255
195 221 255
194 221 255
194 221 255
194 221 255
194 221 255
194 221 255
194 221 255
194 221 255
194 221 255
194 221 255
194 221 255
194 221 255
194 221 255
194 221 255
194 221 255
194 221 255
194 221 255
194 221 255
194 221 255
194 221 255
194 221 255
194 221 255
194 221 255
194 221 255
194 221 255
194 221 255
194 221 255
194 221 255
194 221 255
194 221 255
194 221 255
194 221 255
194 221 255
194 221 255
194 221 255
194 221 255
194 221 255
194 221 255
194 221 255
194 221 255
194 221 255
194 221 255
194 221 255
194 221 255
194 221 255
194 221 255
194 221 255
194 221 255
194 221 255
194 221 255
194 221 255
194 221 255
194 221 255
194 221 255
194 221 255
195 221 255
195 221 255
195 221 255
195 221 255
195 221 255
195 221 255
195 221 255
195 221 255
195 221 255
195 221 255
195 221 255
195 221 255
195 221 255
195 221 255
195 221 255
195 221 255
195 221 255
195 221 255
195 221 255
195 221 255
195 221 255
195 221 255
195 221 255
195 221 255
196 221 255
196 222 255
196 222 255
196 222 255
196 222 255
196 222 255
196 222 255
196 222 255
196 222 255
196 222 255
196 222 255
196 222 255
196 222 255
196 222 255
196 222 255
196 222 255
196 222 255
197 222 255
197 222 255
197 222 255
197 222 255
197 222 255
197 222 255
197 222 255
197 222 255
197 222 255
197 222 255
197 222 255
197 222 255
197 222 255
197 222 255
197 222 255
198 223 255
198 223 255
198 223 255
198 223 255
198 223 255
198 223 255
198 223 255
198 223 255
198 223 255
198 223 255
198 223 255
198 223 255
198 223 255
198 223 255
198 223 255
199 223 255
199 223 255
199 223 255
199 223 255
199 223 255
199 223 255
199 223 255
199 223 255
199 223 255
199 223 255
199 223 255
199 223 255
199 224 255
199 224 255
200 224 255
200 224 255
200 224 255
200 224 255
200 224 255
200 224 255
200 224 255
200 224 255
200 224 255
200 224 255
200 224 255
200 224 255
200 224 255
200 224 255
200 224 255
201 224 255
201 224 255
201 224 255
201 224 255
201 224 255
201 224 255
201 224 255
201 224 255
201 224 255
201 224 255
201 225 255
201 225 255
201 225 255
201 225 255
202 225 255
202 225 255
202 225 255
202 225 255
202 225 255
202 225 255
202 225 255
202 225 255
202 225 255
202 225 255
202 225 255
202 225 255
202 225 255
202 225 255
202 225 255
202 225 255
203 225 255
203 225 255
203 225 255
203 225 255
203 225 255
203 225 255
203 225 255
203 225 255
203 225 255
203 226 255
203 226 255
203 226 255
203 226 255
203 226 255
203 226 255
203 226 255
204 226 255
204 226 255
204 226 255
204 226 255
204 226 255
204 226 255
204 226 255
204 226 255
204 226 255
204 226 255
204 226 255
204 226 255
204 226 255
204 226 255
204 226 255
204 226 255
204 226 255
204 226 255
205 226 255
205 226 255
205 226 255
205 226 255
205 226 255
205 226 255
205 226 255
205 227 255
205 227 255
205 227 255
205 227 255
205 227 255
205 227 255
205 226 255
205 226 255
205 226 255
205 226 255
205 226 255
205 226 255
205 226 255
205 226 255
204 226 255
204 226 255
204 226 255
204 226 255
204 226 255
204 226 255
204 226 255
204 226 255
204 226 255
204 226 255
204 226 255
204 226 255
204 226 255
204 226 255
204 226 255
204 226 255
204 226 255
203 226 255
203 226 255
203 226 255
203 226 255
203 226 255
203 226 255
203 226 255
203 225 255
203 225 255
203 225 255
203 225 255
203 225 255
203 225 255
203 225 255
203 225 255
203 225 255
202 225 255
202 225 255
202 225 255
202 225 255
202 225 255
202 225 255
202 225 255
202 225 255
202 225 255
202 225 255
202 225 255
202 225 255
202 225 255
202 225 255
202 225 255
202 225 255
201 225 255
201 225 255
201 225 255
201 225 255
201 224 255
201 224 255
201 224 255
201 224 255
201 224 255
201 224 255
201 224 255
201 224 255
201 224 255
201 224 255
200 224 255
200 224 255
200 224 255
200 224 255
200 224 255
200 224 255
200 224 255
200 224 255
200 224 255
200 224 255
200 224 255
200 224 255
200 224 255
200 224 255
200 224 255
199 224 255
199 224 255
199 223 255
199 223 255
199 223 255
199 223 255
199 223 255
199 223 255
199 223 255
199 223 255
199 223 255
199 223 255
199 223 255
199 223 255
198 223 255
198 223 255
198 223 255
198 223 255
198 223 255
198 223 255
198 223 255
198 223 255
198 223 255
198 223 255
198 223 255
198 223 255
198 223 255
198 223 255
198 223 255
197 222 255
197 222 255
197 222 255
197 222 255
197 222 255
197 222 255
197 222 255
197 222 255
197 222 255
197 222 255
197 222 255
197 222 255
197 222 255
197 222 255
197 222 255
196 222 255
196 222 255
196 222 255
196 222 255
196 222 255
196 222 255
196 222 255
196 222 255
196 222 255
196 222 255
196 222 255
196 222 255
196 222 255
196 222 255
196 222 255
196 222 255
196 222 255
196 221 255
195 221 255
195 221 255
195 221 255
195 221 255
195 221 255
195 221 255
195 221 255
195 221 255
195 221 255
195 221 255
195 221 255
195 221 255
195 221 255
195 221 255
195 221 255
195 221 255
195 221 255
195 221 255
195 221 255
195 221 255
195 221 255
195 221 255
195 221 255
195 221 255
195 221 255
195 221 255
194 221 255
194 221 255
194 221 255
194 221 255
194 221 255
194 221 255
194 221 255
194 221 255
194 221 255
194 221 255
194 221 255
194 221 255
194 221 255
194 221 255
194 221 255
194 221 255
194 221 255
194 221 255
194 221 255
194 221 255
194 221 255
194 221 255
194 221 255
194 221 255
194 221 255
194 221 255
194 221 255
194 221 255
194 221 255
194 221 255
194 221 255
194 221 255
194 221 255
194 221 255
194 221 255
194 221 255
194 221 255
194 221 255
194 221 255
194 221 255
194 221 255
194 221 255
194 221 255
194 221 255
195 221 255
195 221 255
195 221 255
195 221 255
195 221 255
195 221 255
195 221 255
195 221 255
195 221 255
195 221 255
195 221 255
195 221 255
195 221 255
195 221 255
195 221 255
195 221 255
195 221 255
195 221 255
195 221 255
195 221 255
195 221 255
195 221 255
195 221 255
195 221 255
195 221 255
195 221 255
196 221 255
196 222 255
196 222 255
196 222 255
196 222 255
196 222 255
196 222 255
196 222 255
196 222 255
196 222 255
196 222 255
196 222 255
196 222 255
196 222 255
196 222 255
196 222 255
196 222 255
197 222 255
197 222 255
197 222 255
197 222 255
197 222 255
197 222 255
197 222 255
197 222 255
197 222 255
197 222 255
197 222 255
197 222 255
197 222 255
197 222 255
197 222 255
197 222 255
198 223 255
198 223 255
198 223 255
198 223 255
198 223 255
198 223 255
198 223 255
198 223 255
198 223 255
198 223 255
198 223 255
198 223 255
198 223 255
198 223 255
198 223 255
199 223 255
199 223 255
199 223 255
199 223 255
199 223 255
199 223 255
199 223 255
199 223 255
199 223 255
199 223 255
199 223 255
199 223 255
199 224 255
199 224 255
200 224 255
200 224 255
200 224 255
200 224 255
200 224 255
200 224 255
200 224 255
200 224 255
200 224 255
200 224 255
200 224 255
200 224 255
200 224 255
200 224 255
200 224 255
201 224 255
201 224 255
201 224 255
201 224 255
201 224 255
201 224 255
201 224 255
201 224 255
201 224 255
201 224 255
201 225 255
201 225 255
201 225 255
201 225 255
202 225 255
202 225 255
202 225 255
202 225 255
202 225 255
202 225 255
202 225 255
202 225 255
202 225 255
202 225 255
202 225 255
202 225 255
202 225 255
202 225 255
202 225 255
202 225 255
203 225 255
203 225 255
203 225 255
203 225 255
203 225 255
203 225 255
203 225 255
203 225 255
203 225 255
203 226 255
203 226 255
203 226 255
203 226 255
203 226 255
203 226 255
203 226 255
204 226 255
204 226 255
204 226 255
204 226 255
204 226 255
204 226 255
204 226 255
204 226 255
204 226 255
204 226 255
204 226 255
204 226 255
204 226 255
204 226 255
204 226 255
204 226 255
204 226 255
205 226 255
205 226 255
205 226 255
205 226 255
205 226 255
205 226 255
205 226 255
205 226 255
205 227 255
205 227 255
205 227 255
205 227 255
205 227 255
205 227 255
205 227 255
205 227 255
205 227 255
205 227 255
205 227 255
205 226 255
205 226 255
205 226 255
205 226 255
205 226 255
205 226 255
205 226 255
204 226 255
204 226 255
204 226 255
204 226 255
204 226 255
204 226 255
204 226 255
204 226 255
204 226 255
204 226 255
204 226 255
204 226 255
204 226 255
204 226 255
204 226 255
204 226 255
204 226 255
203 226 255
203 226 255
203 226 255
203 226 255
203 226 255
203 226 255
203 226 255
203 226 255
203 225 255
203 225 255
203 225 255
203 225 255
203 225 255
203 225 255
203 225 255
203 225 255
203 225 255
202 225 255
202 225 255
202 225 255
202 225 255
202 225 255
202 225 255
202 225 255
202 225 255
202 225 255
202 225 255
202 225 255
202 225 255
202 225 255
202 225 255
202 225 255
201 225 255
201 225 255
201 225 255
201 225 255
201 224 255
201 224 255
201 224 255
201 224 255
201 224 255
201 224 255
201 224 255
201 224 255
201 224 255
201 224 255
201 224 255
200 224 255
200 224 255
200 224 255
200 224 255
200 224 255
200 224 255
200 224 255
200 224 255
200 224 255
200 224 255
200 224 255
200 224 255
200 224 255
200 224 255
199 224 255
199 224 255
199 223 255
199 223 255
199 223 255
199 223 255
199 223 255
199 223 255
199 223 255
199 223 255
199 223 255
199 223 255
199 223 255
199 223 255
198 223 255
198 223 255
198 223 255
198 223 255
198 223 255
198 223 255
198 223 255
198 223 255
198 223 255
198 223 255
198 223 255
198 223 255
198 223 255
198 223 255
198 223 255
197 223 255
197 222 255
197 222 255
197 222 255
197 222 255
197 222 255
197 222 255
197 222 255
197 222 255
197 222 255
197 222 255
197 222 255
197 222 255
197 222 255
197 222 255
197 222 255
196 222 255
196 222 255
196 222 255
196 222 255
196 222 255
196 222 255
196 222 255
196 222 255
196 222 255
196 222 255
196 222 255
196 222 255
196 222 255
196 222 255
196 222 255
196 222 255
196 222 255
196 221 255
195 221 255
195 221 255
195 221 255
195 221 255
195 221 255
195 221 255
195 221 255
195 221 255
195 221 255
195 221 255
195 221 255
195 221 255
195 221 255
195 221 255
195 221 255
195 221 255
195 221 255
195 221 255
195 221 255
195 221 255
195 221 255
195 221 255
195 221 255
195 221 255
195 221 255
195 221 255
195 221 255
195 221 255
195 221 255
195 221 255
194 221 255
194 221 255
194 221 255
194 221 255
194 221 255
194 221 255
194 221 255
194 221 255
194 221 255
194 221 255
194 221 255
194 221 255
194 221 255
194 221 255
194 221 255
194 221 255
194 221 255
194 221 255
194 221 255
194 221 255
194 221 255
194 221 255
194 221 255
194 221 255
194 221 255
194 221 255
194 221 255
194 221 255
194 221 255
194 221 255
195 221 255
195 221 255
195 221 255
195 221 255
195 221 255
195 221 255
195 221 255
195 221 255
195 221 255
195 221 255
195 221 255
195 221 255
195 221 255
195 221 255
195 221 255
195 221 255
195 221 255
195 221 255
195 221 255
195 221 255
195 221 255
195 221 255
195 221 255
195 221 255
195 221 255
195 221 255
195 221 255
195 221 255
195 221 255
195 221 255
196 221 255
196 222 255
196 222 255
196 222 255
196 222 255
196 222 255
196 222 255
196 222 255
196 222 255
196 222 255
196 222 255
196 222 255
196 222 255
196 222 255
196 222 255
196 222 255
196 222 255
196 222 255
197 222 255
197 222 255
197 222 255
197 222 255
197 222 255
197 222 255
197 222 255
197 222 255
197 222 255
197 222 255
197 222 255
197 222 255
197 222 255
197 222 255
197 222 255
197 223 255
198 223 255
198 223 255
198 223 255
198 223 255
198 223 255
198 223 255
198 223 255
198 223 255
198 223 255
198 223 255
198 223 255
198 223 255
198 223 255
198 223 255
199 223 255
199 223 255
199 223 255
199 223 255
199 223 255
199 223 255
199 223 255
199 223 255
199 223 255
199 223 255
199 223 255
199 223 255
199 223 255
199 224 255
199 224 255
200 224 255
200 224 255
200 224 255
200 224 255
200 224 255
200 224 255
200 224 255
200 224 255
200 224 255
200 224 255
200 224 255
200 224 255
200 224 255
200 224 255
201 224 255
201 224 255
201 224 255
201 224 255
201 224 255
201 224 255
201 224 255
201 224 255
201 224 255
201 224 255
201 224 255
201 225 255
201 225 255
201 225 255
201 225 255
202 225 255
202 225 255
202 225 255
202 225 255
202 225 255
202 225 255
202 225 255
202 225 255
202 225 255
202 225 255
202 225 255
202 225 255
202 225 255
202 225 255
202 225 255
203 225 255
203 225 255
203 225 255
203 225 255
203 225 255
203 225 255
203 225 255
203 225 255
203 225 255
203 226 255
203 226 255
203 226 255
203 226 255
203 226 255
203 226 255
203 226 255
203 226 255
204 226 255
204 226 255
204 226 255
204 226 255
204 226 255
204 226 255
204 226 255
204 226 255
204 226 255
204 226 255
204 226 255
204 226 255
204 226 255
204 226 255
204 226 255
204 226 255
204 226 255
205 226 255
205 226 255
205 226 255
205 226 255
205 226 255
205 226 255
205 226 255
205 227 255
205 227 255
205 227 255
205 227 255
205 227 255
205 227 255
205 227 255
205 227 255
205 227 255
205 227 255
205 227 255
205 227 255
205 227 255
205 227 255
205 227 255
205 227 255
205 226 255
205 226 255
205 226 255
205 226 255
205 226 255
205 226 255
205 226 255
205 226 255
204 226 255
204 226 255
204 226 255
204 226 255
204 226 255
204 226 255
204 226 255
204 226 255
204 226 255
204 226 255
204 226 255
204 226 255
204 226 255
204 226 255
204 226 255
204 226 255
204 226 255
203 226 255
203 226 255
203 226 255
203 226 255
203 226 255
203 226 255
203 226 255
203 225 255
203 225 255
203 225 255
203 225 255
203 225 255
203 225 255
203 225 255
203 225 255
203 225 255
202 225 255
202 225 255
202 225 255
202 225 255
202 225 255
202 225 255
202 225 255
202 225 255
202 225 255
202 225 255
202 225 255
202 225 255
202 225 255
202 225 255
202 225 255
201 225 255
201 225 255
201 225 255
201 225 255
201 225 255
201 224 255
201 224 255
201 224 255
201 224 255
201 224 255
201 224 255
201 224 255
201 224 255
201 224 255
201 224 255
200 224 255
200 224 255
200 224 255
200 224 255
200 224 255
200 224 255
200 224 255
200 224 255
200 224 255
200 224 255
200 224 255
200 224 255
200 224 255
200 224 255
199 224 255
199 224 255
199 224 255
199 223 255
199 223 255
199 223 255
199 223 255
199 223 255
199 223 255
199 223 255
199 223 255
199 223 255
199 223 255
199 223 255
199 223 255
198 223 255
198 223 255
198 223 255
198 223 255
198 223 255
198 223 255
198 223 255
198 223 255
198 223 255
198 223 255
198 223 255
198 223 255
198 223 255
198 223 255
197 223 255
197 222 255
197 222 255
197 222 255
197 222 255
197 222 255
197 222 255
197 222 255
197 222 255
197 222 255
197 222 255
197 222 255
197 222 255
197 222 255
197 222 255
197 222 255
196 222 255
196 222 255
196 222 255
196 222 255
196 222 255
196 222 255
196 222 255
196 222 255
196 222 255
196 222 255
196 222 255
196 222 255
196 222 255
196 222 255
196 222 255
196 222 255
196 222 255
196 222 255
196 221 255
195 221 255
195 221 255
195 221 255
195 221 255
195 221 255
195 221 255
195 221 255
195 221 255
195 221 255
195 221 255
195 221 255
195 221 255
195 221 255
195 221 255
195 221 255
195 221 255
195 221 255
195 221 255
195 221 255
195 221 255
195 221 255
195 221 255
195 221 255
195 221 255
195 221 255
195 221 255
195 221 255
195 221 255
195 221 255
195 221 255
195 221 255
195 221 255
195 221 255
195 221 255
195 221 255
195 221 255
195 221 255
195 221 255
195 221 255
195 221 255
195 221 255
195 221 255
195 221 255
195 221 255
195 221 255
195 221 255
195 221 255
195 221 255
195 221 255
195 221 255
195 221 255
195 221 255
195 221 255
195 221 255
195 221 255
195 221 255
195 221 255
195 221 255
195 221 255
195 221 255
195 221 255
195 221 255
195 221 255
195 221 255
195 221 255
195 221 255
195 221 255
195 221 255
195 221 255
195 221 255
195 221 255
195 221 255
195 221 255
195 221 255
195 221 255
195 221 255
195 221 255
195 221 255
195 221 255
195 221 255
195 221 255
195 221 255
195 221 255
195 221 255
196 221 255
196 222 255
196 222 255
196 222 255
196 222 255
196 222 255
196 222 255
196 222 255
196 222 255
196 222 255
196 222 255
196 222 255
196 222 255
196 222 255
196 222 255
196 222 255
196 222 255
196 222 255
197 222 255
197 222 255
197 222 255
197 222 255
197 222 255
197 222 255
197 222 255
197 222 255
197 222 255
197 222 255
197 222 255
197 222 255
197 222 255
197 222 255
197 222 255
197 222 255
197 223 255
198 223 255
198 223 255
198 223 255
198 223 255
198 223 255
198 223 255
198 223 255
198 223 255
198 223 255
198 223 255
198 223 255
198 223 255
198 223 255
198 223 255
199 223 255
199 223 255
199 223 255
199 223 255
199 223 255
199 223 255
199 223 255
199 223 255
199 223 255
199 223 255
199 223 255
199 223 255
199 223 255
199 224 255
199 224 255
200 224 255
200 224 255
200 224 255
200 224 255
200 224 255
200 224 255
200 224 255
200 224 255
200 224 255
200 224 255
200 224 255
200 224 255
200 224 255
200 224 255
201 224 255
201 224 255
201 224 255
201 224 255
201 224 255
201 224 255
201 224 255
201 224 255
201 224 255
201 224 255
201 224 255
201 225 255
201 225 255
201 225 255
201 225 255
202 225 255
202 225 255
202 225 255
202 225 255
202 225 255
202 225 255
202 225 255
202 225 255
202 225 255
202 225 255
202 225 255
202 225 255
202 225 255
202 225 255
202 225 255
203 225 255
203 225 255
203 225 255
203 225 255
203 225 255
203 225 255
203 225 255
203 225 255
203 225 255
203 226 255
203 226 255
203 226 255
203 226 255
203 226 255
203 226 255
203 226 255
204 226 255
204 226 255
204 226 255
204 226 255
204 226 255
204 226 255
204 226 255
204 226 255
204 226 255
204 226 255
204 226 255
204 226 255
204 226 255
204 226 255
204 226 255
204 226 255
204 226 255
204 226 255
205 226 255
205 226 255
205 226 255
205 226 255
205 226 255
205 226 255
205 226 255
205 227 255
205 227 255
205 227 255
205 227 255
205 227 255
205 227 255
205 227 255
205 227 255
205 227 255
205 227 255
205 227 255
205 227 255
205 227 255
205 227 255
205 227 255
205 227 255
205 227 255
205 227 255
205 227 255
205 227 255
205 227 255
205 226 255
205 226 255
205 226 255
205 226 255
205 226 255
205 226 255
205 226 255
204 226 255
204 226 255
204 226 255
204 226 255
204 226 255
204 226 255
204 226 255
204 226 255
204 226 255
204 226 255
204 226 255
204 226 255
204 226 255
204 226 255
204 226 255
204 226 255
204 226 255
203 226 255
203 226 255
203 226 255
203 226 255
203 226 255
203 226 255
203 226 255
203 225 255
203 225 255
203 225 255
203 225 255
203 225 255
203 225 255
203 225 255
203 225 255
203 225 255
202 225 255
202 225 255
202 225 255
202 225 255
202 225 255
202 225 255
202 225 255
202 225 255
202 225 255
202 225 255
202 225 255
202 225 255
202 225 255
202 225 255
202 225 255
201 225 255
201 225 255
201 225 255
201 225 255
201 225 255
201 224 255
201 224 255
201 224 255
201 224 255
201 224 255
201 224 255
201 224 255
201 224 255
201 224 255
201 224 255
200 224 255
200 224 255
200 224 255
200 224 255
200 224 255
200 224 255
200 224 255
200 224 255
200 224 255
200 224 255
200 224 255
200 224 255
200 224 255
200 224 255
199 224 255
199 224 255
199 224 255
199 223 255
199 223 255
199 223 255
199 223 255
199 223 255
199 223 255
199 223 255
199 223 255
199 223 255
199 223 255
199 223 255
199 223 255
198 223 255
198 223 255
198 223 255
198 223 255
198 223 255
198 223 255
198 223 255
198 223 255
198 223 255
198 223 255
198 223 255
198 223 255
198 223 255
198 223 255
198 223 255
197 222 255
197 222 255
197 222 255
197 222 255
197 222 255
197 222 255
197 222 255
197 222 255
197 222 255
197 222 255
197 222 255
197 222 255
197 222 255
197 222 255
197 222 255
197 222 255
196 222 255
196 222 255
196 222 255
196 222 255
196 222 255
196 222 255
196 222 255
196 222 255
196 222 255
196 222 255
196 222 255
196 222 255
196 222 255
196 222 255
196 222 255
196 222 255
196 222 255
196 222 255
196 221 255
196 221 255
195 221 255
195 221 255
195 221 255
195 221 255
195 221 255
195 221 255
195 221 255
195 221 255
195 221 255
195 221 255
195 221 255
195 221 255
195 221 255
195 221 255
195 221 255
195 221 255
195 221 255
195 221 255
195 221 255
195 221 255
195 221 255
195 221 255
195 221 255
195 221 255
195 221 255
195 221 255
195 221 255
195 221 255
195 221 255
195 221 255
195 221 255
195 221 255
195 221 255
195 221 255
195 221 255
195 221 255
195 221 255
195 221 255
195 221 255
195 221 255
195 221 255
195 221 255
195 221 255
195 221 255
195 221 255
195 221 255
195 221 255
195 221 255
195 221 255
195 221 255
195 221 255
195 221 255
195 221 255
195 221 255
195 221 255
195 221 255
195 221 255
195 221 255
195 221 255
195 221 255
195 221 255
195 221 255
195 221 255
195 221 255
195 221 255
195 221 255
195 221 255
195 221 255
195 221 255
195 221 255
195 221 255
195 221 255
195 221 255
195 221 255
195 221 255
195 221 255
196 221 255
196 221 255
196 222 255
196 222 255
196 222 255
196 222 255
196 222 255
196 222 255
196 222 255
196 222 255
196 222 255
196 222 255
196 222 255
196 222 255
196 222 255
196 222 255
196 222 255
196 222 255
196 222 255
196 222 255
197 222 255
197 222 255
197 222 255
197 222 255
197 222 255
197 222 255
197 222 255
197 222 255
197 222 255
197 222 255
197 222 255
197 222 255
197 222 255
197 222 255
197 222 255
197 222 255
198 223 255
198 223 255
198 223 255
198 223 255
198 223 255
198 223 255
198 223 255
198 223 255
198 223 255
198 223 255
198 223 255
198 223 255
198 223 255
198 223 255
198 223 255
199 223 255
199 223 255
199 223 255
199 223 255
199 223 255
199 223 255
199 223 255
199 223 255
199 223 255
199 223 255
199 223 255
199 223 255
199 224 255
199 224 255
199 224 255
200 224 255
200 224 255
200 224 255
200 224 255
200 224 255
200 224 255
200 224 255
200 224 255
200 224 255
200 224 255
200 224 255
200 224 255
200 224 255
200 224 255
201 224 255
201 224 255
201 224 255
201 224 255
201 224 255
201 224 255
201 224 255
201 224 255
201 224 255
201 224 255
201 225 255
201 225 255
201 225 255
201 225 255
201 225 255
202 225 255
202 225 255
202 225 255
202 225 255
202 225 255
202 225 255
202 225 255
202 225 255
202 225 255
202 225 255
202 225 255
202 225 255
202 225 255
202 225 255
202 225 255
203 225 255
203 225 255
203 225 255
203 225 255
203 225 255
203 225 255
203 225 255
203 225 255
203 225 255
203 226 255
203 226 255
203 226 255
203 226 255
203 226 255
203 226 255
203 226 255
204 226 255
204 226 255
204 226 255
204 226 255
204 226 255
204 226 255
204 226 255
204 226 255
204 226 255
204 226 255
204 226 255
204 226 255
204 226 255
204 226 255
204 226 255
204 226 255
204 226 255
205 226 255
205 226 255
205 226 255
205 226 255
205 226 255
205 226 255
205 226 255
205 227 255
205 227 255
205 227 255
205 227 255
205 227 255
205 227 255
205 227 255
205 227 255
205 227 255
205 227 255
205 227 255
205 227 255
206 227 255
206 227 255
206 227 255
205 227 255
205 227 255
205 227 255
205 227 255
205 227 255
205 227 255
205 227 255
205 227 255
205 227 255
205 227 255
205 227 255
205 226 255
205 226 255
205 226 255
205 226 255
205 226 255
205 226 255
205 226 255
204 226 255
204 226 255
204 226 255
204 226 255
204 226 255
204 226 255
204 226 255
204 226 255
204 226 255
204 226 255
204 226 255
204 226 255
204 226 255
204 226 255
204 226 255
204 226 255
204 226 255
203 226 255
203 226 255
203 226 255
203 226 255
203 226 255
203 226 255
203 226 255
203 225 255
203 225 255
203 225 255
203 225 255
203 225 255
203 225 255
203 225 255
203 225 255
203 225 255
202 225 255
202 225 255
202 225 255
202 225 255
202 225 255
202 225 255
202 225 255
202 225 255
202 225 255
202 225 255
202 225 255
202 225 255
202 225 255
202 225 255
202 225 255
202 225 255
201 225 255
201 225 255
201 225 255
201 225 255
201 224 255
201 224 255
201 224 255
201 224 255
201 224 255
201 224 255
201 224 255
201 224 255
201 224 255
201 224 255
200 224 255
200 224 255
200 224 255
200 224 255
200 224 255
200 224 255
200 224 255
200 224 255
200 224 255
200 224 255
200 224 255
200 224 255
200 224 255
200 224 255
200 224 255
199 224 255
199 224 255
199 223 255
199 223 255
199 223 255
199 223 255
199 223 255
199 223 255
199 223 255
199 223 255
199 223 255
199 223 255
199 223 255
199 223 255
198 223 255
198 223 255
198 223 255
198 223 255
198 223 255
198 223 255
198 223 255
198 223 255
198 223 255
198 223 255
198 223 255
198 223 255
198 223 255
198 223 255
198 223 255
197 223 255
197 222 255
197 222 255
197 222 255
197 222 255
197 222 255
197 222 255
197 222 255
197 222 255
197 222 255
197 222 255
197 222 255
197 222 255
197 222 255
197 222 255
197 222 255
197 222 255
196 222 255
196 222 255
196 222 255
196 222 255
196 222 255
196 222 255
196 222 255
196 222 255
196 222 255
196 222 255
196 222 255
196 222 255
196 222 255
196 222 255
196 222 255
196 222 255
196 222 255
196 222 255
196 221 255
196 221 255
196 221 255
195 221 255
195 221 255
195 221 255
195 221 255
195 221 255
195 221 255
195 221 255
195 221 255
195 221 255
195 221 255
195 221 255
195 221 255
195 221 255
195 221 255
195 221 255
195 221 255
195 221 255
195 221 255
195 221 255
195 221 255
195 221 255
195 221 255
195 221 255
195 221 255
195 221 255
195 221 255
195 221 255
195 221 255
195 221 255
195 221 255
195 221 255
195 221 255
195 221 255
195 221 255
195 221 255
195 221 255
195 221 255
195 221 255
195 221 255
195 221 255
195 221 255
195 221 255
195 221 255
195 221 255
195 221 255
195 221 255
195 221 255
195 221 255
195 221 255
195 221 255
195 221 255
195 221 255
195 221 255
195 221 255
195 221 255
195 221 255
195 221 255
195 221 255
195 221 255
195 221 255
195 221 255
195 221 255
195 221 255
195 221 255
195 221 255
195 221 255
195 221 255
195 221 255
196 221 255
196 221 255
196 221 255
196 222 255
196 222 255
196 222 255
196 222 255
196 222 255
196 222 255
196 222 255
196 222 255
196 222 255
196 222 255
196 222 255
196 222 255
196 222 255
196 222 255
196 222 255
196 222 255
196 222 255
196 222 255
197 222 255
197 222 255
197 222 255
197 222 255
197 222 255
197 222 255
197 222 255
197 222 255
197 222 255
197 222 255
197 222 255
197 222 255
197 222 255
197 222 255
197 222 255
197 222 255
197 223 255
198 223 255
198 223 255
198 223 255
198 223 255
198 223 255
198 223 255
198 223 255
198 223 255
198 223 255
198 223 255
198 223 255
198 223 255
198 223 255
198 223 255
198 223 255
199 223 255
199 223 255
199 223 255
199 223 255
199 223 255
199 223 255
199 223 255
199 223 255
199 223 255
199 223 255
199 223 255
199 223 255
199 224 255
199 224 255
200 224 255
200 224 255
200 224 255
200 224 255
200 224 255
200 224 255
200 224 255
200 224 255
200 224 255
200 224 255
200 224 255
200 224 255
200 224 255
200 224 255
200 224 255
201 224 255
201 224 255
201 224 255
201 224 255
201 224 255
201 224 255
201 224 255
201 224 255
201 224 255
201 224 255
201 225 255
201 225 255
201 225 255
201 225 255
202 225 255
202 225 255
202 225 255
202 225 255
202 225 255
202 225 255
202 225 255
202 225 255
202 225 255
202 225 255
202 225 255
202 225 255
202 225 255
202 225 255
202 225 255
202 225 255
203 225 255
203 225 255
203 225 255
203 225 255
203 225 255
203 225 255
203 225 255
203 225 255
203 226 255
203 226 255
203 226 255
203 226 255
203 226 255
203 226 255
203 226 255
204 226 255
204 226 255
204 226 255
204 226 255
204 226 255
204 226 255
204 226 255
204 226 255
204 226 255
204 226 255
204 226 255
204 226 255
204 226 255
204 226 255
204 226 255
204 226 255
204 226 255
204 226 255
205 226 255
205 226 255
205 226 255
205 226 255
205 226 255
205 226 255
205 226 255
205 227 255
205 227 255
205 227 255
205 227 255
205 227 255
205 227 255
205 227 255
205 227 255
205 227 255
205 227 255
205 227 255
206 227 255
206 227 255
206 227 255
206 227 255
206 227 255
206 227 255
206 227 255
206 227 255
205 227 255
205 227 255
205 227 255
205 227 255
205 227 255
205 227 255
205 227 255
205 227 255
205 227 255
205 227 255
205 227 255
205 227 255
205 226 255
205 226 255
205 226 255
205 226 255
205 226 255
205 226 255
205 226 255
204 226 255
204 226 255
204 226 255
204 226 255
204 226 255
204 226 255
204 226 255
204 226 255
204 226 255
204 226 255
204 226 255
204 226 255
204 226 255
204 226 255
204 226 255
204 226 255
204 226 255
203 226 255
203 226 255
203 226 255
203 226 255
203 226 255
203 226 255
203 226 255
203 225 255
203 225 255
203 225 255
203 225 255
203 225 255
203 225 255
203 225 255
203 225 255
203 225 255
202 225 255
202 225 255
202 225 255
202 225 255
202 225 255
202 225 255
202 225 255
202 225 255
202 225 255
202 225 255
202 225 255
202 225 255
202 225 255
202 225 255
202 225 255
201 225 255
201 225 255
201 225 255
201 225 255
201 224 255
201 224 255
201 224 255
201 224 255
201 224 255
201 224 255
201 224 255
201 224 255
201 224 255
201 224 255
200 224 255
200 224 255
200 224 255
200 224 255
200 224 255
200 224 255
200 224 255
200 224 255
200 224 255
200 224 255
200 224 255
200 224 255
200 224 255
200 224 255
200 224 255
199 224 255
199 224 255
199 223 255
199 223 255
199 223 255
199 223 255
199 223 255
199 223 255
199 223 255
199 223 255
199 223 255
199 223 255
199 223 255
199 223 255
198 223 255
198 223 255
198 223 255
198 223 255
198 223 255
198 223 255
198 223 255
198 223 255
198 223 255
198 223 255
198 223 255
198 223 255
198 223 255
198 223 255
198 223 255
198 223 255
197 222 255
197 222 255
197 222 255
197 222 255
197 222 255
197 222 255
197 222 255
197 222 255
197 222 255
197 222 255
197 222 255
197 222 255
197 222 255
197 222 255
197 222 255
197 222 255
197 222 255
196 222 255
196 222 255
196 222 255
196 222 255
196 222 255
196 222 255
196 222 255
196 222 255
196 222 255
196 222 255
196 222 255
196 222 255
196 222 255
196 222 255
196 222 255
196 222 255
196 222 255
196 222 255
196 222 255
196 222 255
196 221 255
196 221 255
195 221 255
195 221 255
195 221 255
195 221 255
195 221 255
195 221 255
195 221 255
195 221 255
195 221 255
195 221 255
195 221 255
195 221 255
195 221 255
195 221 255
195 221 255
195 221 255
195 221 255
195 221 255
195 221 255
195 221 255
195 221 255
195 221 255
195 221 255
195 221 255
195 221 255
195 221 255
195 221 255
195 221 255
195 221 255
195 221 255
195 221 255
195 221 255
195 221 255
195 221 255
195 221 255
195 221 255
195 221 255
195 221 255
195 221 255
195 221 255
195 221 255
195 221 255
195 221 255
195 221 255
195 221 255
195 221 255
195 221 255
195 221 255
195 221 255
195 221 255
195 221 255
195 221 255
195 221 255
195 221 255
195 221 255
195 221 255
195 221 255
195 221 255
195 221 255
195 221 255
196 221 255
196 221 255
196 222 255
196 222 255
196 222 255
196 222 255
196 222 255
196 222 255
196 222 255
196 222 255
196 222 255
196 222 255
196 222 255
196 222 255
196 222 255
196 222 255
196 222 255
196 222 255
196 222 255
196 222 255
196 222 255
196 222 255
197 222 255
197 222 255
197 222 255
197 222 255
197 222 255
197 222 255
197 222 255
197 222 255
197 222 255
197 222 255
197 222 255
197 222 255
197 222 255
197 222 255
197 222 255
197 222 255
197 222 255
198 223 255
198 223 255
198 223 255
198 223 255
198 223 255
198 223 255
198 223 255
198 223 255
198 223 255
198 223 255
198 223 255
198 223 255
198 223 255
198 223 255
198 223 255
199 223 255
199 223 255
199 223 255
199 223 255
199 223 255
199 223 255
199 223 255
199 223 255
199 223 255
199 223 255
199 223 255
199 223 255
199 223 255
199 224 255
199 224 255
200 224 255
200 224 255
200 224 255
200 224 255
200 224 255
200 224 255
200 224 255
200 224 255
200 224 255
200 224 255
200 224 255
200 224 255
200 224 255
200 224 255
200 224 255
201 224 255
201 224 255
201 224 255
201 224 255
201 224 255
201 224 255
201 224 255
201 224 255
201 224 255
201 224 255
201 225 255
201 225 255
201 225 255
201 225 255
202 225 255
202 225 255
202 225 255
202 225 255
202 225 255
202 225 255
202 225 255
202 225 255
202 225 255
202 225 255
202 225 255
202 225 255
202 225 255
202 225 255
202 225 255
203 225 255
203 225 255
203 225 255
203 225 255
203 225 255
203 225 255
203 225 255
203 225 255
203 225 255
203 226 255
203 226 255
203 226 255
203 226 255
203 226 255
203 226 255
203 226 255
204 226 255
204 226 255
204 226 255
204 226 255
204 226 255
204 226 255
204 226 255
204 226 255
204 226 255
204 226 255
204 226 255
204 226 255
204 226 255
204 226 255
204 226 255
204 226 255
204 226 255
205 226 255
205 226 255
205 226 255
205 226 255
205 226 255
205 226 255
205 226 255
205 226 255
205 227 255
205 227 255
205 227 255
205 227 255
205 227 255
205 227 255
205 227 255
205 227 255
205 227 255
205 227 255
206 227 255
206 227 255
206 227 255
206 227 255
206 227 255
206 227 255
206 227 255
206 227 255
206 227 255
206 227 255
206 227 255
206 227 255
206 227 255
206 227 255
205 227 255
205 227 255
205 227 255
205 227 255
205 227 255
205 227 255
205 227 255
205 227 255
205 227 255
205 227 255
205 227 255
205 226 255
205 226 255
205 226 255
205 226 255
205 226 255
205 226 255
205 226 255
204 226 255
204 226 255
204 226 255
204 226 255
204 226 255
204 226 255
204 226 255
204 226 255
204 226 255
204 226 255
204 226 255
204 226 255
204 226 255
204 226 255
204 226 255
204 226 255
204 226 255
203 226 255
203 226 255
203 226 255
203 226 255
203 226 255
203 226 255
203 226 255
203 225 255
203 225 255
203 225 255
203 225 255
203 225 255
203 225 255
203 225 255
203 225 255
203 225 255
202 225 255
202 225 255
202 225 255
202 225 255
202 225 255
202 225 255
202 225 255
202 225 255
202 225 255
202 225 255
202 225 255
202 225 255
202 225 255
202 225 255
202 225 255
201 225 255
201 225 255
201 225 255
201 225 255
201 225 255
201 224 255
201 224 255
201 224 255
201 224 255
201 224 255
201 224 255
201 224 255
201 224 255
201 224 255
201 224 255
200 224 255
200 224 255
200 224 255
200 224 255
200 224 255
200 224 255
200 224 255
200 224 255
200 224 255
200 224 255
200 224 255
200 224 255
200 224 255
200 224 255
199 224 255
199 224 255
199 223 255
199 223 255
199 223 255
199 223 255
199 223 255
199 223 255
199 223 255
199 223 255
199 223 255
199 223 255
199 223 255
199 223 255
199 223 255
198 223 255
198 223 255
198 223 255
198 223 255
198 223 255
198 223 255
198 223 255
198 223 255
198 223 255
198 223 255
198 223 255
198 223 255
198 223 255
198 223 255
198 223 255
197 223 255
197 222 255
197 222 255
197 222 255
197 222 255
197 222 255
197 222 255
197 222 255
197 222 255
197 222 255
197 222 255
197 222 255
197 222 255
197 222 255
197 222 255
197 222 255
197 222 255
197 222 255
196 222 255
196 222 255
196 222 255
196 222 255
196 222 255
196 222 255
196 222 255
196 222 255
196 222 255
196 222 255
196 222 255
196 222 255
196 222 255
196 222 255
196 222 255
196 222 255
196 222 255
196 222 255
196 222 255
196 222 255
196 222 255
196 221 255
196 221 255
196 221 255
195 221 255
195 221 255
195 221 255
195 221 255
195 221 255
195 221 255
195 221 255
195 221 255
195 221 255
195 221 255
195 221 255
195 221 255
195 221 255
195 221 255
195 221 255
195 221 255
195 221 255
195 221 255
195 221 255
195 221 255
195 221 255
195 221 255
195 221 255
195 221 255
195 221 255
195 221 255
195 221 255
195 221 255
195 221 255
195 221 255
195 221 255
195 221 255
195 221 255
195 221 255
195 221 255
195 221 255
195 221 255
195 221 255
195 221 255
195 221 255
195 221 255
195 221 255
195 221 255
195 221 255
195 221 255
195 221 255
195 221 255
195 221 255
195 221 255
195 221 255
196 221 255
196 221 255
196 221 255
196 222 255
196 222 255
196 222 255
196 222 255
196 222 255
196 222 255
196 222 255
196 222 255
196 222 255
196 222 255
196 222 255
196 222 255
196 222 255
196 222 255
196 222 255
196 222 255
196 222 255
196 222 255
196 222 255
196 222 255
196 222 255
197 222 255
197 222 255
197 222 255
197 222 255
197 222 255
197 222 255
197 222 255
197 222 255
197 222 255
197 222 255
197 222 255
197 222 255
197 222 255
197 222 255
197 222 255
197 222 255
197 222 255
197 223 255
198 223 255
198 223 255
198 223 255
198 223 255
198 223 255
198 223 255
198 223 255
198 223 255
198 223 255
198 223 255
198 223 255
198 223 255
198 223 255
198 223 255
198 223 255
199 223 255
199 223 255
199 223 255
199 223 255
199 223 255
199 223 255
199 223 255
199 223 255
199 223 255
199 223 255
199 223 255
199 223 255
199 223 255
199 224 255
199 224 255
200 224 255
200 224 255
200 224 255
200 224 255
200 224 255
200 224 255
200 224 255
200 224 255
200 224 255
200 224 255
200 224 255
200 224 255
200 224 255
200 224 255
201 224 255
201 224 255
201 224 255
201 224 255
201 224 255
201 224 255
201 224 255
201 224 255
201 224 255
201 224 255
201 225 255
201 225 255
201 225 255
201 225 255
201 225 255
202 225 255
202 225 255
202 225 255
202 225 255
202 225 255
202 225 255
202 225 255
202 225 255
202 225 255
202 225 255
202 225 255
202 225 255
202 225 255
202 225 255
202 225 255
203 225 255
203 225 255
203 225 255
203 225 255
203 225 255
203 225 255
203 225 255
203 225 255
203 225 255
203 226 255
203 226 255
203 226 255
203 226 255
203 226 255
203 226 255
203 226 255
204 226 255
204 226 255
204 226 255
204 226 255
204 226 255
204 226 255
204 226 255
204 226 255
204 226 255
204 226 255
204 226 255
204 226 255
204 226 255
204 226 255
204 226 255
204 226 255
204 226 255
205 226 255
205 226 255
205 226 255
205 226 255
205 226 255
205 226 255
205 226 255
205 227 255
205 227 255
205 227 255
205 227 255
205 227 255
205 227 255
205 227 255
205 227 255
205 227 255
205 227 255
205 227 255
206 227 255
206 227 255
206 227 255
206 227 255
206 227 255
206 227 255
206 227 255
206 227 255
206 227 255
206 227 255
206 227 255
206 227 255
206 227 255
206 227 255
206 227 255
206 227 255
206 227 255
206 227 255
205 227 255
205 227 255
205 227 255
205 227 255
205 227 255
205 227 255
205 227 255
205 227 255
205 227 255
205 227 255
205 227 255
205 227 255
205 226 255
205 226 255
205 226 255
205 226 255
205 226 255
205 226 255
205 226 255
204 226 255
204 226 255
204 226 255
204 226 255
204 226 255
204 226 255
204 226 255
204 226 255
204 226 255
204 226 255
204 226 255
204 226 255
204 226 255
204 226 255
204 226 255
204 226 255
204 226 255
203 226 255
203 226 255
203 226 255
203 226 255
203 226 255
203 226 255
203 226 255
203 225 255
203 225 255
203 225 255
203 225 255
203 225 255
203 225 255
203 225 255
203 225 255
202 225 255
202 225 255
202 225 255
202 225 255
202 225 255
202 225 255
202 225 255
202 225 255
202 225 255
202 225 255
202 225 255
202 225 255
202 225 255
202 225 255
202 225 255
201 225 255
201 225 255
201 225 255
201 225 255
201 225 255
201 224 255
201 224 255
201 224 255
201 224 255
201 224 255
201 224 255
201 224 255
201 224 255
201 224 255
201 224 255
200 224 255
200 224 255
200 224 255
200 224 255
200 224 255
200 224 255
200 224 255
200 224 255
200 224 255
200 224 255
200 224 255
200 224 255
200 224 255
200 224 255
199 224 255
199 224 255
199 224 255
199 223 255
199 223 255
199 223 255
199 223 255
199 223 255
199 223 255
199 223 255
199 223 255
199 223 255
199 223 255
199 223 255
199 223 255
198 223 255
198 223 255
198 223 255
198 223 255
198 223 255
198 223 255
198 223 255
198 223 255
198 223 255
198 223 255
198 223 255
198 223 255
198 223 255
198 223 255
198 223 255
198 223 255
197 222 255
197 222 255
197 222 255
197 222 255
197 222 255
197 222 255
197 222 255
197 222 255
197 222 255
197 222 255
197 222 255
197 222 255
197 222 255
197 222 255
197 222 255
197 222 255
197 222 255
197 222 255
196 222 255
196 222 255
196 222 255
196 222 255
196 222 255
196 222 255
196 222 255
196 222 255
196 222 255
196 222 255
196 222 255
196 222 255
196 222 255
196 222 255
196 222 255
196 222 255
196 222 255
196 222 255
196 222 255
196 222 255
196 222 255
196 222 255
196 222 255
196 222 255
196 221 255
196 221 255
196 221 255
195 221 255
195 221 255
195 221 255
195 221 255
195 221 255
195 221 255
195 221 255
195 221 255
195 221 255
195 221 255
195 221 255
195 221 255
195 221 255
195 221 255
195 221 255
195 221 255
195 221 255
195 221 255
195 221 255
195 221 255
195 221 255
195 221 255
195 221 255
195 221 255
195 221 255
195 221 255
195 221 255
195 221 255
195 221 255
195 221 255
195 221 255
195 221 255
195 221 255
195 221 255
195 221 255
195 221 255
195 221 255
195 221 255
196 221 255
196 221 255
196 221 255
196 222 255
196 222 255
196 222 255
196 222 255
196 222 255
196 222 255
196 222 255
196 222 255
196 222 255
196 222 255
196 222 255
196 222 255
196 222 255
196 222 255
196 222 255
196 222 255
196 222 255
196 222 255
196 222 255
196 222 255
196 222 255
196 222 255
196 222 255
196 222 255
197 222 255
197 222 255
197 222 255
197 222 255
197 222 255
197 222 255
197 222 255
197 222 255
197 222 255
197 222 255
197 222 255
197 222 255
197 222 255
197 222 255
197 222 255
197 222 255
197 222 255
197 222 255
198 223 255
198 223 255
198 223 255
198 223 255
198 223 255
198 223 255
198 223 255
198 223 255
198 223 255
198 223 255
198 223 255
198 223 255
198 223 255
198 223 255
198 223 255
198 223 255
199 223 255
199 223 255
199 223 255
199 223 255
199 223 255
199 223 255
199 223 255
199 223 255
199 223 255
199 223 255
199 223 255
199 223 255
199 224 255
199 224 255
199 224 255
200 224 255
200 224 255
200 224 255
200 224 255
200 224 255
200 224 255
200 224 255
200 224 255
200 224 255
200 224 255
200 224 255
200 224 255
200 224 255
200 224 255
201 224 255
201 224 255
201 224 255
201 224 255
201 224 255
201 224 255
201 224 255
201 224 255
201 224 255
201 224 255
201 225 255
201 225 255
201 225 255
201 225 255
201 225 255
202 225 255
202 225 255
202 225 255
202 225 255
202 225 255
202 225 255
202 225 255
202 225 255
202 225 255
202 225 255
202 225 255
202 225 255
202 225 255
202 225 255
202 225 255
203 225 255
203 225 255
203 225 255
203 225 255
203 225 255
203 225 255
203 225 255
203 225 255
203 225 255
203 226 255
203 226 255
203 226 255
203 226 255
203 226 255
203 226 255
203 226 255
204 226 255
204 226 255
204 226 255
204 226 255
204 226 255
204 226 255
204 226 255
204 226 255
204 226 255
204 226 255
204 226 255
204 226 255
204 226 255
204 226 255
204 226 255
204 226 255
205 226 255
205 226 255
205 226 255
205 226 255
205 226 255
205 226 255
205 226 255
205 227 255
205 227 255
205 227 255
205 227 255
205 227 255
205 227 255
205 227 255
205 227 255
205 227 255
205 227 255
205 227 255
206 227 255
206 227 255
206 227 255
206 227 255
206 227 255
206 227 255
206 227 255
206 227 255
206 227 255
206 227 255
206 227 255
206 227 255
206 227 255
206 227 255
206 227 255
206 227 255
206 227 255
206 227 255
206 227 255
206 227 255
206 227 255
206 227 255
206 227 255
206 227 255
205 227 255
205 227 255
205 227 255
205 227 255
205 227 255
205 227 255
205 227 255
205 227 255
205 227 255
205 227 255
205 227 255
205 226 255
205 226 255
205 226 255
205 226 255
205 226 255
205 226 255
205 226 255
204 226 255
204 226 255
204 226 255
204 226 255
204 226 255
204 226 255
204 226 255
204 226 255
204 226 255
204 226 255
204 226 255
204 226 255
204 226 255
204 226 255
204 226 255
204 226 255
204 226 255
203 226 255
203 226 255
203 226 255
203 226 255
203 226 255
203 226 255
203 226 255
203 225 255
203 225 255
203 225 255
203 225 255
203 225 255
203 225 255
203 225 255
203 225 255
202 225 255
202 225 255
202 225 255
202 225 255
202 225 255
202 225 255
202 225 255
202 225 255
202 225 255
202 225 255
202 225 255
202 225 255
202 225 255
202 225 255
202 225 255
202 225 255
201 225 255
201 225 255
201 225 255
201 225 255
201 224 255
201 224 255
201 224 255
201 224 255
201 224 255
201 224 255
201 224 255
201 224 255
201 224 255
201 224 255
200 224 255
200 224 255
200 224 255
200 224 255
200 224 255
200 224 255
200 224 255
200 224 255
200 224 255
200 224 255
200 224 255
200 224 255
200 224 255
200 224 255
200 224 255
199 224 255
199 224 255
199 223 255
199 223 255
199 223 255
199 223 255
199 223 255
199 223 255
199 223 255
199 223 255
199 223 255
199 223 255
199 223 255
199 223 255
199 223 255
198 223 255
198 223 255
198 223 255
198 223 255
198 223 255
198 223 255
198 223 255
198 223 255
198 223 255
198 223 255
198 223 255
198 223 255
198 223 255
198 223 255
198 223 255
197 223 255
197 222 255
197 222 255
197 222 255
197 222 255
197 222 255
197 222 255
197 222 255
197 222 255
197 222 255
197 222 255
197 222 255
197 222 255
197 222 255
197 222 255
197 222 255
197 222 255
197 222 255
197 222 255
196 222 255
196 222 255
196 222 255
196 222 255
196 222 255
196 222 255
196 222 255
196 222 255
196 222 255
196 222 255
196 222 255
196 222 255
196 222 255
196 222 255
196 222 255
196 222 255
196 222 255
196 222 255
196 222 255
196 222 255
196 222 255
196 222 255
196 222 255
196 222 255
196 222 255
196 222 255
196 222 255
196 221 255
196 221 255
196 221 255
196 221 255
196 221 255
196 221 255
195 221 255
195 221 255
195 221 255
195 221 255
195 221 255
195 221 255
195 221 255
195 221 255
195 221 255
195 221 255
195 221 255
195 221 255
195 221 255
195 221 255
195 221 255
195 221 255
195 221 255
195 221 255
195 221 255
195 221 255
196 221 255
196 221 255
196 221 255
196 221 255
196 221 255
196 221 255
196 222 255
196 222 255
196 222 255
196 222 255
196 222 255
196 222 255
196 222 255
196 222 255
196 222 255
196 222 255
196 222 255
196 222 255
196 222 255
196 222 255
196 222 255
196 222 255
196 222 255
196 222 255
196 222 255
196 222 255
196 222 255
196 222 255
196 222 255
196 222 255
196 222 255
196 222 255
196 222 255
197 222 255
197 222 255
197 222 255
197 222 255
197 222 255
197 222 255
197 222 255
197 222 255
197 222 255
197 222 255
197 222 255
197 222 255
197 222 255
197 222 255
197 222 255
197 222 255
197 222 255
197 222 255
197 223 255
198 223 255
198 223 255
198 223 255
198 223 255
198 223 255
198 223 255
198 223 255
198 223 255
198 223 255
198 223 255
198 223 255
198 223 255
198 223 255
198 223 255
198 223 255
199 223 255
199 223 255
199 223 255
199 223 255
199 223 255
199 223 255
199 223 255
199 223 255
199 223 255
199 223 255
199 223 255
199 223 255
199 223 255
199 224 255
199 224 255
200 224 255
200 224 255
200 224 255
200 224 255
200 224 255
200 224 255
200 224 255
200 224 255
200 224 255
200 224 255
200 224 255
200 224 255
200 224 255
200 224 255
200 224 255
201 224 255
201 224 255
201 224 255
201 224 255
201 224 255
201 224 255
201 224 255
201 224 255
201 224 255
201 224 255
201 225 255
201 225 255
201 225 255
201 225 255
202 225 255
202 225 255
202 225 255
202 225 255
202 225 255
202 225 255
202 225 255
202 225 255
202 225 255
202 225 255
202 225 255
202 225 255
202 225 255
202 225 255
202 225 255
203 225 255
203 225 255
203 225 255
203 225 255
203 225 255
203 225 255
203 225 255
203 225 255
203 225 255
203 226 255
203 226 255
203 226 255
203 226 255
203 226 255
203 226 255
203 226 255
204 226 255
204 226 255
204 226 255
204 226 255
204 226 255
204 226 255
204 226 255
204 226 255
204 226 255
204 226 255
204 226 255
204 226 255
204 226 255
204 226 255
204 226 255
204 226 255
204 226 255
205 226 255
205 226 255
205 226 255
205 226 255
205 226 255
205 226 255
205 226 255
205 227 255
205 227 255
205 227 255
205 227 255
205 227 255
205 227 255
205 227 255
205 227 255
205 227 255
205 227 255
205 227 255
206 227 255
206 227 255
206 227 255
206 227 255
206 227 255
206 227 255
206 227 255
206 227 255
206 227 255
206 227 255
206 227 255
206 227 255
206 227 255
206 227 255
206 227 255
206 227 255
206 227 255
206 227 255
206 227 255
206 227 255
206 227 255
206 227 255
206 227 255
206 227 255
206 227 255
206 227 255
206 227 255
206 227 255
206 227 255
205 227 255
205 227 255
205 227 255
205 227 255
205 227 255
205 227 255
205 227 255
205 227 255
205 227 255
205 227 255
205 227 255
205 226 255
205 226 255
205 226 255
205 226 255
205 226 255
205 226 255
205 226 255
204 226 255
204 226 255
204 226 255
204 226 255
204 226 255
204 226 255
204 226 255
204 226 255
204 226 255
204 226 255
204 226 255
204 226 255
204 226 255
204 226 255
204 226 255
204 226 255
203 226 255
203 226 255
203 226 255
203 226 255
203 226 255
203 226 255
203 226 255
203 225 255
203 225 255
203 225 255
203 225 255
203 225 255
203 225 255
203 225 255
203 225 255
203 225 255
202 225 255
202 225 255
202 225 255
202 225 255
202 225 255
202 225 255
202 225 255
202 225 255
202 225 255
202 225 255
202 225 255
202 225 255
202 225 255
202 225 255
202 225 255
201 225 255
201 225 255
201 225 255
201 225 255
201 224 255
201 224 255
201 224 255
201 224 255
201 224 255
201 224 255
201 224 255
201 224 255
201 224 255
201 224 255
200 224 255
200 224 255
200 224 255
200 224 255
200 224 255
200 224 255
200 224 255
200 224 255
200 224 255
200 224 255
200 224 255
200 224 255
200 224 255
200 224 255
200 224 255
199 224 255
199 224 255
199 224 255
199 223 255
199 223 255
199 223 255
199 223 255
199 223 255
199 223 255
199 223 255
199 223 255
199 223 255
199 223 255
199 223 255
199 223 255
198 223 255
198 223 255
198 223 255
198 223 255
198 223 255
198 223 255
198 223 255
198 223 255
198 223 255
198 223 255
198 223 255
198 223 255
198 223 255
198 223 255
198 223 255
198 223 255
197 223 255
197 222 255
197 222 255
197 222 255
197 222 255
197 222 255
197 222 255
197 222 255
197 222 255
197 222 255
197 222 255
197 222 255
197 222 255
197 222 255
197 222 255
197 222 255
197 222 255
197 222 255
197 222 255
197 222 255
196 222 255
196 222 255
196 222 255
196 222 255
196 222 255
196 222 255
196 222 255
196 222 255
196 222 255
196 222 255
196 222 255
196 222 255
196 222 255
196 222 255
196 222 255
196 222 255
196 222 255
196 222 255
196 222 255
196 222 255
196 222 255
196 222 255
196 222 255
196 222 255
196 222 255
196 222 255
196 222 255
196 222 255
196 222 255
196 222 255
196 222 255
196 222 255
196 222 255
196 222 255
196 222 255
196 222 255
196 222 255
196 222 255
196 222 255
196 222 255
196 222 255
196 222 255
196 222 255
196 222 255
196 222 255
196 222 255
196 222 255
196 222 255
196 222 255
196 222 255
196 222 255
196 222 255
196 222 255
196 222 255
196 222 255
196 222 255
196 222 255
196 222 255
196 222 255
196 222 255
196 222 255
196 222 255
196 222 255
196 222 255
196 222 255
196 222 255
196 222 255
196 222 255
196 222 255
196 222 255
196 222 255
196 222 255
196 222 255
196 222 255
196 222 255
196 222 255
196 222 255
196 222 255
197 222 255
197 222 255
197 222 255
197 222 255
197 222 255
197 222 255
197 222 255
197 222 255
197 222 255
197 222 255
197 222 255
197 222 255
197 222 255
197 222 255
197 222 255
197 222 255
197 222 255
197 222 255
197 222 255
197 223 255
198 223 255
198 223 255
198 223 255
198 223 255
198 223 255
198 223 255
198 223 255
198 223 255
198 223 255
198 223 255
198 223 255
198 223 255
198 223 255
198 223 255
198 223 255
198 223 255
199 223 255
199 223 255
199 223 255
199 223 255
199 223 255
199 223 255
199 223 255
199 223 255
199 223 255
199 223 255
199 223 255
199 223 255
199 223 255
199 224 255
199 224 255
200 224 255
200 224 255
200 224 255
200 224 255
200 224 255
200 224 255
200 224 255
200 224 255
200 224 255
200 224 255
200 224 255
200 224 255
200 224 255
200 224 255
201 224 255
201 224 255
201 224 255
201 224 255
201 224 255
201 224 255
201 224 255
201 224 255
201 224 255
201 224 255
201 224 255
201 225 255
201 225 255
201 225 255
201 225 255
202 225 255
202 225 255
202 225 255
202 225 255
202 225 255
202 225 255
202 225 255
202 225 255
202 225 255
202 225 255
202 225 255
202 225 255
202 225 255
202 225 255
202 225 255
203 225 255
203 225 255
203 225 255
203 225 255
203 225 255
203 225 255
203 225 255
203 225 255
203 225 255
203 226 255
203 226 255
203 226 255
203 226 255
203 226 255
203 226 255
203 226 255
204 226 255
204 226 255
204 226 255
204 226 255
204 226 255
204 226 255
204 226 255
204 226 255
204 226 255
204 226 255
204 226 255
204 226 255
204 226 255
204 226 255
204 226 255
204 226 255
205 226 255
205 226 255
205 226 255
205 226 255
205 226 255
205 226 255
205 226 255
205 227 255
205 227 255
205 227 255
205 227 255
205 227 255
205 227 255
205 227 255
205 227 255
205 227 255
205 227 255
205 227 255
206 227 255
206 227 255
206 227 255
206 227 255
206 227 255
206 227 255
206 227 255
206 227 255
206 227 255
206 227 255
206 227 255
206 227 255
206 227 255
206 227 255
206 227 255
206 227 255
206 227 255
206 227 255
206 227 255
206 227 255
206 227 255
206 227 255
206 227 255
206 227 255
206 227 255
206 227 255
206 227 255
206 227 255
206 227 255
206 227 255
206 227 255
206 227 255
206 227 255
206 227 255
205 227 255
205 227 255
205 227 255
205 227 255
205 227 255
205 227 255
205 227 255
205 227 255
205 227 255
205 227 255
205 227 255
205 226 255
205 226 255
205 226 255
205 226 255
205 226 255
205 226 255
205 226 255
204 226 255
204 226 255
204 226 255
204 226 255
204 226 255
204 226 255
204 226 255
204 226 255
204 226 255
204 226 255
204 226 255
204 226 255
204 226 255
204 226 255
204 226 255
204 226 255
204 226 255
203 226 255
203 226 255
203 226 255
203 226 255
203 226 255
203 226 255
203 226 255
203 225 255
203 225 255
203 225 255
203 225 255
203 225 255
203 225 255
203 225 255
203 225 255
202 225 255
202 225 255
202 225 255
202 225 255
202 225 255
202 225 255
202 225 255
202 225 255
202 225 255
202 225 255
202 225 255
202 225 255
202 225 255
202 225 255
202 225 255
201 225 255
201 225 255
201 225 255
201 225 255
201 225 255
201 224 255
201 224 255
201 224 255
201 224 255
201 224 255
201 224 255
201 224 255
201 224 255
201 224 255
201 224 255
200 224 255
200 224 255
200 224 255
200 224 255
200 224 255
200 224 255
200 224 255
200 224 255
200 224 255
200 224 255
200 224 255
200 224 255
200 224 255
200 224 255
200 224 255
199 224 255
199 224 255
199 223 255
199 223 255
199 223 255
199 223 255
199 223 255
199 223 255
199 223 255
199 223 255
199 223 255
199 223 255
199 223 255
199 223 255
199 223 255
198 223 255
198 223 255
198 223 255
198 223 255
198 223 255
198 223 255
198 223 255
198 223 255
198 223 255
198 223 255
198 223 255
198 223 255
198 223 255
198 223 255
198 223 255
198 223 255
197 223 255
197 222 255
197 222 255
197 222 255
197 222 255
197 222 255
197 222 255
197 222 255
197 222 255
197 222 255
197 222 255
197 222 255
197 222 255
197 222 255
197 222 255
197 222 255
197 222 255
197 222 255
197 222 255
197 222 255
196 222 255
196 222 255
196 222 255
196 222 255
196 222 255
196 222 255
196 222 255
196 222 255
196 222 255
196 222 255
196 222 255
196 222 255
196 222 255
196 222 255
196 222 255
196 222 255
196 222 255
196 222 255
196 222 255
196 222 255
196 222 255
196 222 255
196 222 255
196 222 255
196 222 255
196 222 255
196 222 255
196 222 255
196 222 255
196 222 255
196 222 255
196 222 255
196 222 255
196 222 255
196 222 255
196 222 255
196 222 255
196 222 255
196 222 255
196 222 255
196 222 255
196 222 255
196 222 255
196 222 255
196 222 255
196 222 255
196 222 255
196 222 255
196 222 255
196 222 255
196 222 255
196 222 255
196 222 255
196 222 255
196 222 255
196 222 255
196 222 255
196 222 255
196 222 255
196 222 255
196 222 255
196 222 255
196 222 255
196 222 255
196 222 255
196 222 255
196 222 255
196 222 255
196 222 255
196 222 255
196 222 255
197 222 255
197 222 255
197 222 255
197 222 255
197 222 255
197 222 255
197 222 255
197 222 255
197 222 255
197 222 255
197 222 255
197 222 255
197 222 255
197 222 255
197 222 255
197 222 255
197 222 255
197 222 255
197 222 255
197 222 255
197 223 255
198 223 255
198 223 255
198 223 255
198 223 255
198 223 255
198 223 255
198 223 255
198 223 255
198 223 255
198 223 255
198 223 255
198 223 255
198 223 255
198 223 255
198 223 255
198 223 255
199 223 255
199 223 255
199 223 255
199 223 255
199 223 255
199 223 255
199 223 255
199 223 255
199 223 255
199 223 255
199 223 255
199 223 255
199 223 255
199 224 255
199 224 255
199 224 255
200 224 255
200 224 255
200 224 255
200 224 255
200 224 255
200 224 255
200 224 255
200 224 255
200 224 255
200 224 255
200 224 255
200 224 255
200 224 255
200 224 255
201 224 255
201 224 255
201 224 255
201 224 255
201 224 255
201 224 255
201 224 255
201 224 255
201 224 255
201 224 255
201 225 255
201 225 255
201 225 255
201 225 255
201 225 255
202 225 255
202 225 255
202 225 255
202 225 255
202 225 255
202 225 255
202 225 255
202 225 255
202 225 255
202 225 255
202 225 255
202 225 255
202 225 255
202 225 255
202 225 255
203 225 255
203 225 255
203 225 255
203 225 255
203 225 255
203 225 255
203 225 255
203 225 255
203 226 255
203 226 255
203 226 255
203 226 255
203 226 255
203 226 255
203 226 255
204 226 255
204 226 255
204 226 255
204 226 255
204 226 255
204 226 255
204 226 255
204 226 255
204 226 255
204 226 255
204 226 255
204 226 255
204 226 255
204 226 255
204 226 255
204 226 255
204 226 255
205 226 255
205 226 255
205 226 255
205 226 255
205 226 255
205 226 255
205 226 255
205 227 255
205 227 255
205 227 255
205 227 255
205 227 255
205 227 255
205 227 255
205 227 255
205 227 255
205 227 255
205 227 255
206 227 255
206 227 255
206 227 255
206 227 255
206 227 255
206 227 255
206 227 255
206 227 255
206 227 255
206 227 255
206 227 255
206 227 255
206 227 255
206 227 255
206 227 255
206 227 255
206 227 255
206 227 255
207 227 255
207 227 255
206 227 255
206 227 255
206 227 255
206 227 255
206 227 255
206 227 255
206 227 255
206 227 255
206 227 255
206 227 255
206 227 255
206 227 255
206 227 255
206 227 255
206 227 255
206 227 255
206 227 255
206 227 255
206 227 255
205 227 255
205 227 255
205 227 255
205 227 255
205 227 255
205 227 255
205 227 255
205 227 255
205 227 255
205 227 255
205 227 255
205 226 255
205 226 255
205 226 255
205 226 255
205 226 255
205 226 255
205 226 255
204 226 255
204 226 255
204 226 255
204 226 255
204 226 255
204 226 255
204 226 255
204 226 255
204 226 255
204 226 255
204 226 255
204 226 255
204 226 255
204 226 255
204 226 255
204 226 255
203 226 255
203 226 255
203 226 255
203 226 255
203 226 255
203 226 255
203 226 255
203 225 255
203 225 255
203 225 255
203 225 255
203 225 255
203 225 255
203 225 255
203 225 255
203 225 255
202 225 255
202 225 255
202 225 255
202 225 255
202 225 255
202 225 255
202 225 255
202 225 255
202 225 255
202 225 255
202 225 255
202 225 255
202 225 255
202 225 255
202 225 255
201 225 255
201 225 255
201 225 255
201 225 255
201 224 255
201 224 255
201 224 255
201 224 255
201 224 255
201 224 255
201 224 255
201 224 255
201 224 255
201 224 255
200 224 255
200 224 255
200 224 255
200 224 255
200 224 255
200 224 255
200 224 255
200 224 255
200 224 255
200 224 255
200 224 255
200 224 255
200 224 255
200 224 255
200 224 255
199 224 255
199 224 255
199 223 255
199 223 255
199 223 255
199 223 255
199 223 255
199 223 255
199 223 255
199 223 255
199 223 255
199 223 255
199 223 255
199 223 255
199 223 255
198 223 255
198 223 255
198 223 255
198 223 255
198 223 255
198 223 255
198 223 255
198 223 255
198 223 255
198 223 255
198 223 255
198 223 255
198 223 255
198 223 255
198 223 255
198 223 255
198 223 255
197 223 255
197 222 255
197 222 255
197 222 255
197 222 255
197 222 255
197 222 255
197 222 255
197 222 255
197 222 255
197 222 255
197 222 255
197 222 255
197 222 255
197 222 255
197 222 255
197 222 255
197 222 255
197 222 255
197 222 255
197 222 255
197 222 255
196 222 255
196 222 255
196 222 255
196 222 255
196 222 255
196 222 255
196 222 255
196 222 255
196 222 255
196 222 255
196 222 255
196 222 255
196 222 255
196 222 255
196 222 255
196 222 255
196 222 255
196 222 255
196 222 255
196 222 255
196 222 255
196 222 255
196 222 255
196 222 255
196 222 255
196 222 255
196 222 255
196 222 255
196 222 255
196 222 255
196 222 255
196 222 255
196 222 255
196 222 255
196 222 255
196 222 255
196 222 255
196 222 255
196 222 255
196 222 255
196 222 255
196 222 255
196 222 255
196 222 255
196 222 255
196 222 255
196 222 255
196 222 255
196 222 255
196 222 255
196 222 255
196 222 255
196 222 255
196 222 255
196 222 255
196 222 255
196 222 255
196 222 255
196 222 255
196 222 255
196 222 255
196 222 255
197 222 255
197 222 255
197 222 255
197 222 255
197 222 255
197 222 255
197 222 255
197 222 255
197 222 255
197 222 255
197 222 255
197 222 255
197 222 255
197 222 255
197 222 255
197 222 255
197 222 255
197 222 255
197 222 255
197 222 255
197 222 255
197 223 255
198 223 255
198 223 255
198 223 255
198 223 255
198 223 255
198 223 255
198 223 255
198 223 255
198 223 255
198 223 255
198 223 255
198 223 255
198 223 255
198 223 255
198 223 255
198 223 255
198 223 255
199 223 255
199 223 255
199 223 255
199 223 255
199 223 255
199 223 255
199 223 255
199 223 255
199 223 255
199 223 255
199 223 255
199 223 255
199 223 255
199 224 255
199 224 255
200 224 255
200 224 255
200 224 255
200 224 255
200 224 255
200 224 255
200 224 255
200 224 255
200 224 255
200 224 255
200 224 255
200 224 255
200 224 255
200 224 255
200 224 255
201 224 255
201 224 255
201 224 255
201 224 255
201 224 255
201 224 255
201 224 255
201 224 255
201 224 255
201 224 255
201 225 255
201 225 255
201 225 255
201 225 255
202 225 255
202 225 255
202 225 255
202 225 255
202 225 255
202 225 255
202 225 255
202 225 255
202 225 255
202 225 255
202 225 255
202 225 255
202 225 255
202 225 255
202 225 255
203 225 255
203 225 255
203 225 255
203 225 255
203 225 255
203 225 255
203 225 255
203 225 255
203 225 255
203 226 255
203 226 255
203 226 255
203 226 255
203 226 255
203 226 255
203 226 255
204 226 255
204 226 255
204 226 255
204 226 255
204 226 255
204 226 255
204 226 255
204 226 255
204 226 255
204 226 255
204 226 255
204 226 255
204 226 255
204 226 255
204 226 255
204 226 255
205 226 255
205 226 255
205 226 255
205 226 255
205 226 255
205 226 255
205 226 255
205 227 255
205 227 255
205 227 255
205 227 255
205 227 255
205 227 255
205 227 255
205 227 255
205 227 255
205 227 255
205 227 255
206 227 255
206 227 255
206 227 255
206 227 255
206 227 255
206 227 255
206 227 255
206 227 255
206 227 255
206 227 255
206 227 255
206 227 255
206 227 255
206 227 255
206 227 255
206 227 255
206 227 255
206 227 255
206 227 255
207 227 255
207 227 255
207 227 255
207 227 255
207 227 255
207 227 255
207 227 255
206 227 255
206 227 255
206 227 255
206 227 255
206 227 255
206 227 255
206 227 255
206 227 255
206 227 255
206 227 255
206 227 255
206 227 255
206 227 255
206 227 255
206 227 255
206 227 255
206 227 255
206 227 255
206 227 255
205 227 255
205 227 255
205 227 255
205 227 255
205 227 255
205 227 255
205 227 255
205 227 255
205 227 255
205 227 255
205 226 255
205 226 255
205 226 255
205 226 255
205 226 255
205 226 255
205 226 255
204 226 255
204 226 255
204 226 255
204 226 255
204 226 255
204 226 255
204 226 255
204 226 255
204 226 255
204 226 255
204 226 255
204 226 255
204 226 255
204 226 255
204 226 255
204 226 255
204 226 255
203 226 255
203 226 255
203 226 255
203 226 255
203 226 255
203 226 255
203 226 255
203 225 255
203 225 255
203 225 255
203 225 255
203 225 255
203 225 255
203 225 255
203 225 255
202 225 255
202 225 255
202 225 255
202 225 255
202 225 255
202 225 255
202 225 255
202 225 255
202 225 255
202 225 255
202 225 255
202 225 255
202 225 255
202 225 255
202 225 255
201 225 255
201 225 255
201 225 255
201 225 255
201 224 255
201 224 255
201 224 255
201 224 255
201 224 255
201 224 255
201 224 255
201 224 255
201 224 255
201 224 255
201 224 255
200 224 255
200 224 255
200 224 255
200 224 255
200 224 255
200 224 255
200 224 255
200 224 255
200 224 255
200 224 255
200 224 255
200 224 255
200 224 255
200 224 255
199 224 255
199 224 255
199 224 255
199 223 255
199 223 255
199 223 255
199 223 255
199 223 255
199 223 255
199 223 255
199 223 255
199 223 255
199 223 255
199 223 255
199 223 255
199 223 255
198 223 255
198 223 255
198 223 255
198 223 255
198 223 255
198 223 255
198 223 255
198 223 255
198 223 255
198 223 255
198 223 255
198 223 255
198 223 255
198 223 255
198 223 255
198 223 255
198 223 255
197 223 255
197 222 255
197 222 255
197 222 255
197 222 255
197 222 255
197 222 255
197 222 255
197 222 255
197 222 255
197 222 255
197 222 255
197 222 255
197 222 255
197 222 255
197 222 255
197 222 255
197 222 255
197 222 255
197 222 255
197 222 255
197 222 255
197 222 255
197 222 255
196 222 255
196 222 255
196 222 255
196 222 255
196 222 255
196 222 255
196 222 255
196 222 255
196 222 255
196 222 255
196 222 255
196 222 255
196 222 255
196 222 255
196 222 255
196 222 255
196 222 255
196 222 255
196 222 255
196 222 255
196 222 255
196 222 255
196 222 255
196 222 255
196 222 255
196 222 255
196 222 255
196 222 255
196 222 255
196 222 255
196 222 255
196 222 255
196 222 255
196 222 255
196 222 255
196 222 255
196 222 255
196 222 255
196 222 255
196 222 255
196 222 255
196 222 255
196 222 255
196 222 255
196 222 255
196 222 255
196 222 255
196 222 255
196 222 255
196 222 255
196 222 255
196 222 255
197 222 255
197 222 255
197 222 255
197 222 255
197 222 255
197 222 255
197 222 255
197 222 255
197 222 255
197 222 255
197 222 255
197 222 255
197 222 255
197 222 255
197 222 255
197 222 255
197 222 255
197 222 255
197 222 255
197 222 255
197 222 255
197 222 255
197 222 255
197 223 255
198 223 255
198 223 255
198 223 255
198 223 255
198 223 255
198 223 255
198 223 255
198 223 255
198 223 255
198 223 255
198 223 255
198 223 255
198 223 255
198 223 255
198 223 255
198 223 255
198 223 255
199 223 255
199 223 255
199 223 255
199 223 255
199 223 255
199 223 255
199 223 255
199 223 255
199 223 255
199 223 255
199 223 255
199 223 255
199 223 255
199 224 255
199 224 255
199 224 255
200 224 255
200 224 255
200 224 255
200 224 255
200 224 255
200 224 255
200 224 255
200 224 255
200 224 255
200 224 255
200 224 255
200 224 255
200 224 255
200 224 255
201 224 255
201 224 255
201 224 255
201 224 255
201 224 255
201 224 255
201 224 255
201 224 255
201 224 255
201 224 255
201 224 255
201 225 255
201 225 255
201 225 255
201 225 255
202 225 255
202 225 255
202 225 255
202 225 255
202 225 255
202 225 255
202 225 255
202 225 255
202 225 255
202 225 255
202 225 255
202 225 255
202 225 255
202 225 255
202 225 255
203 225 255
203 225 255
203 225 255
203 225 255
203 225 255
203 225 255
203 225 255
203 225 255
203 226 255
203 226 255
203 226 255
203 226 255
203 226 255
203 226 255
203 226 255
204 226 255
204 226 255
204 226 255
204 226 255
204 226 255
204 226 255
204 226 255
204 226 255
204 226 255
204 226 255
204 226 255
204 226 255
204 226 255
204 226 255
204 226 255
204 226 255
204 226 255
205 226 255
205 226 255
205 226 255
205 226 255
205 226 255
205 226 255
205 226 255
205 227 255
205 227 255
205 227 255
205 227 255
205 227 255
205 227 255
205 227 255
205 227 255
205 227 255
205 227 255
206 227 255
206 227 255
206 227 255
206 227 255
206 227 255
206 227 255
206 227 255
206 227 255
206 227 255
206 227 255
206 227 255
206 227 255
206 227 255
206 227 255
206 227 255
206 227 255
206 227 255
206 227 255
206 227 255
207 227 255
207 227 255
207 227 255
207 227 255
207 227 255
207 228 255
207 228 255
207 227 255
207 227 255
207 227 255
207 227 255
207 227 255
206 227 255
206 227 255
206 227 255
206 227 255
206 227 255
206 227 255
206 227 255
206 227 255
206 227 255
206 227 255
206 227 255
206 227 255
206 227 255
206 227 255
206 227 255
206 227 255
206 227 255
206 227 255
206 227 255
205 227 255
205 227 255
205 227 255
205 227 255
205 227 255
205 227 255
205 227 255
205 227 255
205 227 255
205 227 255
205 227 255
205 226 255
205 226 255
205 226 255
205 226 255
205 226 255
205 226 255
205 226 255
204 226 255
204 226 255
204 226 255
204 226 255
204 226 255
204 226 255
204 226 255
204 226 255
204 226 255
204 226 255
204 226 255
204 226 255
204 226 255
204 226 255
204 226 255
204 226 255
203 226 255
203 226 255
203 226 255
203 226 255
203 226 255
203 226 255
203 226 255
203 225 255
203 225 255
203 225 255
203 225 255
203 225 255
203 225 255
203 225 255
203 225 255
203 225 255
202 225 255
202 225 255
202 225 255
202 225 255
202 225 255
202 225 255
202 225 255
202 225 255
202 225 255
202 225 255
202 225 255
202 225 255
202 225 255
202 225 255
201 225 255
201 225 255
201 225 255
201 225 255
201 225 255
201 224 255
201 224 255
201 224 255
201 224 255
201 224 255
201 224 255
201 224 255
201 224 255
201 224 255
201 224 255
200 224 255
200 224 255
200 224 255
200 224 255
200 224 255
200 224 255
200 224 255
200 224 255
200 224 255
200 224 255
200 224 255
200 224 255
200 224 255
200 224 255
200 224 255
199 224 255
199 224 255
199 223 255
199 223 255
199 223 255
199 223 255
199 223 255
199 223 255
199 223 255
199 223 255
199 223 255
199 223 255
199 223 255
199 223 255
199 223 255
199 223 255
198 223 255
198 223 255
198 223 255
198 223 255
198 223 255
198 223 255
198 223 255
198 223 255
198 223 255
198 223 255
198 223 255
198 223 255
198 223 255
198 223 255
198 223 255
198 223 255
198 223 255
198 223 255
197 222 255
197 222 255
197 222 255
197 222 255
197 222 255
197 222 255
197 222 255
197 222 255
197 222 255
197 222 255
197 222 255
197 222 255
197 222 255
197 222 255
197 222 255
197 222 255
197 222 255
197 222 255
197 222 255
197 222 255
197 222 255
197 222 255
197 222 255
197 222 255
197 222 255
197 222 255
196 222 255
196 222 255
196 222 255
196 222 255
196 222 255
196 222 255
196 222 255
196 222 255
196 222 255
196 222 255
196 222 255
196 222 255
196 222 255
196 222 255
196 222 255
196 222 255
196 222 255
196 222 255
196 222 255
196 222 255
196 222 255
196 222 255
196 222 255
196 222 255
196 222 255
196 222 255
196 222 255
196 222 255
196 222 255
196 222 255
196 222 255
196 222 255
196 222 255
196 222 255
196 222 255
196 222 255
196 222 255
196 222 255
196 222 255
196 222 255
197 222 255
197 222 255
197 222 255
197 222 255
197 222 255
197 222 255
197 222 255
197 222 255
197 222 255
197 222 255
197 222 255
197 222 255
197 222 255
197 222 255
197 222 255
197 222 255
197 222 255
197 222 255
197 222 255
197 222 255
197 222 255
197 222 255
197 222 255
197 222 255
197 222 255
197 222 255
197 223 255
198 223 255
198 223 255
198 223 255
198 223 255
198 223 255
198 223 255
198 223 255
198 223 255
198 223 255
198 223 255
198 223 255
198 223 255
198 223 255
198 223 255
198 223 255
198 223 255
198 223 255
199 223 255
199 223 255
199 223 255
199 223 255
199 223 255
199 223 255
199 223 255
199 223 255
199 223 255
199 223 255
199 223 255
199 223 255
199 223 255
199 223 255
199 224 255
199 224 255
200 224 255
200 224 255
200 224 255
200 224 255
200 224 255
200 224 255
200 224 255
200 224 255
200 224 255
200 224 255
200 224 255
200 224 255
200 224 255
200 224 255
200 224 255
201 224 255
201 224 255
201 224 255
201 224 255
201 224 255
201 224 255
201 224 255
201 224 255
201 224 255
201 224 255
201 225 255
201 225 255
201 225 255
201 225 255
201 225 255
202 225 255
202 225 255
202 225 255
202 225 255
202 225 255
202 225 255
202 225 255
202 225 255
202 225 255
202 225 255
202 225 255
202 225 255
202 225 255
202 225 255
203 225 255
203 225 255
203 225 255
203 225 255
203 225 255
203 225 255
203 225 255
203 225 255
203 225 255
203 226 255
203 226 255
203 226 255
203 226 255
203 226 255
203 226 255
203 226 255
204 226 255
204 226 255
204 226 255
204 226 255
204 226 255
204 226 255
204 226 255
204 226 255
204 226 255
204 226 255
204 226 255
204 226 255
204 226 255
204 226 255
204 226 255
204 226 255
205 226 255
205 226 255
205 226 255
205 226 255
205 226 255
205 226 255
205 226 255
205 227 255
205 227 255
205 227 255
205 227 255
205 227 255
205 227 255
205 227 255
205 227 255
205 227 255
205 227 255
205 227 255
206 227 255
206 227 255
206 227 255
206 227 255
206 227 255
206 227 255
206 227 255
206 227 255
206 227 255
206 227 255
206 227 255
206 227 255
206 227 255
206 227 255
206 227 255
206 227 255
206 227 255
206 227 255
206 227 255
207 227 255
207 227 255
207 227 255
207 227 255
207 227 255
207 228 255
207 228 255
207 228 255
207 228 255
207 228 255
207 228 255
207 228 255
207 227 255
207 227 255
207 227 255
207 227 255
207 227 255
206 227 255
206 227 255
206 227 255
206 227 255
206 227 255
206 227 255
206 227 255
206 227 255
206 227 255
206 227 255
206 227 255
206 227 255
206 227 255
206 227 255
206 227 255
206 227 255
206 227 255
206 227 255
206 227 255
205 227 255
205 227 255
205 227 255
205 227 255
205 227 255
205 227 255
205 227 255
205 227 255
205 227 255
205 227 255
205 227 255
205 226 255
205 226 255
205 226 255
205 226 255
205 226 255
205 226 255
204 226 255
204 226 255
204 226 255
204 226 255
204 226 255
204 226 255
204 226 255
204 226 255
204 226 255
204 226 255
204 226 255
204 226 255
204 226 255
204 226 255
204 226 255
204 226 255
204 226 255
203 226 255
203 226 255
203 226 255
203 226 255
203 226 255
203 226 255
203 225 255
203 225 255
203 225 255
203 225 255
203 225 255
203 225 255
203 225 255
203 225 255
203 225 255
202 225 255
202 225 255
202 225 255
202 225 255
202 225 255
202 225 255
202 225 255
202 225 255
202 225 255
202 225 255
202 225 255
202 225 255
202 225 255
202 225 255
202 225 255
201 225 255
201 225 255
201 225 255
201 225 255
201 224 255
201 224 255
201 224 255
201 224 255
201 224 255
201 224 255
201 224 255
201 224 255
201 224 255
201 224 255
201 224 255
200 224 255
200 224 255
200 224 255
200 224 255
200 224 255
200 224 255
200 224 255
200 224 255
200 224 255
200 224 255
200 224 255
200 224 255
200 224 255
200 224 255
200 224 255
199 224 255
199 224 255
199 223 255
199 223 255
199 223 255
199 223 255
199 223 255
199 223 255
199 223 255
199 223 255
199 223 255
199 223 255
199 223 255
199 223 255
199 223 255
199 223 255
198 223 255
198 223 255
198 223 255
198 223 255
198 223 255
198 223 255
198 223 255
198 223 255
198 223 255
198 223 255
198 223 255
198 223 255
198 223 255
198 223 255
198 223 255
198 223 255
198 223 255
198 223 255
197 223 255
197 222 255
197 222 255
197 222 255
197 222 255
197 222 255
197 222 255
197 222 255
197 222 255
197 222 255
197 222 255
197 222 255
197 222 255
197 222 255
197 222 255
197 222 255
197 222 255
197 222 255
197 222 255
197 222 255
197 222 255
197 222 255
197 222 255
197 222 255
197 222 255
197 222 255
197 222 255
197 222 255
197 222 255
197 222 255
197 222 255
196 222 255
196 222 255
196 222 255
196 222 255
196 222 255
196 222 255
196 222 255
196 222 255
196 222 255
196 222 255
196 222 255
196 222 255
196 222 255
196 222 255
196 222 255
196 222 255
196 222 255
196 222 255
196 222 255
196 222 255
196 222 255
196 222 255
196 222 255
197 222 255
197 222 255
197 222 255
197 222 255
197 222 255
197 222 255
197 222 255
197 222 255
197 222 255
197 222 255
197 222 255
197 222 255
197 222 255
197 222 255
197 222 255
197 222 255
197 222 255
197 222 255
197 222 255
197 222 255
197 222 255
197 222 255
197 222 255
197 222 255
197 222 255
197 222 255
197 222 255
197 222 255
197 222 255
197 222 255
197 222 255
197 223 255
198 223 255
198 223 255
198 223 255
198 223 255
198 223 255
198 223 255
198 223 255
198 223 255
198 223 255
198 223 255
198 223 255
198 223 255
198 223 255
198 223 255
198 223 255
198 223 255
198 223 255
198 223 255
199 223 255
199 223 255
199 223 255
199 223 255
199 223 255
199 223 255
199 223 255
199 223 255
199 223 255
199 223 255
199 223 255
199 223 255
199 223 255
199 223 255
199 224 255
199 224 255
199 224 255
200 224 255
200 224 255
200 224 255
200 224 255
200 224 255
200 224 255
200 224 255
200 224 255
200 224 255
200 224 255
200 224 255
200 224 255
200 224 255
200 224 255
201 224 255
201 224 255
201 224 255
201 224 255
201 224 255
201 224 255
201 224 255
201 224 255
201 224 255
201 224 255
201 224 255
201 225 255
201 225 255
201 225 255
201 225 255
202 225 255
202 225 255
202 225 255
202 225 255
202 225 255
202 225 255
202 225 255
202 225 255
202 225 255
202 225 255
202 225 255
202 225 255
202 225 255
202 225 255
202 225 255
203 225 255
203 225 255
203 225 255
203 225 255
203 225 255
203 225 255
203 225 255
203 225 255
203 225 255
203 226 255
203 226 255
203 226 255
203 226 255
203 226 255
203 226 255
203 226 255
204 226 255
204 226 255
204 226 255
204 226 255
204 226 255
204 226 255
204 226 255
204 226 255
204 226 255
204 226 255
204 226 255
204 226 255
204 226 255
204 226 255
204 226 255
204 226 255
205 226 255
205 226 255
205 226 255
205 226 255
205 226 255
205 226 255
205 226 255
205 227 255
205 227 255
205 227 255
205 227 255
205 227 255
205 227 255
205 227 255
205 227 255
205 227 255
205 227 255
206 227 255
206 227 255
206 227 255
206 227 255
206 227 255
206 227 255
206 227 255
206 227 255
206 227 255
206 227 255
206 227 255
206 227 255
206 227 255
206 227 255
206 227 255
206 227 255
206 227 255
206 227 255
206 227 255
207 227 255
207 227 255
207 227 255
207 227 255
207 227 255
207 228 255
207 228 255
207 228 255
207 228 255
207 228 255
207 228 255
207 228 255
207 228 255
207 228 255
207 228 255
207 228 255
207 228 255
207 228 255
207 227 255
207 227 255
207 227 255
207 227 255
207 227 255
206 227 255
206 227 255
206 227 255
206 227 255
206 227 255
206 227 255
206 227 255
206 227 255
206 227 255
206 227 255
206 227 255
206 227 255
206 227 255
206 227 255
206 227 255
206 227 255
206 227 255
206 227 255
206 227 255
205 227 255
205 227 255
205 227 255
205 227 255
205 227 255
205 227 255
205 227 255
205 227 255
205 227 255
205 227 255
205 226 255
205 226 255
205 226 255
205 226 255
205 226 255
205 226 255
205 226 255
204 226 255
204 226 255
204 226 255
204 226 255
204 226 255
204 226 255
204 226 255
204 226 255
204 226 255
204 226 255
204 226 255
204 226 255
204 226 255
204 226 255
204 226 255
204 226 255
203 226 255
203 226 255
203 226 255
203 226 255
203 226 255
203 226 255
203 226 255
203 225 255
203 225 255
203 225 255
203 225 255
203 225 255
203 225 255
203 225 255
203 225 255
202 225 255
202 225 255
202 225 255
202 225 255
202 225 255
202 225 255
202 225 255
202 225 255
202 225 255
202 225 255
202 225 255
202 225 255
202 225 255
202 225 255
202 225 255
201 225 255
201 225 255
201 225 255
201 225 255
201 225 255
201 224 255
201 224 255
201 224 255
201 224 255
201 224 255
201 224 255
201 224 255
201 224 255
201 224 255
201 224 255
200 224 255
200 224 255
200 224 255
200 224 255
200 224 255
200 224 255
200 224 255
200 224 255
200 224 255
200 224 255
200 224 255
200 224 255
200 224 255
200 224 255
200 224 255
199 224 255
199 224 255
199 224 255
199 223 255
199 223 255
199 223 255
199 223 255
199 223 255
199 223 255
199 223 255
199 223 255
199 223 255
199 223 255
199 223 255
199 223 255
199 223 255
198 223 255
198 223 255
198 223 255
198 223 255
198 223 255
198 223 255
198 223 255
198 223 255
198 223 255
198 223 255
198 223 255
198 223 255
198 223 255
198 223 255
198 223 255
198 223 255
198 223 255
198 223 255
198 223 255
198 223 255
197 223 255
197 222 255
197 222 255
197 222 255
197 222 255
197 222 255
197 222 255
197 222 255
197 222 255
197 222 255
197 222 255
197 222 255
197 222 255
197 222 255
197 222 255
197 222 255
197 222 255
197 222 255
197 222 255
197 222 255
197 222 255
197 222 255
197 222 255
197 222 255
197 222 255
197 222 255
197 222 255
197 222 255
197 222 255
197 222 255
197 222 255
197 222 255
197 222 255
197 222 255
197 222 255
197 222 255
197 222 255
197 222 255
197 222 255
197 222 255
197 222 255
197 222 255
197 222 255
197 222 255
197 222 255
197 222 255
197 222 255
197 222 255
197 222 255
197 222 255
197 222 255
197 222 255
197 222 255
197 222 255
197 222 255
197 222 255
197 222 255
197 222 255
197 222 255
197 222 255
197 222 255
197 222 255
197 222 255
197 222 255
197 222 255
197 222 255
197 222 255
197 222 255
197 222 255
197 222 255
197 222 255
197 222 255
197 222 255
197 222 255
197 222 255
197 222 255
197 222 255
197 223 255
198 223 255
198 223 255
198 223 255
198 223 255
198 223 255
198 223 255
198 223 255
198 223 255
198 223 255
198 223 255
198 223 255
198 223 255
198 223 255
198 223 255
198 223 255
198 223 255
198 223 255
198 223 255
198 223 255
198 223 255
199 223 255
199 223 255
199 223 255
199 223 255
199 223 255
199 223 255
199 223 255
199 223 255
199 223 255
199 223 255
199 223 255
199 223 255
199 223 255
199 224 255
199 224 255
199 224 255
200 224 255
200 224 255
200 224 255
200 224 255
200 224 255
200 224 255
200 224 255
200 224 255
200 224 255
200 224 255
200 224 255
200 224 255
200 224 255
200 224 255
200 224 255
201 224 255
201 224 255
201 224 255
201 224 255
201 224 255
201 224 255
201 224 255
201 224 255
201 224 255
201 224 255
201 225 255
201 225 255
201 225 255
201 225 255
201 225 255
202 225 255
202 225 255
202 225 255
202 225 255
202 225 255
202 225 255
202 225 255
202 225 255
202 225 255
202 225 255
202 225 255
202 225 255
202 225 255
202 225 255
203 225 255
203 225 255
203 225 255
203 225 255
203 225 255
203 225 255
203 225 255
203 225 255
203 225 255
203 226 255
203 226 255
203 226 255
203 226 255
203 226 255
203 226 255
203 226 255
204 226 255
204 226 255
204 226 255
204 226 255
204 226 255
204 226 255
204 226 255
204 226 255
204 226 255
204 226 255
204 226 255
204 226 255
204 226 255
204 226 255
204 226 255
204 226 255
205 226 255
205 226 255
205 226 255
205 226 255
205 226 255
205 226 255
205 226 255
205 227 255
205 227 255
205 227 255
205 227 255
205 227 255
205 227 255
205 227 255
205 227 255
205 227 255
205 227 255
206 227 255
206 227 255
206 227 255
206 227 255
206 227 255
206 227 255
206 227 255
206 227 255
206 227 255
206 227 255
206 227 255
206 227 255
206 227 255
206 227 255
206 227 255
206 227 255
206 227 255
206 227 255
206 227 255
207 227 255
207 227 255
207 227 255
207 227 255
207 227 255
207 228 255
207 228 255
207 228 255
207 228 255
207 228 255
207 228 255
207 228 255
207 228 255
207 228 255
207 228 255
207 228 255
207 228 255
207 228 255
207 228 255
207 228 255
207 228 255
207 228 255
207 228 255
207 228 255
207 227 255
207 227 255
207 227 255
207 227 255
207 227 255
206 227 255
206 227 255
206 227 255
206 227 255
206 227 255
206 227 255
206 227 255
206 227 255
206 227 255
206 227 255
206 227 255
206 227 255
206 227 255
206 227 255
206 227 255
206 227 255
206 227 255
206 227 255
205 227 255
205 227 255
205 227 255
205 227 255
205 227 255
205 227 255
205 227 255
205 227 255
205 227 255
205 227 255
205 227 255
205 226 255
205 226 255
205 226 255
205 226 255
205 226 255
205 226 255
205 226 255
204 226 255
204 226 255
204 226 255
204 226 255
204 226 255
204 226 255
204 226 255
204 226 255
204 226 255
204 226 255
204 226 255
204 226 255
204 226 255
204 226 255
204 226 255
204 226 255
203 226 255
203 226 255
203 226 255
203 226 255
203 226 255
203 226 255
203 225 255
203 225 255
203 225 255
203 225 255
203 225 255
203 225 255
203 225 255
203 225 255
203 225 255
202 225 255
202 225 255
202 225 255
202 225 255
202 225 255
202 225 255
202 225 255
202 225 255
202 225 255
202 225 255
202 225 255
202 225 255
202 225 255
202 225 255
202 225 255
201 225 255
201 225 255
201 225 255
201 225 255
201 224 255
201 224 255
201 224 255
201 224 255
201 224 255
201 224 255
201 224 255
201 224 255
201 224 255
201 224 255
201 224 255
200 224 255
200 224 255
200 224 255
200 224 255
200 224 255
200 224 255
200 224 255
200 224 255
200 224 255
200 224 255
200 224 255
200 224 255
200 224 255
200 224 255
200 224 255
199 224 255
199 224 255
199 223 255
199 223 255
199 223 255
199 223 255
199 223 255
199 223 255
199 223 255
199 223 255
199 223 255
199 223 255
199 223 255
199 223 255
199 223 255
199 223 255
198 223 255
198 223 255
198 223 255
198 223 255
198 223 255
198 223 255
198 223 255
198 223 255
198 223 255
198 223 255
198 223 255
198 223 255
198 223 255
198 223 255
198 223 255
198 223 255
198 223 255
198 223 255
198 223 255
198 223 255
198 223 255
197 223 255
197 222 255
197 222 255
197 222 255
197 222 255
197 222 255
197 222 255
197 222 255
197 222 255
197 222 255
197 222 255
197 222 255
197 222 255
197 222 255
197 222 255
197 222 255
197 222 255
197 222 255
197 222 255
197 222 255
197 222 255
197 222 255
197 222 255
197 222 255
197 222 255
197 222 255
197 222 255
197 222 255
197 222 255
197 222 255
197 222 255
197 222 255
197 222 255
197 222 255
197 222 255
197 222 255
197 222 255
197 222 255
197 222 255
197 222 255
197 222 255
197 222 255
197 222 255
197 222 255
197 222 255
197 222 255
197 222 255
197 222 255
197 222 255
197 222 255
197 222 255
197 222 255
197 222 255
197 222 255
197 222 255
197 222 255
197 222 255
197 222 255
197 222 255
197 222 255
197 222 255
197 222 255
197 222 255
197 222 255
197 222 255
197 222 255
197 222 255
197 222 255
197 222 255
197 223 255
198 223 255
198 223 255
198 223 255
198 223 255
198 223 255
198 223 255
198 223 255
198 223 255
198 223 255
198 223 255
198 223 255
198 223 255
198 223 255
198 223 255
198 223 255
198 223 255
198 223 255
198 223 255
198 223 255
198 223 255
199 223 255
199 223 255
199 223 255
199 223 255
199 223 255
199 223 255
199 223 255
199 223 255
199 223 255
199 223 255
199 223 255
199 223 255
199 223 255
199 223 255
199 223 255
199 224 255
199 224 255
200 224 255
200 224 255
200 224 255
200 224 255
200 224 255
200 224 255
200 224 255
200 224 255
200 224 255
200 224 255
200 224 255
200 224 255
200 224 255
200 224 255
200 224 255
201 224 255
201 224 255
201 224 255
201 224 255
201 224 255
201 224 255
201 224 255
201 224 255
201 224 255
201 224 255
201 224 255
201 225 255
201 225 255
201 225 255
201 225 255
202 225 255
202 225 255
202 225 255
202 225 255
202 225 255
202 225 255
202 225 255
202 225 255
202 225 255
202 225 255
202 225 255
202 225 255
202 225 255
202 225 255
202 225 255
203 225 255
203 225 255
203 225 255
203 225 255
203 225 255
203 225 255
203 225 255
203 225 255
203 225 255
203 226 255
203 226 255
203 226 255
203 226 255
203 226 255
203 226 255
204 226 255
204 226 255
204 226 255
204 226 255
204 226 255
204 226 255
204 226 255
204 226 255
204 226 255
204 226 255
204 226 255
204 226 255
204 226 255
204 226 255
204 226 255
204 226 255
204 226 255
205 226 255
205 226 255
205 226 255
205 226 255
205 226 255
205 226 255
205 227 255
205 227 255
205 227 255
205 227 255
205 227 255
205 227 255
205 227 255
205 227 255
205 227 255
205 227 255
205 227 255
206 227 255
206 227 255
206 227 255
206 227 255
206 227 255
206 227 255
206 227 255
206 227 255
206 227 255
206 227 255
206 227 255
206 227 255
206 227 255
206 227 255
206 227 255
206 227 255
206 227 255
206 227 255
207 227 255
207 227 255
207 227 255
207 227 255
207 227 255
207 228 255
207 228 255
207 228 255
207 228 255
207 228 255
207 228 255
207 228 255
207 228 255
207 228 255
207 228 255
207 228 255
207 228 255
207 228 255
207 228 255
207 228 255
207 228 255
207 228 255
207 228 255
207 228 255
207 228 255
207 228 255
207 228 255
207 228 255
207 228 255
207 228 255
207 227 255
207 227 255
207 227 255
207 227 255
206 227 255
206 227 255
206 227 255
206 227 255
206 227 255
206 227 255
206 227 255
206 227 255
206 227 255
206 227 255
206 227 255
206 227 255
206 227 255
206 227 255
206 227 255
206 227 255
206 227 255
206 227 255
206 227 255
205 227 255
205 227 255
205 227 255
205 227 255
205 227 255
205 227 255
205 227 255
205 227 255
205 227 255
205 227 255
205 226 255
205 226 255
205 226 255
205 226 255
205 226 255
205 226 255
205 226 255
204 226 255
204 226 255
204 226 255
204 226 255
204 226 255
204 226 255
204 226 255
204 226 255
204 226 255
204 226 255
204 226 255
204 226 255
204 226 255
204 226 255
204 226 255
204 226 255
203 226 255
203 226 255
203 226 255
203 226 255
203 226 255
203 226 255
203 226 255
203 225 255
203 225 255
203 225 255
203 225 255
203 225 255
203 225 255
203 225 255
203 225 255
202 225 255
202 225 255
202 225 255
202 225 255
202 225 255
202 225 255
202 225 255
202 225 255
202 225 255
202 225 255
202 225 255
202 225 255
202 225 255
202 225 255
202 225 255
201 225 255
201 225 255
201 225 255
201 225 255
201 225 255
201 224 255
201 224 255
201 224 255
201 224 255
201 224 255
201 224 255
201 224 255
201 224 255
201 224 255
201 224 255
200 224 255
200 224 255
200 224 255
200 224 255
200 224 255
200 224 255
200 224 255
200 224 255
200 224 255
200 224 255
200 224 255
200 224 255
200 224 255
200 224 255
200 224 255
200 224 255
199 224 255
199 224 255
199 223 255
199 223 255
199 223 255
199 223 255
199 223 255
199 223 255
199 223 255
199 223 255
199 223 255
199 223 255
199 223 255
199 223 255
199 223 255
199 223 255
199 223 255
198 223 255
198 223 255
198 223 255
198 223 255
198 223 255
198 223 255
198 223 255
198 223 255
198 223 255
198 223 255
198 223 255
198 223 255
198 223 255
198 223 255
198 223 255
198 223 255
198 223 255
198 223 255
198 223 255
198 223 255
198 223 255
198 223 255
197 223 255
197 222 255
197 222 255
197 222 255
197 222 255
197 222 255
197 222 255
197 222 255
197 222 255
197 222 255
197 222 255
197 222 255
197 222 255
197 222 255
197 222 255
197 222 255
197 222 255
197 222 255
197 222 255
197 222 255
197 222 255
197 222 255
197 222 255
197 222 255
197 222 255
197 222 255
197 222 255
197 222 255
197 222 255
197 222 255
197 222 255
197 222 255
197 222 255
197 222 255
197 222 255
197 222 255
197 222 255
197 222 255
197 222 255
197 222 255
197 222 255
197 222 255
197 222 255
197 222 255
197 222 255
197 222 255
197 222 255
197 222 255
197 222 255
197 222 255
197 222 255
197 222 255
197 222 255
197 222 255
197 222 255
197 222 255
197 222 255
197 222 255
197 222 255
197 223 255
198 223 255
198 223 255
198 223 255
198 223 255
198 223 255
198 223 255
198 223 255
198 223 255
198 223 255
198 223 255
198 223 255
198 223 255
198 223 255
198 223 255
198 223 255
198 223 255
198 223 255
198 223 255
198 223 255
198 223 255
198 223 255
198 223 255
199 223 255
199 223 255
199 223 255
199 223 255
199 223 255
199 223 255
199 223 255
199 223 255
199 223 255
199 223 255
199 223 255
199 223 255
199 223 255
199 223 255
199 223 255
199 224 255
199 224 255
200 224 255
200 224 255
200 224 255
200 224 255
200 224 255
200 224 255
200 224 255
200 224 255
200 224 255
200 224 255
200 224 255
200 224 255
200 224 255
200 224 255
200 224 255
200 224 255
201 224 255
201 224 255
201 224 255
201 224 255
201 224 255
201 224 255
201 224 255
201 224 255
201 224 255
201 224 255
201 225 255
201 225 255
201 225 255
201 225 255
201 225 255
202 225 255
202 225 255
202 225 255
202 225 255
202 225 255
202 225 255
202 225 255
202 225 255
202 225 255
202 225 255
202 225 255
202 225 255
202 225 255
202 225 255
202 225 255
203 225 255
203 225 255
203 225 255
203 225 255
203 225 255
203 225 255
203 225 255
203 225 255
203 226 255
203 226 255
203 226 255
203 226 255
203 226 255
203 226 255
203 226 255
204 226 255
204 226 255
204 226 255
204 226 255
204 226 255
204 226 255
204 226 255
204 226 255
204 226 255
204 226 255
204 226 255
204 226 255
204 226 255
204 226 255
204 226 255
204 226 255
205 226 255
205 226 255
205 226 255
205 226 255
205 226 255
205 226 255
205 226 255
205 227 255
205 227 255
205 227 255
205 227 255
205 227 255
205 227 255
205 227 255
205 227 255
205 227 255
205 227 255
206 227 255
206 227 255
206 227 255
206 227 255
206 227 255
206 227 255
206 227 255
206 227 255
206 227 255
206 227 255
206 227 255
206 227 255
206 227 255
206 227 255
206 227 255
206 227 255
206 227 255
206 227 255
207 227 255
207 227 255
207 227 255
207 227 255
207 227 255
207 228 255
207 228 255
207 228 255
207 228 255
207 228 255
207 228 255
207 228 255
207 228 255
207 228 255
207 228 255
207 228 255
207 228 255
207 228 255
207 228 255
208 228 255
207 228 255
207 228 255
207 228 255
207 228 255
207 228 255
207 228 255
207 228 255
207 228 255
207 228 255
207 228 255
207 228 255
207 228 255
207 228 255
207 228 255
207 228 255
207 228 255
207 227 255
207 227 255
207 227 255
207 227 255
206 227 255
206 227 255
206 227 255
206 227 255
206 227 255
206 227 255
206 227 255
206 227 255
206 227 255
206 227 255
206 227 255
206 227 255
206 227 255
206 227 255
206 227 255
206 227 255
206 227 255
206 227 255
206 227 255
205 227 255
205 227 255
205 227 255
205 227 255
205 227 255
205 227 255
205 227 255
205 227 255
205 227 255
205 227 255
205 226 255
205 226 255
205 226 255
205 226 255
205 226 255
205 226 255
205 226 255
204 226 255
204 226 255
204 226 255
204 226 255
204 226 255
204 226 255
204 226 255
204 226 255
204 226 255
204 226 255
204 226 255
204 226 255
204 226 255
204 226 255
204 226 255
204 226 255
203 226 255
203 226 255
203 226 255
203 226 255
203 226 255
203 226 255
203 225 255
203 225 255
203 225 255
203 225 255
203 225 255
203 225 255
203 225 255
203 225 255
203 225 255
202 225 255
202 225 255
202 225 255
202 225 255
202 225 255
202 225 255
202 225 255
202 225 255
202 225 255
202 225 255
202 225 255
202 225 255
202 225 255
202 225 255
202 225 255
201 225 255
201 225 255
201 225 255
201 225 255
201 224 255
201 224 255
201 224 255
201 224 255
201 224 255
201 224 255
201 224 255
201 224 255
201 224 255
201 224 255
201 224 255
200 224 255
200 224 255
200 224 255
200 224 255
200 224 255
200 224 255
200 224 255
200 224 255
200 224 255
200 224 255
200 224 255
200 224 255
200 224 255
200 224 255
200 224 255
199 224 255
199 224 255
199 224 255
199 223 255
199 223 255
199 223 255
199 223 255
199 223 255
199 223 255
199 223 255
199 223 255
199 223 255
199 223 255
199 223 255
199 223 255
199 223 255
199 223 255
199 223 255
198 223 255
198 223 255
198 223 255
198 223 255
198 223 255
198 223 255
198 223 255
198 223 255
198 223 255
198 223 255
198 223 255
198 223 255
198 223 255
198 223 255
198 223 255
198 223 255
198 223 255
198 223 255
198 223 255
198 223 255
198 223 255
198 223 255
198 223 255
198 223 255
197 223 255
197 222 255
197 222 255
197 222 255
197 222 255
197 222 255
197 222 255
197 222 255
197 222 255
197 222 255
197 222 255
197 222 255
197 222 255
197 222 255
197 222 255
197 222 255
197 222 255
197 222 255
197 222 255
197 222 255
197 222 255
197 222 255
197 222 255
197 222 255
197 222 255
197 222 255
197 222 255
197 222 255
197 222 255
197 222 255
197 222 255
197 222 255
197 222 255
197 222 255
197 222 255
197 222 255
197 222 255
197 222 255
197 222 255
197 222 255
197 222 255
197 222 255
197 222 255
197 222 255
197 222 255
197 222 255
197 222 255
197 222 255
197 222 255
198 223 255
198 223 255
198 223 255
198 223 255
198 223 255
198 223 255
198 223 255
198 223 255
198 223 255
198 223 255
198 223 255
198 223 255
198 223 255
198 223 255
198 223 255
198 223 255
198 223 255
198 223 255
198 223 255
198 223 255
198 223 255
198 223 255
198 223 255
198 223 255
198 223 255
199 223 255
199 223 255
199 223 255
199 223 255
199 223 255
199 223 255
199 223 255
199 223 255
199 223 255
199 223 255
199 223 255
199 223 255
199 223 255
199 223 255
199 223 255
199 224 255
199 224 255
200 224 255
200 224 255
200 224 255
200 224 255
200 224 255
200 224 255
200 224 255
200 224 255
200 224 255
200 224 255
200 224 255
200 224 255
200 224 255
200 224 255
200 224 255
200 224 255
201 224 255
201 224 255
201 224 255
201 224 255
201 224 255
201 224 255
201 224 255
201 224 255
201 224 255
201 224 255
201 224 255
201 225 255
201 225 255
201 225 255
201 225 255
202 225 255
202 225 255
202 225 255
202 225 255
202 225 255
202 225 255
202 225 255
202 225 255
202 225 255
202 225 255
202 225 255
202 225 255
202 225 255
202 225 255
202 225 255
203 225 255
203 225 255
203 225 255
203 225 255
203 225 255
203 225 255
203 225 255
203 225 255
203 226 255
203 226 255
203 226 255
203 226 255
203 226 255
203 226 255
203 226 255
204 226 255
204 226 255
204 226 255
204 226 255
204 226 255
204 226 255
204 226 255
204 226 255
204 226 255
204 226 255
204 226 255
204 226 255
204 226 255
204 226 255
204 226 255
204 226 255
205 226 255
205 226 255
205 226 255
205 226 255
205 226 255
205 226 255
205 226 255
205 227 255
205 227 255
205 227 255
205 227 255
205 227 255
205 227 255
205 227 255
205 227 255
205 227 255
205 227 255
206 227 255
206 227 255
206 227 255
206 227 255
206 227 255
206 227 255
206 227 255
206 227 255
206 227 255
206 227 255
206 227 255
206 227 255
206 227 255
206 227 255
206 227 255
206 227 255
206 227 255
206 227 255
206 227 255
207 227 255
207 227 255
207 227 255
207 227 255
207 228 255
207 228 255
207 228 255
207 228 255
207 228 255
207 228 255
207 228 255
207 228 255
207 228 255
207 228 255
207 228 255
207 228 255
207 228 255
207 228 255
207 228 255
207 228 255
208 228 255
208 228 255
208 228 255
208 228 255
208 228 255
207 228 255
207 228 255
207 228 255
207 228 255
207 228 255
207 228 255
207 228 255
207 228 255
207 228 255
207 228 255
207 228 255
207 228 255
207 228 255
207 228 255
207 228 255
207 228 255
207 227 255
207 227 255
207 227 255
207 227 255
206 227 255
206 227 255
206 227 255
206 227 255
206 227 255
206 227 255
206 227 255
206 227 255
206 227 255
206 227 255
206 227 255
206 227 255
206 227 255
206 227 255
206 227 255
206 227 255
206 227 255
206 227 255
205 227 255
205 227 255
205 227 255
205 227 255
205 227 255
205 227 255
205 227 255
205 227 255
205 227 255
205 227 255
205 227 255
205 226 255
205 226 255
205 226 255
205 226 255
205 226 255
205 226 255
204 226 255
204 226 255
204 226 255
204 226 255
204 226 255
204 226 255
204 226 255
204 226 255
204 226 255
204 226 255
204 226 255
204 226 255
204 226 255
204 226 255
204 226 255
204 226 255
203 226 255
203 226 255
203 226 255
203 226 255
203 226 255
203 226 255
203 226 255
203 225 255
203 225 255
203 225 255
203 225 255
203 225 255
203 225 255
203 225 255
203 225 255
203 225 255
202 225 255
202 225 255
202 225 255
202 225 255
202 225 255
202 225 255
202 225 255
202 225 255
202 225 255
202 225 255
202 225 255
202 225 255
202 225 255
202 225 255
202 225 255
201 225 255
201 225 255
201 225 255
201 225 255
201 224 255
201 224 255
201 224 255
201 224 255
201 224 255
201 224 255
201 224 255
201 224 255
201 224 255
201 224 255
201 224 255
200 224 255
200 224 255
200 224 255
200 224 255
200 224 255
200 224 255
200 224 255
200 224 255
200 224 255
200 224 255
200 224 255
200 224 255
200 224 255
200 224 255
200 224 255
199 224 255
199 224 255
199 224 255
199 223 255
199 223 255
199 223 255
199 223 255
199 223 255
199 223 255
199 223 255
199 223 255
199 223 255
199 223 255
199 223 255
199 223 255
199 223 255
199 223 255
199 223 255
199 223 255
198 223 255
198 223 255
198 223 255
198 223 255
198 223 255
198 223 255
198 223 255
198 223 255
198 223 255
198 223 255
198 223 255
198 223 255
198 223 255
198 223 255
198 223 255
198 223 255
198 223 255
198 223 255
198 223 255
198 223 255
198 223 255
198 223 255
198 223 255
198 223 255
198 223 255
198 223 255
198 223 255
198 223 255
197 223 255
197 222 255
197 222 255
197 222 255
197 222 255
197 222 255
197 222 255
197 222 255
197 222 255
197 222 255
197 222 255
197 222 255
197 222 255
197 222 255
197 222 255
197 222 255
197 222 255
197 222 255
197 222 255
197 222 255
197 222 255
197 222 255
197 222 255
197 222 255
197 222 255
197 222 255
197 222 255
197 222 255
197 222 255
197 222 255
197 222 255
197 222 255
197 222 255
197 223 255
197 223 255
198 223 255
198 223 255
198 223 255
198 223 255
198 223 255
198 223 255
198 223 255
198 223 255
198 223 255
198 223 255
198 223 255
198 223 255
198 223 255
198 223 255
198 223 255
198 223 255
198 223 255
198 223 255
198 223 255
198 223 255
198 223 255
198 223 255
198 223 255
198 223 255
198 223 255
198 223 255
198 223 255
199 223 255
199 223 255
199 223 255
199 223 255
199 223 255
199 223 255
199 223 255
199 223 255
199 223 255
199 223 255
199 223 255
199 223 255
199 223 255
199 223 255
199 223 255
199 223 255
199 224 255
199 224 255
199 224 255
200 224 255
200 224 255
200 224 255
200 224 255
200 224 255
200 224 255
200 224 255
200 224 255
200 224 255
200 224 255
200 224 255
200 224 255
200 224 255
200 224 255
200 224 255
201 224 255
201 224 255
201 224 255
201 224 255
201 224 255
201 224 255
201 224 255
201 224 255
201 224 255
201 224 255
201 224 255
201 225 255
201 225 255
201 225 255
201 225 255
202 225 255
202 225 255
202 225 255
202 225 255
202 225 255
202 225 255
202 225 255
202 225 255
202 225 255
202 225 255
202 225 255
202 225 255
202 225 255
202 225 255
202 225 255
203 225 255
203 225 255
203 225 255
203 225 255
203 225 255
203 225 255
203 225 255
203 225 255
203 225 255
203 226 255
203 226 255
203 226 255
203 226 255
203 226 255
203 226 255
203 226 255
204 226 255
204 226 255
204 226 255
204 226 255
204 226 255
204 226 255
204 226 255
204 226 255
204 226 255
204 226 255
204 226 255
204 226 255
204 226 255
204 226 255
204 226 255
204 226 255
205 226 255
205 226 255
205 226 255
205 226 255
205 226 255
205 226 255
205 227 255
205 227 255
205 227 255
205 227 255
205 227 255
205 227 255
205 227 255
205 227 255
205 227 255
205 227 255
206 227 255
206 227 255
206 227 255
206 227 255
206 227 255
206 227 255
206 227 255
206 227 255
206 227 255
206 227 255
206 227 255
206 227 255
206 227 255
206 227 255
206 227 255
206 227 255
206 227 255
206 227 255
206 227 255
207 227 255
207 227 255
207 227 255
207 227 255
207 227 255
207 228 255
207 228 255
207 228 255
207 228 255
207 228 255
207 228 255
207 228 255
207 228 255
207 228 255
207 228 255
207 228 255
207 228 255
207 228 255
207 228 255
207 228 255
208 228 255
208 228 255
208 228 255
208 228 255
208 228 255
208 228 255
208 228 255
208 228 255
208 228 255
208 228 255
208 228 255
207 228 255
207 228 255
207 228 255
207 228 255
207 228 255
207 228 255
207 228 255
207 228 255
207 228 255
207 228 255
207 228 255
207 228 255
207 228 255
207 228 255
207 228 255
207 227 255
207 227 255
207 227 255
207 227 255
207 227 255
206 227 255
206 227 255
206 227 255
206 227 255
206 227 255
206 227 255
206 227 255
206 227 255
206 227 255
206 227 255
206 227 255
206 227 255
206 227 255
206 227 255
206 227 255
206 227 255
206 227 255
206 227 255
205 227 255
205 227 255
205 227 255
205 227 255
205 227 255
205 227 255
205 227 255
205 227 255
205 227 255
205 227 255
205 226 255
205 226 255
205 226 255
205 226 255
205 226 255
205 226 255
205 226 255
204 226 255
204 226 255
204 226 255
204 226 255
204 226 255
204 226 255
204 226 255
204 226 255
204 226 255
204 226 255
204 226 255
204 226 255
204 226 255
204 226 255
204 226 255
204 226 255
203 226 255
203 226 255
203 226 255
203 226 255
203 226 255
203 226 255
203 226 255
203 225 255
203 225 255
203 225 255
203 225 255
203 225 255
203 225 255
203 225 255
203 225 255
202 225 255
202 225 255
202 225 255
202 225 255
202 225 255
202 225 255
202 225 255
202 225 255
202 225 255
202 225 255
202 225 255
202 225 255
202 225 255
202 225 255
202 225 255
201 225 255
201 225 255
201 225 255
201 225 255
201 225 255
201 224 255
201 224 255
201 224 255
201 224 255
201 224 255
201 224 255
201 224 255
201 224 255
201 224 255
201 224 255
200 224 255
200 224 255
200 224 255
200 224 255
200 224 255
200 224 255
200 224 255
200 224 255
200 224 255
200 224 255
200 224 255
200 224 255
200 224 255
200 224 255
200 224 255
200 224 255
200 224 255
199 224 255
199 224 255
199 223 255
199 223 255
199 223 255
199 223 255
199 223 255
199 223 255
199 223 255
199 223 255
199 223 255
199 223 255
199 223 255
199 223 255
199 223 255
199 223 255
199 223 255
199 223 255
199 223 255
198 223 255
198 223 255
198 223 255
198 223 255
198 223 255
198 223 255
198 223 255
198 223 255
198 223 255
198 223 255
198 223 255
198 223 255
198 223 255
198 223 255
198 223 255
198 223 255
198 223 255
198 223 255
198 223 255
198 223 255
198 223 255
198 223 255
198 223 255
198 223 255
198 223 255
198 223 255
198 223 255
198 223 255
198 223 255
198 223 255
198 223 255
198 223 255
198 223 255
198 223 255
198 223 255
198 223 255
197 223 255
198 223 255
198 223 255
197 223 255
197 223 255
197 223 255
198 223 255
197 223 255
197 223 255
198 223 255
198 223 255
198 223 255
198 223 255
198 223 255
198 223 255
198 223 255
198 223 255
198 223 255
198 223 255
198 223 255
198 223 255
198 223 255
198 223 255
198 223 255
198 223 255
198 223 255
198 223 255
198 223 255
198 223 255
198 223 255
198 223 255
198 223 255
198 223 255
198 223 255
198 223 255
198 223 255
198 223 255
198 223 255
198 223 255
198 223 255
198 223 255
198 223 255
198 223 255
198 223 255
198 223 255
198 223 255
199 223 255
199 223 255
199 223 255
199 223 255
199 223 255
199 223 255
199 223 255
199 223 255
199 223 255
199 223 255
199 223 255
199 223 255
199 223 255
199 223 255
199 223 255
199 223 255
199 223 255
199 224 255
199 224 255
200 224 255
200 224 255
200 224 255
200 224 255
200 224 255
200 224 255
200 224 255
200 224 255
200 224 255
200 224 255
200 224 255
200 224 255
200 224 255
200 224 255
200 224 255
200 224 255
200 224 255
201 224 255
201 224 255
201 224 255
201 224 255
201 224 255
201 224 255
201 224 255
201 224 255
201 224 255
201 224 255
201 225 255
201 225 255
201 225 255
201 225 255
201 225 255
202 225 255
202 225 255
202 225 255
202 225 255
202 225 255
202 225 255
202 225 255
202 225 255
202 225 255
202 225 255
202 225 255
202 225 255
202 225 255
202 225 255
202 225 255
203 225 255
203 225 255
203 225 255
203 225 255
203 225 255
203 225 255
203 225 255
203 225 255
203 226 255
203 226 255
203 226 255
203 226 255
203 226 255
203 226 255
203 226 255
204 226 255
204 226 255
204 226 255
204 226 255
204 226 255
204 226 255
204 226 255
204 226 255
204 226 255
204 226 255
204 226 255
204 226 255
204 226 255
204 226 255
204 226 255
204 226 255
205 226 255
205 226 255
205 226 255
205 226 255
205 226 255
205 226 255
205 226 255
205 227 255
205 227 255
205 227 255
205 227 255
205 227 255
205 227 255
205 227 255
205 227 255
205 227 255
205 227 255
206 227 255
206 227 255
206 227 255
206 227 255
206 227 255
206 227 255
206 227 255
206 227 255
206 227 255
206 227 255
206 227 255
206 227 255
206 227 255
206 227 255
206 227 255
206 227 255
206 227 255
206 227 255
207 227 255
207 227 255
207 227 255
207 227 255
207 227 255
207 228 255
207 228 255
207 228 255
207 228 255
207 228 255
207 228 255
207 228 255
207 228 255
207 228 255
207 228 255
207 228 255
207 228 255
207 228 255
207 228 255
207 228 255
208 228 255
208 228 255
208 228 255
208 228 255
208 228 255
208 228 255
208 228 255
208 228 255
208 228 255
208 228 255
208 228 255
208 228 255
208 228 255
208 228 255
208 228 255
208 228 255
208 228 255
207 228 255
207 228 255
207 228 255
207 228 255
207 228 255
207 228 255
207 228 255
207 228 255
207 228 255
207 228 255
207 228 255
207 228 255
207 228 255
207 228 255
207 228 255
207 227 255
207 227 255
207 227 255
207 227 255
207 227 255
206 227 255
206 227 255
206 227 255
206 227 255
206 227 255
206 227 255
206 227 255
206 227 255
206 227 255
206 227 255
206 227 255
206 227 255
206 227 255
206 227 255
206 227 255
206 227 255
206 227 255
206 227 255
205 227 255
205 227 255
205 227 255
205 227 255
205 227 255
205 227 255
205 227 255
205 227 255
205 227 255
205 227 255
205 226 255
205 226 255
205 226 255
205 226 255
205 226 255
205 226 255
205 226 255
204 226 255
204 226 255
204 226 255
204 226 255
204 226 255
204 226 255
204 226 255
204 226 255
204 226 255
204 226 255
204 226 255
204 226 255
204 226 255
204 226 255
204 226 255
203 226 255
203 226 255
203 226 255
203 226 255
203 226 255
203 226 255
203 226 255
203 225 255
203 225 255
203 225 255
203 225 255
203 225 255
203 225 255
203 225 255
203 225 255
203 225 255
202 225 255
202 225 255
202 225 255
202 225 255
202 225 255
202 225 255
202 225 255
202 225 255
202 225 255
202 225 255
202 225 255
202 225 255
202 225 255
202 225 255
202 225 255
201 225 255
201 225 255
201 225 255
201 225 255
201 224 255
201 224 255
201 224 255
201 224 255
201 224 255
201 224 255
201 224 255
201 224 255
201 224 255
201 224 255
201 224 255
200 224 255
200 224 255
200 224 255
200 224 255
200 224 255
200 224 255
200 224 255
200 224 255
200 224 255
200 224 255
200 224 255
200 224 255
200 224 255
200 224 255
200 224 255
200 224 255
200 224 255
199 224 255
199 224 255
199 224 255
199 223 255
199 223 255
199 223 255
199 223 255
199 223 255
199 223 255
199 223 255
199 223 255
199 223 255
199 223 255
199 223 255
199 223 255
199 223 255
199 223 255
199 223 255
199 223 255
199 223 255
198 223 255
198 223 255
198 223 255
198 223 255
198 223 255
198 223 255
198 223 255
198 223 255
198 223 255
198 223 255
198 223 255
198 223 255
198 223 255
198 223 255
198 223 255
198 223 255
198 223 255
198 223 255
198 223 255
198 223 255
198 223 255
198 223 255
198 223 255
198 223 255
198 223 255
198 223 255
198 223 255
198 223 255
198 223 255
198 223 255
198 223 255
198 223 255
198 223 255
198 223 255
198 223 255
198 223 255
198 223 255
198 223 255
198 223 255
198 223 255
198 223 255
198 223 255
198 223 255
198 223 255
198 223 255
198 223 255
198 223 255
198 223 255
198 223 255
198 223 255
198 223 255
198 223 255
198 223 255
198 223 255
198 223 255
198 223 255
198 223 255
198 223 255
198 223 255
198 223 255
198 223 255
198 223 255
198 223 255
198 223 255
198 223 255
198 223 255
198 223 255
198 223 255
198 223 255
198 223 255
198 223 255
198 223 255
198 223 255
198 223 255
199 223 255
199 223 255
199 223 255
199 223 255
199 223 255
199 223 255
199 223 255
199 223 255
199 223 255
199 223 255
199 223 255
199 223 255
199 223 255
199 223 255
199 223 255
199 223 255
199 223 255
199 224 255
199 224 255
199 224 255
200 224 255
200 224 255
200 224 255
200 224 255
200 224 255
200 224 255
200 224 255
200 224 255
200 224 255
200 224 255
200 224 255
200 224 255
200 224 255
200 224 255
200 224 255
200 224 255
200 224 255
201 224 255
201 224 255
201 224 255
201 224 255
201 224 255
201 224 255
201 224 255
201 224 255
201 224 255
201 224 255
201 224 255
201 225 255
201 225 255
201 225 255
201 225 255
202 225 255
202 225 255
202 225 255
202 225 255
202 225 255
202 225 255
202 225 255
202 225 255
202 225 255
202 225 255
202 225 255
202 225 255
202 225 255
202 225 255
202 225 255
203 225 255
203 225 255
203 225 255
203 225 255
203 225 255
203 225 255
203 225 255
203 225 255
203 225 255
203 226 255
203 226 255
203 226 255
203 226 255
203 226 255
203 226 255
204 226 255
204 226 255
204 226 255
204 226 255
204 226 255
204 226 255
204 226 255
204 226 255
204 226 255
204 226 255
204 226 255
204 226 255
204 226 255
204 226 255
204 226 255
204 226 255
205 226 255
205 226 255
205 226 255
205 226 255
205 226 255
205 226 255
205 226 255
205 227 255
205 227 255
205 227 255
205 227 255
205 227 255
205 227 255
205 227 255
205 227 255
205 227 255
205 227 255
206 227 255
206 227 255
206 227 255
206 227 255
206 227 255
206 227 255
206 227 255
206 227 255
206 227 255
206 227 255
206 227 255
206 227 255
206 227 255
206 227 255
206 227 255
206 227 255
206 227 255
206 227 255
207 227 255
207 227 255
207 227 255
207 227 255
207 227 255
207 228 255
207 228 255
207 228 255
207 228 255
207 228 255
207 228 255
207 228 255
207 228 255
207 228 255
207 228 255
207 228 255
207 228 255
207 228 255
207 228 255
207 228 255
208 228 255
208 228 255
208 228 255
208 228 255
208 228 255
208 228 255
208 228 255
208 228 255
208 228 255
208 228 255
208 228 255
208 228 255
208 228 255
208 228 255
208 228 255
208 228 255
208 228 255
208 228 255
208 228 255
208 228 255
208 228 255
208 228 255
208 228 255
207 228 255
207 228 255
207 228 255
207 228 255
207 228 255
207 228 255
207 228 255
207 228 255
207 228 255
207 228 255
207 228 255
207 228 255
207 228 255
207 228 255
207 228 255
207 227 255
207 227 255
207 227 255
207 227 255
207 227 255
206 227 255
206 227 255
206 227 255
206 227 255
206 227 255
206 227 255
206 227 255
206 227 255
206 227 255
206 227 255
206 227 255
206 227 255
206 227 255
206 227 255
206 227 255
206 227 255
206 227 255
206 227 255
205 227 255
205 227 255
205 227 255
205 227 255
205 227 255
205 227 255
205 227 255
205 227 255
205 227 255
205 227 255
205 226 255
205 226 255
205 226 255
205 226 255
205 226 255
205 226 255
204 226 255
204 226 255
204 226 255
204 226 255
204 226 255
204 226 255
204 226 255
204 226 255
204 226 255
204 226 255
204 226 255
204 226 255
204 226 255
204 226 255
204 226 255
204 226 255
203 226 255
203 226 255
203 226 255
203 226 255
203 226 255
203 226 255
203 226 255
203 225 255
203 225 255
203 225 255
203 225 255
203 225 255
203 225 255
203 225 255
203 225 255
202 225 255
202 225 255
202 225 255
202 225 255
202 225 255
202 225 255
202 225 255
202 225 255
202 225 255
202 225 255
202 225 255
202 225 255
202 225 255
202 225 255
202 225 255
202 225 255
201 225 255
201 225 255
201 225 255
201 225 255
201 224 255
201 224 255
201 224 255
201 224 255
201 224 255
201 224 255
201 224 255
201 224 255
201 224 255
201 224 255
201 224 255
200 224 255
200 224 255
200 224 255
200 224 255
200 224 255
200 224 255
200 224 255
200 224 255
200 224 255
200 224 255
200 224 255
200 224 255
200 224 255
200 224 255
200 224 255
200 224 255
200 224 255
199 224 255
199 224 255
199 224 255
199 223 255
199 223 255
199 223 255
199 223 255
199 223 255
199 223 255
199 223 255
199 223 255
199 223 255
199 223 255
199 223 255
199 223 255
199 223 255
199 223 255
199 223 255
199 223 255
199 223 255
199 223 255
199 223 255
198 223 255
198 223 255
198 223 255
198 223 255
198 223 255
198 223 255
198 223 255
198 223 255
198 223 255
198 223 255
198 223 255
198 223 255
198 223 255
198 223 255
198 223 255
198 223 255
198 223 255
198 223 255
198 223 255
198 223 255
198 223 255
198 223 255
198 223 255
198 223 255
198 223 255
198 223 255
198 223 255
198 223 255
198 223 255
198 223 255
198 223 255
198 223 255
198 223 255
198 223 255
198 223 255
198 223 255
198 223 255
198 223 255
198 223 255
198 223 255
198 223 255
198 223 255
198 223 255
198 223 255
198 223 255
198 223 255
198 223 255
198 223 255
198 223 255
198 223 255
198 223 255
198 223 255
198 223 255
198 223 255
198 223 255
198 223 255
198 223 255
198 223 255
198 223 255
198 223 255
198 223 255
198 223 255
198 223 255
198 223 255
199 223 255
199 223 255
199 223 255
199 223 255
199 223 255
199 223 255
199 223 255
199 223 255
199 223 255
199 223 255
199 223 255
199 223 255
199 223 255
199 223 255
199 223 255
199 223 255
199 223 255
199 223 255
199 223 255
199 224 255
199 224 255
199 224 255
200 224 255
200 224 255
200 224 255
200 224 255
200 224 255
200 224 255
200 224 255
200 224 255
200 224 255
200 224 255
200 224 255
200 224 255
200 224 255
200 224 255
200 224 255
200 224 255
200 224 255
201 224 255
201 224 255
201 224 255
201 224 255
201 224 255
201 224 255
201 224 255
201 224 255
201 224 255
201 224 255
201 224 255
201 225 255
201 225 255
201 225 255
201 225 255
202 225 255
202 225 255
202 225 255
202 225 255
202 225 255
202 225 255
202 225 255
202 225 255
202 225 255
202 225 255
202 225 255
202 225 255
202 225 255
202 225 255
202 225 255
202 225 255
203 225 255
203 225 255
203 225 255
203 225 255
203 225 255
203 225 255
203 225 255
203 225 255
203 226 255
203 226 255
203 226 255
203 226 255
203 226 255
203 226 255
203 226 255
204 226 255
204 226 255
204 226 255
204 226 255
204 226 255
204 226 255
204 226 255
204 226 255
204 226 255
204 226 255
204 226 255
204 226 255
204 226 255
204 226 255
204 226 255
205 226 255
205 226 255
205 226 255
205 226 255
205 226 255
205 226 255
205 226 255
205 227 255
205 227 255
205 227 255
205 227 255
205 227 255
205 227 255
205 227 255
205 227 255
205 227 255
205 227 255
206 227 255
206 227 255
206 227 255
206 227 255
206 227 255
206 227 255
206 227 255
206 227 255
206 227 255
206 227 255
206 227 255
206 227 255
206 227 255
206 227 255
206 227 255
206 227 255
206 227 255
206 227 255
207 227 255
207 227 255
207 227 255
207 227 255
207 227 255
207 228 255
207 228 255
207 228 255
207 228 255
207 228 255
207 228 255
207 228 255
207 228 255
207 228 255
207 228 255
207 228 255
207 228 255
207 228 255
207 228 255
207 228 255
208 228 255
208 228 255
208 228 255
208 228 255
208 228 255
208 228 255
208 228 255
208 228 255
208 228 255
208 228 255
208 228 255
208 228 255
208 228 255
208 228 255
208 228 255
208 228 255
208 228 255
208 228 255
208 228 255
208 228 255
208 228 255
208 228 255
208 228 255
208 228 255
208 228 255
208 228 255
208 228 255
208 228 255
208 228 255
207 228 255
207 228 255
207 228 255
207 228 255
207 228 255
207 228 255
207 228 255
207 228 255
207 228 255
207 228 255
207 228 255
207 228 255
207 228 255
207 228 255
207 228 255
207 227 255
207 227 255
207 227 255
207 227 255
207 227 255
206 227 255
206 227 255
206 227 255
206 227 255
206 227 255
206 227 255
206 227 255
206 227 255
206 227 255
206 227 255
206 227 255
206 227 255
206 227 255
206 227 255
206 227 255
206 227 255
206 227 255
205 227 255
205 227 255
205 227 255
205 227 255
205 227 255
205 227 255
205 227 255
205 227 255
205 227 255
205 227 255
205 226 255
205 226 255
205 226 255
205 226 255
205 226 255
205 226 255
205 226 255
204 226 255
204 226 255
204 226 255
204 226 255
204 226 255
204 226 255
204 226 255
204 226 255
204 226 255
204 226 255
204 226 255
204 226 255
204 226 255
204 226 255
204 226 255
204 226 255
203 226 255
203 226 255
203 226 255
203 226 255
203 226 255
203 226 255
203 226 255
203 225 255
203 225 255
203 225 255
203 225 255
203 225 255
203 225 255
203 225 255
203 225 255
202 225 255
202 225 255
202 225 255
202 225 255
202 225 255
202 225 255
202 225 255
202 225 255
202 225 255
202 225 255
202 225 255
202 225 255
202 225 255
202 225 255
202 225 255
201 225 255
201 225 255
201 225 255
201 225 255
201 225 255
201 224 255
201 224 255
201 224 255
201 224 255
201 224 255
201 224 255
201 224 255
201 224 255
201 224 255
201 224 255
201 224 255
200 224 255
200 224 255
200 224 255
200 224 255
200 224 255
200 224 255
200 224 255
200 224 255
200 224 255
200 224 255
200 224 255
200 224 255
200 224 255
200 224 255
200 224 255
200 224 255
200 224 255
200 224 255
199 224 255
199 224 255
199 224 255
199 223 255
199 223 255
199 223 255
199 223 255
199 223 255
199 223 255
199 223 255
199 223 255
199 223 255
199 223 255
199 223 255
199 223 255
199 223 255
199 223 255
199 223 255
199 223 255
199 223 255
199 223 255
199 223 255
199 223 255
198 223 255
198 223 255
198 223 255
198 223 255
198 223 255
198 223 255
198 223 255
198 223 255
198 223 255
198 223 255
198 223 255
198 223 255
198 223 255
198 223 255
198 223 255
198 223 255
198 223 255
198 223 255
198 223 255
198 223 255
198 223 255
198 223 255
198 223 255
198 223 255
198 223 255
198 223 255
198 223 255
198 223 255
198 223 255
198 223 255
198 223 255
198 223 255
198 223 255
198 223 255
198 223 255
198 223 255
198 223 255
198 223 255
198 223 255
198 223 255
198 223 255
198 223 255
198 223 255
198 223 255
198 223 255
198 223 255
198 223 255
198 223 255
198 223 255
198 223 255
198 223 255
198 223 255
198 223 255
198 223 255
199 223 255
199 223 255
199 223 255
199 223 255
199 223 255
199 223 255
199 223 255
199 223 255
199 223 255
199 223 255
199 223 255
199 223 255
199 223 255
199 223 255
199 223 255
199 223 255
199 223 255
199 223 255
199 223 255
199 223 255
199 224 255
199 224 255
199 224 255
200 224 255
200 224 255
200 224 255
200 224 255
200 224 255
200 224 255
200 224 255
200 224 255
200 224 255
200 224 255
200 224 255
200 224 255
200 224 255
200 224 255
200 224 255
200 224 255
200 224 255
200 224 255
201 224 255
201 224 255
201 224 255
201 224 255
201 224 255
201 224 255
201 224 255
201 224 255
201 224 255
201 224 255
201 224 255
201 225 255
201 225 255
201 225 255
201 225 255
201 225 255
202 225 255
202 225 255
202 225 255
202 225 255
202 225 255
202 225 255
202 225 255
202 225 255
202 225 255
202 225 255
202 225 255
202 225 255
202 225 255
202 225 255
202 225 255
203 225 255
203 225 255
203 225 255
203 225 255
203 225 255
203 225 255
203 225 255
203 225 255
203 226 255
203 226 255
203 226 255
203 226 255
203 226 255
203 226 255
203 226 255
204 226 255
204 226 255
204 226 255
204 226 255
204 226 255
204 226 255
204 226 255
204 226 255
204 226 255
204 226 255
204 226 255
204 226 255
204 226 255
204 226 255
204 226 255
204 226 255
205 226 255
205 226 255
205 226 255
205 226 255
205 226 255
205 226 255
205 226 255
205 227 255
205 227 255
205 227 255
205 227 255
205 227 255
205 227 255
205 227 255
205 227 255
205 227 255
205 227 255
206 227 255
206 227 255
206 227 255
206 227 255
206 227 255
206 227 255
206 227 255
206 227 255
206 227 255
206 227 255
206 227 255
206 227 255
206 227 255
206 227 255
206 227 255
206 227 255
206 227 255
207 227 255
207 227 255
207 227 255
207 227 255
207 227 255
207 228 255
207 228 255
207 228 255
207 228 255
207 228 255
207 228 255
207 228 255
207 228 255
207 228 255
207 228 255
207 228 255
207 228 255
207 228 255
207 228 255
207 228 255
208 228 255
208 228 255
208 228 255
208 228 255
208 228 255
208 228 255
208 228 255
208 228 255
208 228 255
208 228 255
208 228 255
208 228 255
208 228 255
208 228 255
208 228 255
208 228 255
208 228 255
208 228 255
208 228 255
208 228 255
208 228 255
208 228 255
208 228 255
208 228 255
208 228 255
208 228 255
208 228 255
208 228 255
208 228 255
208 228 255
208 228 255
208 228 255
208 228 255
208 228 255
208 228 255
207 228 255
207 228 255
207 228 255
207 228 255
207 228 255
207 228 255
207 228 255
207 228 255
207 228 255
207 228 255
207 228 255
207 228 255
207 228 255
207 228 255
207 228 255
207 227 255
207 227 255
207 227 255
207 227 255
207 227 255
206 227 255
206 227 255
206 227 255
206 227 255
206 227 255
206 227 255
206 227 255
206 227 255
206 227 255
206 227 255
206 227 255
206 227 255
206 227 255
206 227 255
206 227 255
206 227 255
206 227 255
205 227 255
205 227 255
205 227 255
205 227 255
205 227 255
205 227 255
205 227 255
205 227 255
205 227 255
205 227 255
205 226 255
205 226 255
205 226 255
205 226 255
205 226 255
205 226 255
205 226 255
204 226 255
204 226 255
204 226 255
204 226 255
204 226 255
204 226 255
204 226 255
204 226 255
204 226 255
204 226 255
204 226 255
204 226 255
204 226 255
204 226 255
204 226 255
204 226 255
203 226 255
203 226 255
203 226 255
203 226 255
203 226 255
203 226 255
203 225 255
203 225 255
203 225 255
203 225 255
203 225 255
203 225 255
203 225 255
203 225 255
203 225 255
202 225 255
202 225 255
202 225 255
202 225 255
202 225 255
202 225 255
202 225 255
202 225 255
202 225 255
202 225 255
202 225 255
202 225 255
202 225 255
202 225 255
202 225 255
201 225 255
201 225 255
201 225 255
201 225 255
201 225 255
201 224 255
201 224 255
201 224 255
201 224 255
201 224 255
201 224 255
201 224 255
201 224 255
201 224 255
201 224 255
201 224 255
200 224 255
200 224 255
200 224 255
200 224 255
200 224 255
200 224 255
200 224 255
200 224 255
200 224 255
200 224 255
200 224 255
200 224 255
200 224 255
200 224 255
200 224 255
200 224 255
200 224 255
200 224 255
199 224 255
199 224 255
199 224 255
199 224 255
199 223 255
199 223 255
199 223 255
199 223 255
199 223 255
199 223 255
199 223 255
199 223 255
199 223 255
199 223 255
199 223 255
199 223 255
199 223 255
199 223 255
199 223 255
199 223 255
199 223 255
199 223 255
199 223 255
199 223 255
199 223 255
199 223 255
199 223 255
198 223 255
198 223 255
198 223 255
198 223 255
198 223 255
198 223 255
198 223 255
198 223 255
198 223 255
198 223 255
198 223 255
198 223 255
198 223 255
198 223 255
198 223 255
198 223 255
198 223 255
198 223 255
198 223 255
198 223 255
198 223 255
198 223 255
198 223 255
198 223 255
198 223 255
198 223 255
198 223 255
198 223 255
198 223 255
198 223 255
198 223 255
198 223 255
198 223 255
198 223 255
198 223 255
198 223 255
198 223 255
198 223 255
198 223 255
198 223 255
199 223 255
199 223 255
199 223 255
199 223 255
199 223 255
199 223 255
199 223 255
199 223 255
199 223 255
199 223 255
199 223 255
199 223 255
199 223 255
199 223 255
199 223 255
199 223 255
199 223 255
199 223 255
199 223 255
199 223 255
199 223 255
199 223 255
199 223 255
199 224 255
199 224 255
199 224 255
199 224 255
200 224 255
200 224 255
200 224 255
200 224 255
200 224 255
200 224 255
200 224 255
200 224 255
200 224 255
200 224 255
200 224 255
200 224 255
200 224 255
200 224 255
200 224 255
200 224 255
200 224 255
200 224 255
201 224 255
201 224 255
201 224 255
201 224 255
201 224 255
201 224 255
201 224 255
201 224 255
201 224 255
201 224 255
201 224 255
201 225 255
201 225 255
201 225 255
201 225 255
201 225 255
202 225 255
202 225 255
202 225 255
202 225 255
202 225 255
202 225 255
202 225 255
202 225 255
202 225 255
202 225 255
202 225 255
202 225 255
202 225 255
202 225 255
202 225 255
203 225 255
203 225 255
203 225 255
203 225 255
203 225 255
203 225 255
203 225 255
203 225 255
203 226 255
203 226 255
203 226 255
203 226 255
203 226 255
203 226 255
203 226 255
204 226 255
204 226 255
204 226 255
204 226 255
204 226 255
204 226 255
204 226 255
204 226 255
204 226 255
204 226 255
204 226 255
204 226 255
204 226 255
204 226 255
204 226 255
204 226 255
205 226 255
205 226 255
205 226 255
205 226 255
205 226 255
205 226 255
205 226 255
205 227 255
205 227 255
205 227 255
205 227 255
205 227 255
205 227 255
205 227 255
205 227 255
205 227 255
206 227 255
206 227 255
206 227 255
206 227 255
206 227 255
206 227 255
206 227 255
206 227 255
206 227 255
206 227 255
206 227 255
206 227 255
206 227 255
206 227 255
206 227 255
206 227 255
206 227 255
206 227 255
207 227 255
207 227 255
207 227 255
207 227 255
207 227 255
207 228 255
207 228 255
207 228 255
207 228 255
207 228 255
207 228 255
207 228 255
207 228 255
207 228 255
207 228 255
207 228 255
207 228 255
207 228 255
207 228 255
207 228 255
208 228 255
208 228 255
208 228 255
208 228 255
208 228 255
208 228 255
208 228 255
208 228 255
208 228 255
208 228 255
208 228 255
208 228 255
208 228 255
208 228 255
208 228 255
208 228 255
208 228 255
208 228 255
208 228 255
209 228 255
208 228 255
208 228 255
208 228 255
208 228 255
208 228 255
208 228 255
208 228 255
208 228 255
208 228 255
208 228 255
208 228 255
208 228 255
208 228 255
208 228 255
208 228 255
208 228 255
208 228 255
208 228 255
208 228 255
208 228 255
208 228 255
207 228 255
207 228 255
207 228 255
207 228 255
207 228 255
207 228 255
207 228 255
207 228 255
207 228 255
207 228 255
207 228 255
207 228 255
207 228 255
207 228 255
207 228 255
207 227 255
207 227 255
207 227 255
207 227 255
207 227 255
206 227 255
206 227 255
206 227 255
206 227 255
206 227 255
206 227 255
206 227 255
206 227 255
206 227 255
206 227 255
206 227 255
206 227 255
206 227 255
206 227 255
206 227 255
206 227 255
206 227 255
205 227 255
205 227 255
205 227 255
205 227 255
205 227 255
205 227 255
205 227 255
205 227 255
205 227 255
205 227 255
205 226 255
205 226 255
205 226 255
205 226 255
205 226 255
205 226 255
205 226 255
204 226 255
204 226 255
204 226 255
204 226 255
204 226 255
204 226 255
204 226 255
204 226 255
204 226 255
204 226 255
204 226 255
204 226 255
204 226 255
204 226 255
204 226 255
203 226 255
203 226 255
203 226 255
203 226 255
203 226 255
203 226 255
203 226 255
203 225 255
203 225 255
203 225 255
203 225 255
203 225 255
203 225 255
203 225 255
203 225 255
203 225 255
202 225 255
202 225 255
202 225 255
202 225 255
202 225 255
202 225 255
202 225 255
202 225 255
202 225 255
202 225 255
202 225 255
202 225 255
202 225 255
202 225 255
202 225 255
201 225 255
201 225 255
201 225 255
201 225 255
201 225 255
201 224 255
201 224 255
201 224 255
201 224 255
201 224 255
201 224 255
201 224 255
201 224 255
201 224 255
201 224 255
201 224 255
200 224 255
200 224 255
200 224 255
200 224 255
200 224 255
200 224 255
200 224 255
200 224 255
200 224 255
200 224 255
200 224 255
200 224 255
200 224 255
200 224 255
200 224 255
200 224 255
200 224 255
200 224 255
200 224 255
200 224 255
199 224 255
199 224 255
199 224 255
199 223 255
199 223 255
199 223 255
199 223 255
199 223 255
199 223 255
199 223 255
199 223 255
199 223 255
199 223 255
199 223 255
199 223 255
199 223 255
199 223 255
199 223 255
199 223 255
199 223 255
199 223 255
199 223 255
199 223 255
199 223 255
199 223 255
199 223 255
199 223 255
199 223 255
199 223 255
199 223 255
199 223 255
199 223 255
199 223 255
198 223 255
198 223 255
198 223 255
198 223 255
198 223 255
198 223 255
198 223 255
198 223 255
198 223 255
198 223 255
198 223 255
198 223 255
198 223 255
198 223 255
198 223 255
198 223 255
198 223 255
198 223 255
198 223 255
199 223 255
199 223 255
199 223 255
199 223 255
199 223 255
199 223 255
199 223 255
199 223 255
199 223 255
199 223 255
199 223 255
199 223 255
199 223 255
199 223 255
199 223 255
199 223 255
199 223 255
199 223 255
199 223 255
199 223 255
199 223 255
199 223 255
199 223 255
199 223 255
199 223 255
199 223 255
199 223 255
199 223 255
199 223 255
199 224 255
199 224 255
199 224 255
200 224 255
200 224 255
200 224 255
200 224 255
200 224 255
200 224 255
200 224 255
200 224 255
200 224 255
200 224 255
200 224 255
200 224 255
200 224 255
200 224 255
200 224 255
200 224 255
200 224 255
200 224 255
200 224 255
201 224 255
201 224 255
201 224 255
201 224 255
201 224 255
201 224 255
201 224 255
201 224 255
201 224 255
201 224 255
201 224 255
201 224 255
201 225 255
201 225 255
201 225 255
201 225 255
201 225 255
202 225 255
202 225 255
202 225 255
202 225 255
202 225 255
202 225 255
202 225 255
202 225 255
202 225 255
202 225 255
202 225 255
202 225 255
202 225 255
202 225 255
202 225 255
203 225 255
203 225 255
203 225 255
203 225 255
203 225 255
203 225 255
203 225 255
203 225 255
203 225 255
203 226 255
203 226 255
203 226 255
203 226 255
203 226 255
203 226 255
203 226 255
204 226 255
204 226 255
204 226 255
204 226 255
204 226 255
204 226 255
204 226 255
204 226 255
204 226 255
204 226 255
204 226 255
204 226 255
204 226 255
204 226 255
204 226 255
205 226 255
205 226 255
205 226 255
205 226 255
205 226 255
205 226 255
205 226 255
205 227 255
205 227 255
205 227 255
205 227 255
205 227 255
205 227 255
205 227 255
205 227 255
205 227 255
205 227 255
206 227 255
206 227 255
206 227 255
206 227 255
206 227 255
206 227 255
206 227 255
206 227 255
206 227 255
206 227 255
206 227 255
206 227 255
206 227 255
206 227 255
206 227 255
206 227 255
206 227 255
207 227 255
207 227 255
207 227 255
207 227 255
207 227 255
207 228 255
207 228 255
207 228 255
207 228 255
207 228 255
207 228 255
207 228 255
207 228 255
207 228 255
207 228 255
207 228 255
207 228 255
207 228 255
207 228 255
207 228 255
208 228 255
208 228 255
208 228 255
208 228 255
208 228 255
208 228 255
208 228 255
208 228 255
208 228 255
208 228 255
208 228 255
208 228 255
208 228 255
208 228 255
208 228 255
208 228 255
208 228 255
208 228 255
208 228 255
208 228 255
208 228 255
209 228 255
209 229 255
209 229 255
209 228 255
209 228 255
208 228 255
208 228 255
208 228 255
208 228 255
208 228 255
208 228 255
208 228 255
208 228 255
208 228 255
208 228 255
208 228 255
208 228 255
208 228 255
208 228 255
208 228 255
208 228 255
208 228 255
208 228 255
208 228 255
208 228 255
208 228 255
207 228 255
207 228 255
207 228 255
207 228 255
207 228 255
207 228 255
207 228 255
207 228 255
207 228 255
207 228 255
207 228 255
207 228 255
207 228 255
207 228 255
207 228 255
207 227 255
207 227 255
207 227 255
207 227 255
206 227 255
206 227 255
206 227 255
206 227 255
206 227 255
206 227 255
206 227 255
206 227 255
206 227 255
206 227 255
206 227 255
206 227 255
206 227 255
206 227 255
206 227 255
206 227 255
206 227 255
206 227 255
205 227 255
205 227 255
205 227 255
205 227 255
205 227 255
205 227 255
205 227 255
205 227 255
205 227 255
205 227 255
205 226 255
205 226 255
205 226 255
205 226 255
205 226 255
205 226 255
205 226 255
204 226 255
204 226 255
204 226 255
204 226 255
204 226 255
204 226 255
204 226 255
204 226 255
204 226 255
204 226 255
204 226 255
204 226 255
204 226 255
204 226 255
204 226 255
203 226 255
203 226 255
203 226 255
203 226 255
203 226 255
203 226 255
203 226 255
203 225 255
203 225 255
203 225 255
203 225 255
203 225 255
203 225 255
203 225 255
203 225 255
203 225 255
202 225 255
202 225 255
202 225 255
202 225 255
202 225 255
202 225 255
202 225 255
202 225 255
202 225 255
202 225 255
202 225 255
202 225 255
202 225 255
202 225 255
202 225 255
201 225 255
201 225 255
201 225 255
201 225 255
201 225 255
201 224 255
201 224 255
201 224 255
201 224 255
201 224 255
201 224 255
201 224 255
201 224 255
201 224 255
201 224 255
201 224 255
201 224 255
200 224 255
200 224 255
200 224 255
200 224 255
200 224 255
200 224 255
200 224 255
200 224 255
200 224 255
200 224 255
200 224 255
200 224 255
200 224 255
200 224 255
200 224 255
200 224 255
200 224 255
200 224 255
200 224 255
200 224 255
199 224 255
199 224 255
199 224 255
199 224 255
199 223 255
199 223 255
199 223 255
199 223 255
199 223 255
199 223 255
199 223 255
199 223 255
199 223 255
199 223 255
199 223 255
199 223 255
199 223 255
199 223 255
199 223 255
199 223 255
199 223 255
199 223 255
199 223 255
199 223 255
199 223 255
199 223 255
199 223 255
199 223 255
199 223 255
199 223 255
199 223 255
199 223 255
199 223 255
199 223 255
199 223 255
199 223 255
199 223 255
199 223 255
199 223 255
199 223 255
199 223 255
199 223 255
199 223 255
199 223 255
199 223 255
199 223 255
199 223 255
199 223 255
199 223 255
199 223 255
199 223 255
199 223 255
199 223 255
199 223 255
199 223 255
199 223 255
199 223 255
199 223 255
199 223 255
199 223 255
199 223 255
199 223 255
199 223 255
199 223 255
199 223 255
199 223 255
199 223 255
199 223 255
199 223 255
199 223 255
199 223 255
199 223 255
199 224 255
199 224 255
199 224 255
199 224 255
200 224 255
200 224 255
200 224 255
200 224 255
200 224 255
200 224 255
200 224 255
200 224 255
200 224 255
200 224 255
200 224 255
200 224 255
200 224 255
200 224 255
200 224 255
200 224 255
200 224 255
200 224 255
200 224 255
200 224 255
201 224 255
201 224 255
201 224 255
201 224 255
201 224 255
201 224 255
201 224 255
201 224 255
201 224 255
201 224 255
201 224 255
201 224 255
201 225 255
201 225 255
201 225 255
201 225 255
201 225 255
202 225 255
202 225 255
202 225 255
202 225 255
202 225 255
202 225 255
202 225 255
202 225 255
202 225 255
202 225 255
202 225 255
202 225 255
202 225 255
202 225 255
202 225 255
203 225 255
203 225 255
203 225 255
203 225 255
203 225 255
203 225 255
203 225 255
203 225 255
203 225 255
203 226 255
203 226 255
203 226 255
203 226 255
203 226 255
203 226 255
203 226 255
204 226 255
204 226 255
204 226 255
204 226 255
204 226 255
204 226 255
204 226 255
204 226 255
204 226 255
204 226 255
204 226 255
204 226 255
204 226 255
204 226 255
204 226 255
205 226 255
205 226 255
205 226 255
205 226 255
205 226 255
205 226 255
205 226 255
205 227 255
205 227 255
205 227 255
205 227 255
205 227 255
205 227 255
205 227 255
205 227 255
205 227 255
205 227 255
206 227 255
206 227 255
206 227 255
206 227 255
206 227 255
206 227 255
206 227 255
206 227 255
206 227 255
206 227 255
206 227 255
206 227 255
206 227 255
206 227 255
206 227 255
206 227 255
206 227 255
207 227 255
207 227 255
207 227 255
207 227 255
207 227 255
207 228 255
207 228 255
207 228 255
207 228 255
207 228 255
207 228 255
207 228 255
207 228 255
207 228 255
207 228 255
207 228 255
207 228 255
207 228 255
207 228 255
207 228 255
208 228 255
208 228 255
208 228 255
208 228 255
208 228 255
208 228 255
208 228 255
208 228 255
208 228 255
208 228 255
208 228 255
208 228 255
208 228 255
208 228 255
208 228 255
208 228 255
208 228 255
208 228 255
208 228 255
208 228 255
208 228 255
209 228 255
209 229 255
209 229 255
209 229 255
209 229 255
209 229 255
209 229 255
209 229 255
209 229 255
209 229 255
209 228 255
209 228 255
208 228 255
208 228 255
208 228 255
208 228 255
208 228 255
208 228 255
208 228 255
208 228 255
208 228 255
208 228 255
208 228 255
208 228 255
208 228 255
208 228 255
208 228 255
208 228 255
208 228 255
208 228 255
208 228 255
208 228 255
207 228 255
207 228 255
207 228 255
207 228 255
207 228 255
207 228 255
207 228 255
207 228 255
207 228 255
207 228 255
207 228 255
207 228 255
207 228 255
207 228 255
207 228 255
207 227 255
207 227 255
207 227 255
207 227 255
207 227 255
206 227 255
206 227 255
206 227 255
206 227 255
206 227 255
206 227 255
206 227 255
206 227 255
206 227 255
206 227 255
206 227 255
206 227 255
206 227 255
206 227 255
206 227 255
206 227 255
206 227 255
205 227 255
205 227 255
205 227 255
205 227 255
205 227 255
205 227 255
205 227 255
205 227 255
205 227 255
205 227 255
205 226 255
205 226 255
205 226 255
205 226 255
205 226 255
205 226 255
204 226 255
204 226 255
204 226 255
204 226 255
204 226 255
204 226 255
204 226 255
204 226 255
204 226 255
204 226 255
204 226 255
204 226 255
204 226 255
204 226 255
204 226 255
204 226 255
203 226 255
203 226 255
203 226 255
203 226 255
203 226 255
203 226 255
203 226 255
203 225 255
203 225 255
203 225 255
203 225 255
203 225 255
203 225 255
203 225 255
203 225 255
202 225 255
202 225 255
202 225 255
202 225 255
202 225 255
202 225 255
202 225 255
202 225 255
202 225 255
202 225 255
202 225 255
202 225 255
202 225 255
202 225 255
202 225 255
202 225 255
201 225 255
201 225 255
201 225 255
201 225 255
201 225 255
201 224 255
201 224 255
201 224 255
201 224 255
201 224 255
201 224 255
201 224 255
201 224 255
201 224 255
201 224 255
201 224 255
201 224 255
200 224 255
200 224 255
200 224 255
200 224 255
200 224 255
200 224 255
200 224 255
200 224 255
200 224 255
200 224 255
200 224 255
200 224 255
200 224 255
200 224 255
200 224 255
200 224 255
200 224 255
200 224 255
200 224 255
200 224 255
200 224 255
200 224 255
199 224 255
199 224 255
199 224 255
199 224 255
199 223 255
199 223 255
199 223 255
199 223 255
199 223 255
199 223 255
199 223 255
199 223 255
199 223 255
199 223 255
199 223 255
199 223 255
199 223 255
199 223 255
199 223 255
199 223 255
199 223 255
199 223 255
199 223 255
199 223 255
199 223 255
199 223 255
199 223 255
199 223 255
199 223 255
199 223 255
199 223 255
199 223 255
199 223 255
199 223 255
199 223 255
199 223 255
199 223 255
199 223 255
199 223 255
199 223 255
199 223 255
199 223 255
199 223 255
199 223 255
199 223 255
199 223 255
199 223 255
199 223 255
199 223 255
199 223 255
199 223 255
199 223 255
199 223 255
199 223 255
199 223 255
199 223 255
199 223 255
199 223 255
199 223 255
199 223 255
199 223 255
199 223 255
199 224 255
199 224 255
199 224 255
199 224 255
200 224 255
200 224 255
200 224 255
200 224 255
200 224 255
200 224 255
200 224 255
200 224 255
200 224 255
200 224 255
200 224 255
200 224 255
200 224 255
200 224 255
200 224 255
200 224 255
200 224 255
200 224 255
200 224 255
200 224 255
200 224 255
201 224 255
201 224 255
201 224 255
201 224 255
201 224 255
201 224 255
201 224 255
201 224 255
201 224 255
201 224 255
201 224 255
201 224 255
201 224 255
201 225 255
201 225 255
201 225 255
201 225 255
201 225 255
202 225 255
202 225 255
202 225 255
202 225 255
202 225 255
202 225 255
202 225 255
202 225 255
202 225 255
202 225 255
202 225 255
202 225 255
202 225 255
202 225 255
202 225 255
202 225 255
203 225 255
203 225 255
203 225 255
203 225 255
203 225 255
203 225 255
203 225 255
203 225 255
203 226 255
203 226 255
203 226 255
203 226 255
203 226 255
203 226 255
203 226 255
204 226 255
204 226 255
204 226 255
204 226 255
204 226 255
204 226 255
204 226 255
204 226 255
204 226 255
204 226 255
204 226 255
204 226 255
204 226 255
204 226 255
204 226 255
204 226 255
205 226 255
205 226 255
205 226 255
205 226 255
205 226 255
205 226 255
205 227 255
205 227 255
205 227 255
205 227 255
205 227 255
205 227 255
205 227 255
205 227 255
205 227 255
205 227 255
206 227 255
206 227 255
206 227 255
206 227 255
206 227 255
206 227 255
206 227 255
206 227 255
206 227 255
206 227 255
206 227 255
206 227 255
206 227 255
206 227 255
206 227 255
206 227 255
206 227 255
206 227 255
207 227 255
207 227 255
207 227 255
207 227 255
207 228 255
207 228 255
207 228 255
207 228 255
207 228 255
207 228 255
207 228 255
207 228 255
207 228 255
207 228 255
207 228 255
207 228 255
207 228 255
207 228 255
207 228 255
208 228 255
208 228 255
208 228 255
208 228 255
208 228 255
208 228 255
208 228 255
208 228 255
208 228 255
208 228 255
208 228 255
208 228 255
208 228 255
208 228 255
208 228 255
208 228 255
208 228 255
208 228 255
208 228 255
208 228 255
209 228 255
209 228 255
209 229 255
209 229 255
209 229 255
209 229 255
209 229 255
209 229 255
209 229 255
209 229 255
209 229 255
209 229 255
209 229 255
209 229 255
209 229 255
209 229 255
209 229 255
209 228 255
209 228 255
208 228 255
208 228 255
208 228 255
208 228 255
208 228 255
208 228 255
208 228 255
208 228 255
208 228 255
208 228 255
208 228 255
208 228 255
208 228 255
208 228 255
208 228 255
208 228 255
208 228 255
208 228 255
208 228 255
208 228 255
208 228 255
207 228 255
207 228 255
207 228 255
207 228 255
207 228 255
207 228 255
207 228 255
207 228 255
207 228 255
207 228 255
207 228 255
207 228 255
207 228 255
207 228 255
207 227 255
207 227 255
207 227 255
207 227 255
207 227 255
206 227 255
206 227 255
206 227 255
206 227 255
206 227 255
206 227 255
206 227 255
206 227 255
206 227 255
206 227 255
206 227 255
206 227 255
206 227 255
206 227 255
206 227 255
206 227 255
206 227 255
205 227 255
205 227 255
205 227 255
205 227 255
205 227 255
205 227 255
205 227 255
205 227 255
205 227 255
205 227 255
205 226 255
205 226 255
205 226 255
205 226 255
205 226 255
205 226 255
204 226 255
204 226 255
204 226 255
204 226 255
204 226 255
204 226 255
204 226 255
204 226 255
204 226 255
204 226 255
204 226 255
204 226 255
204 226 255
204 226 255
204 226 255
204 226 255
203 226 255
203 226 255
203 226 255
203 226 255
203 226 255
203 226 255
203 226 255
203 225 255
203 225 255
203 225 255
203 225 255
203 225 255
203 225 255
203 225 255
203 225 255
203 225 255
202 225 255
202 225 255
202 225 255
202 225 255
202 225 255
202 225 255
202 225 255
202 225 255
202 225 255
202 225 255
202 225 255
202 225 255
202 225 255
202 225 255
202 225 255
202 225 255
201 225 255
201 225 255
201 225 255
201 225 255
201 224 255
201 224 255
201 224 255
201 224 255
201 224 255
201 224 255
201 224 255
201 224 255
201 224 255
201 224 255
201 224 255
201 224 255
201 224 255
200 224 255
200 224 255
200 224 255
200 224 255
200 224 255
200 224 255
200 224 255
200 224 255
200 224 255
200 224 255
200 224 255
200 224 255
200 224 255
200 224 255
200 224 255
200 224 255
200 224 255
200 224 255
200 224 255
200 224 255
200 224 255
200 224 255
200 224 255
200 224 255
199 224 255
199 224 255
199 224 255
199 224 255
199 224 255
199 223 255
199 223 255
199 223 255
199 223 255
199 223 255
199 223 255
199 223 255
199 223 255
199 223 255
199 223 255
199 223 255
199 223 255
199 223 255
199 223 255
199 223 255
199 223 255
199 223 255
199 223 255
199 223 255
199 223 255
199 223 255
199 223 255
199 223 255
199 223 255
199 223 255
199 223 255
199 223 255
199 223 255
199 223 255
199 223 255
199 223 255
199 223 255
199 223 255
199 223 255
199 223 255
199 223 255
199 223 255
199 223 255
199 223 255
199 223 255
199 223 255
199 223 255
199 223 255
199 223 255
199 224 255
199 224 255
199 224 255
199 224 255
199 224 255
199 224 255
200 224 255
200 224 255
200 224 255
200 224 255
200 224 255
200 224 255
200 224 255
200 224 255
200 224 255
200 224 255
200 224 255
200 224 255
200 224 255
200 224 255
200 224 255
200 224 255
200 224 255
200 224 255
200 224 255
200 224 255
200 224 255
200 224 255
200 224 255
201 224 255
201 224 255
201 224 255
201 224 255
201 224 255
201 224 255
201 224 255
201 224 255
201 224 255
201 224 255
201 224 255
201 224 255
201 225 255
201 225 255
201 225 255
201 225 255
201 225 255
201 225 255
202 225 255
202 225 255
202 225 255
202 225 255
202 225 255
202 225 255
202 225 255
202 225 255
202 225 255
202 225 255
202 225 255
202 225 255
202 225 255
202 225 255
202 225 255
202 225 255
203 225 255
203 225 255
203 225 255
203 225 255
203 225 255
203 225 255
203 225 255
203 225 255
203 226 255
203 226 255
203 226 255
203 226 255
203 226 255
203 226 255
203 226 255
204 226 255
204 226 255
204 226 255
204 226 255
204 226 255
204 226 255
204 226 255
204 226 255
204 226 255
204 226 255
204 226 255
204 226 255
204 226 255
204 226 255
204 226 255
204 226 255
205 226 255
205 226 255
205 226 255
205 226 255
205 226 255
205 226 255
205 227 255
205 227 255
205 227 255
205 227 255
205 227 255
205 227 255
205 227 255
205 227 255
205 227 255
205 227 255
206 227 255
206 227 255
206 227 255
206 227 255
206 227 255
206 227 255
206 227 255
206 227 255
206 227 255
206 227 255
206 227 255
206 227 255
206 227 255
206 227 255
206 227 255
206 227 255
206 227 255
206 227 255
207 227 255
207 227 255
207 227 255
207 227 255
207 228 255
207 228 255
207 228 255
207 228 255
207 228 255
207 228 255
207 228 255
207 228 255
207 228 255
207 228 255
207 228 255
207 228 255
207 228 255
207 228 255
208 228 255
208 228 255
208 228 255
208 228 255
208 228 255
208 228 255
208 228 255
208 228 255
208 228 255
208 228 255
208 228 255
208 228 255
208 228 255
208 228 255
208 228 255
208 228 255
208 228 255
208 228 255
208 228 255
208 228 255
208 228 255
209 228 255
209 228 255
209 229 255
209 229 255
209 229 255
209 229 255
209 229 255
209 229 255
209 229 255
209 229 255
209 229 255
209 229 255
209 229 255
209 229 255
209 229 255
209 229 255
209 229 255
209 229 255
209 229 255
209 229 255
209 229 255
209 229 255
209 229 255
209 228 255
209 228 255
208 228 255
208 228 255
208 228 255
208 228 255
208 228 255
208 228 255
208 228 255
208 228 255
208 228 255
208 228 255
208 228 255
208 228 255
208 228 255
208 228 255
208 228 255
208 228 255
208 228 255
208 228 255
208 228 255
208 228 255
208 228 255
207 228 255
207 228 255
207 228 255
207 228 255
207 228 255
207 228 255
207 228 255
207 228 255
207 228 255
207 228 255
207 228 255
207 228 255
207 228 255
207 228 255
207 227 255
207 227 255
207 227 255
207 227 255
207 227 255
206 227 255
206 227 255
206 227 255
206 227 255
206 227 255
206 227 255
206 227 255
206 227 255
206 227 255
206 227 255
206 227 255
206 227 255
206 227 255
206 227 255
206 227 255
206 227 255
206 227 255
205 227 255
205 227 255
205 227 255
205 227 255
205 227 255
205 227 255
205 227 255
205 227 255
205 227 255
205 227 255
205 226 255
205 226 255
205 226 255
205 226 255
205 226 255
205 226 255
204 226 255
204 226 255
204 226 255
204 226 255
204 226 255
204 226 255
204 226 255
204 226 255
204 226 255
204 226 255
204 226 255
204 226 255
204 226 255
204 226 255
204 226 255
204 226 255
203 226 255
203 226 255
203 226 255
203 226 255
203 226 255
203 226 255
203 226 255
203 225 255
203 225 255
203 225 255
203 225 255
203 225 255
203 225 255
203 225 255
203 225 255
203 225 255
202 225 255
202 225 255
202 225 255
202 225 255
202 225 255
202 225 255
202 225 255
202 225 255
202 225 255
202 225 255
202 225 255
202 225 255
202 225 255
202 225 255
202 225 255
202 225 255
201 225 255
201 225 255
201 225 255
201 225 255
201 225 255
201 224 255
201 224 255
201 224 255
201 224 255
201 224 255
201 224 255
201 224 255
201 224 255
201 224 255
201 224 255
201 224 255
201 224 255
201 224 255
200 224 255
200 224 255
200 224 255
200 224 255
200 224 255
200 224 255
200 224 255
200 224 255
200 224 255
200 224 255
200 224 255
200 224 255
200 224 255
200 224 255
200 224 255
200 224 255
200 224 255
200 224 255
200 224 255
200 224 255
200 224 255
200 224 255
200 224 255
200 224 255
200 224 255
200 224 255
200 224 255
199 224 255
199 224 255
199 224 255
199 224 255
199 224 255
199 224 255
199 224 255
199 223 255
199 223 255
199 223 255
199 223 255
199 223 255
199 223 255
199 223 255
199 223 255
199 223 255
199 223 255
199 223 255
199 223 255
199 223 255
199 223 255
199 223 255
199 223 255
199 223 255
199 223 255
199 223 255
199 223 255
199 223 255
199 223 255
199 223 255
199 223 255
199 223 255
199 224 255
199 224 255
199 224 255
199 224 255
199 224 255
199 224 255
199 224 255
199 224 255
199 224 255
200 224 255
200 224 255
200 224 255
200 224 255
200 224 255
200 224 255
200 224 255
200 224 255
200 224 255
200 224 255
200 224 255
200 224 255
200 224 255
200 224 255
200 224 255
200 224 255
200 224 255
200 224 255
200 224 255
200 224 255
200 224 255
200 224 255
200 224 255
200 224 255
200 224 255
200 224 255
201 224 255
201 224 255
201 224 255
201 224 255
201 224 255
201 224 255
201 224 255
201 224 255
201 224 255
201 224 255
201 224 255
201 224 255
201 224 255
201 225 255
201 225 255
201 225 255
201 225 255
201 225 255
202 225 255
202 225 255
202 225 255
202 225 255
202 225 255
202 225 255
202 225 255
202 225 255
202 225 255
202 225 255
202 225 255
202 225 255
202 225 255
202 225 255
202 225 255
202 225 255
203 225 255
203 225 255
203 225 255
203 225 255
203 225 255
203 225 255
203 225 255
203 225 255
203 225 255
203 226 255
203 226 255
203 226 255
203 226 255
203 226 255
203 226 255
203 226 255
204 226 255
204 226 255
204 226 255
204 226 255
204 226 255
204 226 255
204 226 255
204 226 255
204 226 255
204 226 255
204 226 255
204 226 255
204 226 255
204 226 255
204 226 255
204 226 255
205 226 255
205 226 255
205 226 255
205 226 255
205 226 255
205 226 255
205 226 255
205 227 255
205 227 255
205 227 255
205 227 255
205 227 255
205 227 255
205 227 255
205 227 255
205 227 255
206 227 255
206 227 255
206 227 255
206 227 255
206 227 255
206 227 255
206 227 255
206 227 255
206 227 255
206 227 255
206 227 255
206 227 255
206 227 255
206 227 255
206 227 255
206 227 255
206 227 255
207 227 255
207 227 255
207 227 255
207 227 255
207 227 255
207 228 255
207 228 255
207 228 255
207 228 255
207 228 255
207 228 255
207 228 255
207 228 255
207 228 255
207 228 255
207 228 255
207 228 255
207 228 255
207 228 255
208 228 255
208 228 255
208 228 255
208 228 255
208 228 255
208 228 255
208 228 255
208 228 255
208 228 255
208 228 255
208 228 255
208 228 255
208 228 255
208 228 255
208 228 255
208 228 255
208 228 255
208 228 255
208 228 255
208 228 255
208 228 255
209 228 255
209 228 255
209 229 255
209 229 255
209 229 255
209 229 255
209 229 255
209 229 255
209 229 255
209 229 255
209 229 255
209 229 255
209 229 255
209 229 255
209 229 255
209 229 255
209 229 255
209 229 255
209 229 255
209 229 255
209 229 255
209 229 255
209 229 255
209 229 255
209 229 255
209 229 255
209 229 255
209 229 255
209 229 255
209 229 255
209 228 255
208 228 255
208 228 255
208 228 255
208 228 255
208 228 255
208 228 255
208 228 255
208 228 255
208 228 255
208 228 255
208 228 255
208 228 255
208 228 255
208 228 255
208 228 255
208 228 255
208 228 255
208 228 255
208 228 255
208 228 255
208 228 255
207 228 255
207 228 255
207 228 255
207 228 255
207 228 255
207 228 255
207 228 255
207 228 255
207 228 255
207 228 255
207 228 255
207 228 255
207 228 255
207 228 255
207 227 255
207 227 255
207 227 255
207 227 255
207 227 255
206 227 255
206 227 255
206 227 255
206 227 255
206 227 255
206 227 255
206 227 255
206 227 255
206 227 255
206 227 255
206 227 255
206 227 255
206 227 255
206 227 255
206 227 255
206 227 255
206 227 255
205 227 255
205 227 255
205 227 255
205 227 255
205 227 255
205 227 255
205 227 255
205 227 255
205 227 255
205 227 255
205 226 255
205 226 255
205 226 255
205 226 255
205 226 255
205 226 255
204 226 255
204 226 255
204 226 255
204 226 255
204 226 255
204 226 255
204 226 255
204 226 255
204 226 255
204 226 255
204 226 255
204 226 255
204 226 255
204 226 255
204 226 255
204 226 255
203 226 255
203 226 255
203 226 255
203 226 255
203 226 255
203 226 255
203 226 255
203 225 255
203 225 255
203 225 255
203 225 255
203 225 255
203 225 255
203 225 255
203 225 255
203 225 255
202 225 255
202 225 255
202 225 255
202 225 255
202 225 255
202 225 255
202 225 255
202 225 255
202 225 255
202 225 255
202 225 255
202 225 255
202 225 255
202 225 255
202 225 255
202 225 255
201 225 255
201 225 255
201 225 255
201 225 255
201 225 255
201 224 255
201 224 255
201 224 255
201 224 255
201 224 255
201 224 255
201 224 255
201 224 255
201 224 255
201 224 255
201 224 255
201 224 255
201 224 255
201 224 255
201 224 255
200 224 255
200 224 255
200 224 255
200 224 255
200 224 255
200 224 255
200 224 255
200 224 255
200 224 255
200 224 255
200 224 255
200 224 255
200 224 255
200 224 255
200 224 255
200 224 255
200 224 255
200 224 255
200 224 255
200 224 255
200 224 255
200 224 255
200 224 255
200 224 255
200 224 255
200 224 255
200 224 255
200 224 255
200 224 255
200 224 255
200 224 255
200 224 255
200 224 255
199 224 255
199 224 255
199 224 255
199 224 255
199 224 255
199 224 255
199 224 255
199 224 255
199 224 255
199 224 255
199 224 255
199 224 255
199 224 255
199 224 255
199 224 255
199 224 255
199 224 255
200 224 255
199 224 255
200 224 255
200 224 255
200 224 255
200 224 255
200 224 255
200 224 255
200 224 255
200 224 255
200 224 255
200 224 255
200 224 255
200 224 255
200 224 255
200 224 255
200 224 255
200 224 255
200 224 255
200 224 255
200 224 255
200 224 255
200 224 255
200 224 255
200 224 255
200 224 255
200 224 255
200 224 255
200 224 255
200 224 255
200 224 255
200 224 255
200 224 255
200 224 255
201 224 255
201 224 255
201 224 255
201 224 255
201 224 255
201 224 255
201 224 255
201 224 255
201 224 255
201 224 255
201 224 255
201 224 255
201 224 255
201 224 255
201 224 255
201 225 255
201 225 255
201 225 255
201 225 255
201 225 255
202 225 255
202 225 255
202 225 255
202 225 255
202 225 255
202 225 255
202 225 255
202 225 255
202 225 255
202 225 255
202 225 255
202 225 255
202 225 255
202 225 255
202 225 255
202 225 255
203 225 255
203 225 255
203 225 255
203 225 255
203 225 255
203 225 255
203 225 255
203 225 255
203 225 255
203 226 255
203 226 255
203 226 255
203 226 255
203 226 255
203 226 255
203 226 255
204 226 255
204 226 255
204 226 255
204 226 255
204 226 255
204 226 255
204 226 255
204 226 255
204 226 255
204 226 255
204 226 255
204 226 255
204 226 255
204 226 255
204 226 255
204 226 255
205 226 255
205 226 255
205 226 255
205 226 255
205 226 255
205 226 255
205 227 255
205 227 255
205 227 255
205 227 255
205 227 255
205 227 255
205 227 255
205 227 255
205 227 255
205 227 255
206 227 255
206 227 255
206 227 255
206 227 255
206 227 255
206 227 255
206 227 255
206 227 255
206 227 255
206 227 255
206 227 255
206 227 255
206 227 255
206 227 255
206 227 255
206 227 255
206 227 255
206 227 255
207 227 255
207 227 255
207 227 255
207 227 255
207 228 255
207 228 255
207 228 255
207 228 255
207 228 255
207 228 255
207 228 255
207 228 255
207 228 255
207 228 255
207 228 255
207 228 255
207 228 255
207 228 255
208 228 255
208 228 255
208 228 255
208 228 255
208 228 255
208 228 255
208 228 255
208 228 255
208 228 255
208 228 255
208 228 255
208 228 255
208 228 255
208 228 255
208 228 255
208 228 255
208 228 255
208 228 255
208 228 255
208 228 255
208 228 255
209 228 255
209 229 255
209 229 255
209 229 255
209 229 255
209 229 255
209 229 255
209 229 255
209 229 255
209 229 255
209 229 255
209 229 255
209 229 255
209 229 255
209 229 255
209 229 255
209 229 255
209 229 255
209 229 255
209 229 255
209 229 255
209 229 255
209 229 255
209 229 255
209 229 255
209 229 255
209 229 255
209 229 255
209 229 255
209 229 255
209 229 255
209 229 255
209 229 255
209 229 255
209 229 255
209 229 255
209 228 255
209 228 255
208 228 255
208 228 255
208 228 255
208 228 255
208 228 255
208 228 255
208 228 255
208 228 255
208 228 255
208 228 255
208 228 255
208 228 255
208 228 255
208 228 255
208 228 255
208 228 255
208 228 255
208 228 255
208 228 255
208 228 255
207 228 255
207 228 255
207 228 255
207 228 255
207 228 255
207 228 255
207 228 255
207 228 255
207 228 255
207 228 255
207 228 255
207 228 255
207 228 255
207 228 255
207 227 255
207 227 255
207 227 255
207 227 255
207 227 255
206 227 255
206 227 255
206 227 255
206 227 255
206 227 255
206 227 255
206 227 255
206 227 255
206 227 255
206 227 255
206 227 255
206 227 255
206 227 255
206 227 255
206 227 255
206 227 255
206 227 255
205 227 255
205 227 255
205 227 255
205 227 255
205 227 255
205 227 255
205 227 255
205 227 255
205 227 255
205 226 255
205 226 255
205 226 255
205 226 255
205 226 255
205 226 255
205 226 255
204 226 255
204 226 255
204 226 255
204 226 255
204 226 255
204 226 255
204 226 255
204 226 255
204 226 255
204 226 255
204 226 255
204 226 255
204 226 255
204 226 255
204 226 255
204 226 255
203 226 255
203 226 255
203 226 255
203 226 255
203 226 255
203 226 255
203 226 255
203 225 255
203 225 255
203 225 255
203 225 255
203 225 255
203 225 255
203 225 255
203 225 255
203 225 255
202 225 255
202 225 255
202 225 255
202 225 255
202 225 255
202 225 255
202 225 255
202 225 255
202 225 255
202 225 255
202 225 255
202 225 255
202 225 255
202 225 255
202 225 255
202 225 255
202 225 255
201 225 255
201 225 255
201 225 255
201 225 255
201 225 255
201 224 255
201 224 255
201 224 255
201 224 255
201 224 255
201 224 255
201 224 255
201 224 255
201 224 255
201 224 255
201 224 255
201 224 255
201 224 255
201 224 255
201 224 255
200 224 255
200 224 255
200 224 255
200 224 255
200 224 255
200 224 255
200 224 255
200 224 255
200 224 255
200 224 255
200 224 255
200 224 255
200 224 255
200 224 255
200 224 255
200 224 255
200 224 255
200 224 255
200 224 255
200 224 255
200 224 255
200 224 255
200 224 255
200 224 255
200 224 255
200 224 255
200 224 255
200 224 255
200 224 255
200 224 255
200 224 255
200 224 255
200 224 255
200 224 255
200 224 255
200 224 255
200 224 255
200 224 255
200 224 255
200 224 255
200 224 255
200 224 255
200 224 255
200 224 255
200 224 255
200 224 255
200 224 255
200 224 255
200 224 255
200 224 255
200 224 255
200 224 255
200 224 255
200 224 255
200 224 255
200 224 255
200 224 255
200 224 255
200 224 255
200 224 255
200 224 255
200 224 255
200 224 255
200 224 255
200 224 255
200 224 255
200 224 255
200 224 255
200 224 255
200 224 255
200 224 255
200 224 255
200 224 255
200 224 255
200 224 255
200 224 255
201 224 255
201 224 255
201 224 255
201 224 255
201 224 255
201 224 255
201 224 255
201 224 255
201 224 255
201 224 255
201 224 255
201 224 255
201 224 255
201 224 255
201 225 255
201 225 255
201 225 255
201 225 255
201 225 255
201 225 255
202 225 255
202 225 255
202 225 255
202 225 255
202 225 255
202 225 255
202 225 255
202 225 255
202 225 255
202 225 255
202 225 255
202 225 255
202 225 255
202 225 255
202 225 255
202 225 255
202 225 255
203 225 255
203 225 255
203 225 255
203 225 255
203 225 255
203 225 255
203 225 255
203 225 255
203 225 255
203 226 255
203 226 255
203 226 255
203 226 255
203 226 255
203 226 255
203 226 255
204 226 255
204 226 255
204 226 255
204 226 255
204 226 255
204 226 255
204 226 255
204 226 255
204 226 255
204 226 255
204 226 255
204 226 255
204 226 255
204 226 255
204 226 255
204 226 255
205 226 255
205 226 255
205 226 255
205 226 255
205 226 255
205 226 255
205 226 255
205 227 255
205 227 255
205 227 255
205 227 255
205 227 255
205 227 255
205 227 255
205 227 255
205 227 255
206 227 255
206 227 255
206 227 255
206 227 255
206 227 255
206 227 255
206 227 255
206 227 255
206 227 255
206 227 255
206 227 255
206 227 255
206 227 255
206 227 255
206 227 255
206 227 255
206 227 255
207 227 255
207 227 255
207 227 255
207 227 255
207 227 255
207 228 255
207 228 255
207 228 255
207 228 255
207 228 255
207 228 255
207 228 255
207 228 255
207 228 255
207 228 255
207 228 255
207 228 255
207 228 255
207 228 255
208 228 255
208 228 255
208 228 255
208 228 255
208 228 255
208 228 255
208 228 255
208 228 255
208 228 255
208 228 255
208 228 255
208 228 255
208 228 255
208 228 255
208 228 255
208 228 255
208 228 255
208 228 255
208 228 255
208 228 255
209 228 255
209 228 255
209 229 255
209 229 255
209 229 255
209 229 255
209 229 255
209 229 255
209 229 255
209 229 255
209 229 255
209 229 255
209 229 255
209 229 255
209 229 255
209 229 255
209 229 255
209 229 255
209 229 255
209 229 255
209 229 255
210 229 255
210 229 255
209 229 255
209 229 255
209 229 255
209 229 255
209 229 255
209 229 255
209 229 255
209 229 255
209 229 255
209 229 255
209 229 255
209 229 255
209 229 255
209 229 255
209 229 255
209 229 255
209 229 255
209 229 255
209 229 255
209 229 255
209 228 255
209 228 255
208 228 255
208 228 255
208 228 255
208 228 255
208 228 255
208 228 255
208 228 255
208 228 255
208 228 255
208 228 255
208 228 255
208 228 255
208 228 255
208 228 255
208 228 255
208 228 255
208 228 255
208 228 255
208 228 255
208 228 255
207 228 255
207 228 255
207 228 255
207 228 255
207 228 255
207 228 255
207 228 255
207 228 255
207 228 255
207 228 255
207 228 255
207 228 255
207 228 255
207 228 255
207 227 255
207 227 255
207 227 255
207 227 255
207 227 255
206 227 255
206 227 255
206 227 255
206 227 255
206 227 255
206 227 255
206 227 255
206 227 255
206 227 255
206 227 255
206 227 255
206 227 255
206 227 255
206 227 255
206 227 255
206 227 255
206 227 255
205 227 255
205 227 255
205 227 255
205 227 255
205 227 255
205 227 255
205 227 255
205 227 255
205 227 255
205 227 255
205 226 255
205 226 255
205 226 255
205 226 255
205 226 255
205 226 255
204 226 255
204 226 255
204 226 255
204 226 255
204 226 255
204 226 255
204 226 255
204 226 255
204 226 255
204 226 255
204 226 255
204 226 255
204 226 255
204 226 255
204 226 255
204 226 255
203 226 255
203 226 255
203 226 255
203 226 255
203 226 255
203 226 255
203 226 255
203 225 255
203 225 255
203 225 255
203 225 255
203 225 255
203 225 255
203 225 255
203 225 255
203 225 255
202 225 255
202 225 255
202 225 255
202 225 255
202 225 255
202 225 255
202 225 255
202 225 255
202 225 255
202 225 255
202 225 255
202 225 255
202 225 255
202 225 255
202 225 255
202 225 255
202 225 255
202 225 255
201 225 255
201 225 255
201 225 255
201 225 255
201 225 255
201 224 255
201 224 255
201 224 255
201 224 255
201 224 255
201 224 255
201 224 255
201 224 255
201 224 255
201 224 255
201 224 255
201 224 255
201 224 255
201 224 255
201 224 255
201 224 255
201 224 255
200 224 255
200 224 255
200 224 255
200 224 255
200 224 255
200 224 255
200 224 255
200 224 255
200 224 255
200 224 255
200 224 255
200 224 255
200 224 255
200 224 255
200 224 255
200 224 255
200 224 255
200 224 255
200 224 255
200 224 255
200 224 255
200 224 255
200 224 255
200 224 255
200 224 255
200 224 255
200 224 255
200 224 255
200 224 255
200 224 255
200 224 255
200 224 255
200 224 255
200 224 255
200 224 255
200 224 255
200 224 255
200 224 255
200 224 255
200 224 255
200 224 255
200 224 255
200 224 255
200 224 255
200 224 255
200 224 255
200 224 255
200 224 255
200 224 255
200 224 255
200 224 255
200 224 255
200 224 255
200 224 255
200 224 255
200 224 255
200 224 255
200 224 255
200 224 255
200 224 255
200 224 255
200 224 255
200 224 255
200 224 255
200 224 255
201 224 255
201 224 255
201 224 255
201 224 255
201 224 255
201 224 255
201 224 255
201 224 255
201 224 255
201 224 255
201 224 255
201 224 255
201 224 255
201 224 255
201 224 255
201 224 255
201 225 255
201 225 255
201 225 255
201 225 255
201 225 255
202 225 255
202 225 255
202 225 255
202 225 255
202 225 255
202 225 255
202 225 255
202 225 255
202 225 255
202 225 255
202 225 255
202 225 255
202 225 255
202 225 255
202 225 255
202 225 255
202 225 255
202 225 255
203 225 255
203 225 255
203 225 255
203 225 255
203 225 255
203 225 255
203 225 255
203 225 255
203 225 255
203 226 255
203 226 255
203 226 255
203 226 255
203 226 255
203 226 255
203 226 255
204 226 255
204 226 255
204 226 255
204 226 255
204 226 255
204 226 255
204 226 255
204 226 255
204 226 255
204 226 255
204 226 255
204 226 255
204 226 255
204 226 255
204 226 255
204 226 255
205 226 255
205 226 255
205 226 255
205 226 255
205 226 255
205 226 255
205 226 255
205 227 255
205 227 255
205 227 255
205 227 255
205 227 255
205 227 255
205 227 255
205 227 255
205 227 255
206 227 255
206 227 255
206 227 255
206 227 255
206 227 255
206 227 255
206 227 255
206 227 255
206 227 255
206 227 255
206 227 255
206 227 255
206 227 255
206 227 255
206 227 255
206 227 255
206 227 255
207 227 255
207 227 255
207 227 255
207 227 255
207 227 255
207 228 255
207 228 255
207 228 255
207 228 255
207 228 255
207 228 255
207 228 255
207 228 255
207 228 255
207 228 255
207 228 255
207 228 255
207 228 255
207 228 255
208 228 255
208 228 255
208 228 255
208 228 255
208 228 255
208 228 255
208 228 255
208 228 255
208 228 255
208 228 255
208 228 255
208 228 255
208 228 255
208 228 255
208 228 255
208 228 255
208 228 255
208 228 255
208 228 255
208 228 255
209 228 255
209 228 255
209 229 255
209 229 255
209 229 255
209 229 255
209 229 255
209 229 255
209 229 255
209 229 255
209 229 255
209 229 255
209 229 255
209 229 255
209 229 255
209 229 255
209 229 255
209 229 255
209 229 255
209 229 255
209 229 255
209 229 255
209 229 255
210 229 255
210 229 255
210 229 255
210 229 255
210 229 255
210 229 255
209 229 255
209 229 255
209 229 255
209 229 255
209 229 255
209 229 255
209 229 255
209 229 255
209 229 255
209 229 255
209 229 255
209 229 255
209 229 255
209 229 255
209 229 255
209 229 255
209 229 255
209 229 255
209 229 255
209 229 255
209 229 255
209 228 255
208 228 255
208 228 255
208 228 255
208 228 255
208 228 255
208 228 255
208 228 255
208 228 255
208 228 255
208 228 255
208 228 255
208 228 255
208 228 255
208 228 255
208 228 255
208 228 255
208 228 255
208 228 255
208 228 255
208 228 255
207 228 255
207 228 255
207 228 255
207 228 255
207 228 255
207 228 255
207 228 255
207 228 255
207 228 255
207 228 255
207 228 255
207 228 255
207 228 255
207 228 255
207 227 255
207 227 255
207 227 255
207 227 255
206 227 255
206 227 255
206 227 255
206 227 255
206 227 255
206 227 255
206 227 255
206 227 255
206 227 255
206 227 255
206 227 255
206 227 255
206 227 255
206 227 255
206 227 255
206 227 255
206 227 255
206 227 255
205 227 255
205 227 255
205 227 255
205 227 255
205 227 255
205 227 255
205 227 255
205 227 255
205 227 255
205 227 255
205 226 255
205 226 255
205 226 255
205 226 255
205 226 255
205 226 255
204 226 255
204 226 255
204 226 255
204 226 255
204 226 255
204 226 255
204 226 255
204 226 255
204 226 255
204 226 255
204 226 255
204 226 255
204 226 255
204 226 255
204 226 255
204 226 255
203 226 255
203 226 255
203 226 255
203 226 255
203 226 255
203 226 255
203 226 255
203 225 255
203 225 255
203 225 255
203 225 255
203 225 255
203 225 255
203 225 255
203 225 255
203 225 255
203 225 255
202 225 255
202 225 255
202 225 255
202 225 255
202 225 255
202 225 255
202 225 255
202 225 255
202 225 255
202 225 255
202 225 255
202 225 255
202 225 255
202 225 255
202 225 255
202 225 255
202 225 255
202 225 255
201 225 255
201 225 255
201 225 255
201 225 255
201 225 255
201 225 255
201 224 255
201 224 255
201 224 255
201 224 255
201 224 255
201 224 255
201 224 255
201 224 255
201 224 255
201 224 255
201 224 255
201 224 255
201 224 255
201 224 255
201 224 255
201 224 255
201 224 255
201 224 255
200 224 255
200 224 255
200 224 255
200 224 255
200 224 255
200 224 255
200 224 255
200 224 255
200 224 255
200 224 255
200 224 255
200 224 255
200 224 255
200 224 255
200 224 255
200 224 255
200 224 255
200 224 255
200 224 255
200 224 255
200 224 255
200 224 255
200 224 255
200 224 255
200 224 255
200 224 255
200 224 255
200 224 255
200 224 255
200 224 255
200 224 255
200 224 255
200 224 255
200 224 255
200 224 255
200 224 255
200 224 255
200 224 255
200 224 255
200 224 255
200 224 255
200 224 255
200 224 255
200 224 255
200 224 255
200 224 255
200 224 255
200 224 255
200 224 255
200 224 255
200 224 255
200 224 255
201 224 255
201 224 255
201 224 255
201 224 255
201 224 255
201 224 255
201 224 255
201 224 255
201 224 255
201 224 255
201 224 255
201 224 255
201 224 255
201 224 255
201 224 255
201 224 255
201 224 255
201 224 255
201 225 255
201 225 255
201 225 255
201 225 255
201 225 255
201 225 255
201 225 255
202 225 255
202 225 255
202 225 255
202 225 255
202 225 255
202 225 255
202 225 255
202 225 255
202 225 255
202 225 255
202 225 255
202 225 255
202 225 255
202 225 255
202 225 255
202 225 255
202 225 255
203 225 255
203 225 255
203 225 255
203 225 255
203 225 255
203 225 255
203 225 255
203 225 255
203 225 255
203 225 255
203 226 255
203 226 255
203 226 255
203 226 255
203 226 255
203 226 255
203 226 255
204 226 255
204 226 255
204 226 255
204 226 255
204 226 255
204 226 255
204 226 255
204 226 255
204 226 255
204 226 255
204 226 255
204 226 255
204 226 255
204 226 255
204 226 255
204 226 255
205 226 255
205 226 255
205 226 255
205 226 255
205 226 255
205 226 255
205 226 255
205 227 255
205 227 255
205 227 255
205 227 255
205 227 255
205 227 255
205 227 255
205 227 255
205 227 255
206 227 255
206 227 255
206 227 255
206 227 255
206 227 255
206 227 255
206 227 255
206 227 255
206 227 255
206 227 255
206 227 255
206 227 255
206 227 255
206 227 255
206 227 255
206 227 255
206 227 255
207 227 255
207 227 255
207 227 255
207 227 255
207 227 255
207 228 255
207 228 255
207 228 255
207 228 255
207 228 255
207 228 255
207 228 255
207 228 255
207 228 255
207 228 255
207 228 255
207 228 255
207 228 255
208 228 255
208 228 255
208 228 255
208 228 255
208 228 255
208 228 255
208 228 255
208 228 255
208 228 255
208 228 255
208 228 255
208 228 255
208 228 255
208 228 255
208 228 255
208 228 255
208 228 255
208 228 255
208 228 255
208 228 255
208 228 255
209 228 255
209 229 255
209 229 255
209 229 255
209 229 255
209 229 255
209 229 255
209 229 255
209 229 255
209 229 255
209 229 255
209 229 255
209 229 255
209 229 255
209 229 255
209 229 255
209 229 255
209 229 255
209 229 255
209 229 255
209 229 255
209 229 255
210 229 255
210 229 255
210 229 255
210 229 255
210 229 255
210 229 255
210 229 255
210 229 255
210 229 255
210 229 255
210 229 255
210 229 255
210 229 255
210 229 255
209 229 255
209 229 255
209 229 255
209 229 255
209 229 255
209 229 255
209 229 255
209 229 255
209 229 255
209 229 255
209 229 255
209 229 255
209 229 255
209 229 255
209 229 255
209 229 255
209 229 255
209 229 255
209 229 255
209 229 255
209 228 255
209 228 255
208 228 255
208 228 255
208 228 255
208 228 255
208 228 255
208 228 255
208 228 255
208 228 255
208 228 255
208 228 255
208 228 255
208 228 255
208 228 255
208 228 255
208 228 255
208 228 255
208 228 255
208 228 255
208 228 255
208 228 255
207 228 255
207 228 255
207 228 255
207 228 255
207 228 255
207 228 255
207 228 255
207 228 255
207 228 255
207 228 255
207 228 255
207 228 255
207 228 255
207 228 255
207 227 255
207 227 255
207 227 255
207 227 255
206 227 255
206 227 255
206 227 255
206 227 255
206 227 255
206 227 255
206 227 255
206 227 255
206 227 255
206 227 255
206 227 255
206 227 255
206 227 255
206 227 255
206 227 255
206 227 255
206 227 255
205 227 255
205 227 255
205 227 255
205 227 255
205 227 255
205 227 255
205 227 255
205 227 255
205 227 255
205 227 255
205 226 255
205 226 255
205 226 255
205 226 255
205 226 255
205 226 255
204 226 255
204 226 255
204 226 255
204 226 255
204 226 255
204 226 255
204 226 255
204 226 255
204 226 255
204 226 255
204 226 255
204 226 255
204 226 255
204 226 255
204 226 255
204 226 255
203 226 255
203 226 255
203 226 255
203 226 255
203 226 255
203 226 255
203 226 255
203 226 255
203 225 255
203 225 255
203 225 255
203 225 255
203 225 255
203 225 255
203 225 255
203 225 255
203 225 255
202 225 255
202 225 255
202 225 255
202 225 255
202 225 255
202 225 255
202 225 255
202 225 255
202 225 255
202 225 255
202 225 255
202 225 255
202 225 255
202 225 255
202 225 255
202 225 255
202 225 255
202 225 255
202 225 255
201 225 255
201 225 255
201 225 255
201 225 255
201 225 255
201 225 255
201 224 255
201 224 255
201 224 255
201 224 255
201 224 255
201 224 255
201 224 255
201 224 255
201 224 255
201 224 255
201 224 255
201 224 255
201 224 255
201 224 255
201 224 255
201 224 255
201 224 255
201 224 255
201 224 255
201 224 255
201 224 255
201 224 255
200 224 255
200 224 255
200 224 255
200 224 255
200 224 255
200 224 255
200 224 255
200 224 255
200 224 255
200 224 255
200 224 255
200 224 255
200 224 255
200 224 255
200 224 255
200 224 255
200 224 255
200 224 255
200 224 255
200 224 255
200 224 255
200 224 255
200 224 255
200 224 255
200 224 255
200 224 255
200 224 255
200 224 255
200 224 255
200 224 255
200 224 255
200 224 255
200 224 255
200 224 255
200 224 255
200 224 255
200 224 255
201 224 255
201 224 255
201 224 255
201 224 255
201 224 255
201 224 255
201 224 255
201 224 255
201 224 255
201 224 255
201 224 255
201 224 255
201 224 255
201 224 255
201 224 255
201 224 255
201 224 255
201 224 255
201 224 255
201 224 255
201 224 255
201 225 255
201 225 255
201 225 255
201 225 255
201 225 255
201 225 255
202 225 255
202 225 255
202 225 255
202 225 255
202 225 255
202 225 255
202 225 255
202 225 255
202 225 255
202 225 255
202 225 255
202 225 255
202 225 255
202 225 255
202 225 255
202 225 255
202 225 255
202 225 255
202 225 255
203 225 255
203 225 255
203 225 255
203 225 255
203 225 255
203 225 255
203 225 255
203 225 255
203 225 255
203 226 255
203 226 255
203 226 255
203 226 255
203 226 255
203 226 255
203 226 255
204 226 255
204 226 255
204 226 255
204 226 255
204 226 255
204 226 255
204 226 255
204 226 255
204 226 255
204 226 255
204 226 255
204 226 255
204 226 255
204 226 255
204 226 255
204 226 255
204 226 255
205 226 255
205 226 255
205 226 255
205 226 255
205 226 255
205 226 255
205 227 255
205 227 255
205 227 255
205 227 255
205 227 255
205 227 255
205 227 255
205 227 255
205 227 255
205 227 255
206 227 255
206 227 255
206 227 255
206 227 255
206 227 255
206 227 255
206 227 255
206 227 255
206 227 255
206 227 255
206 227 255
206 227 255
206 227 255
206 227 255
206 227 255
206 227 255
206 227 255
207 227 255
207 227 255
207 227 255
207 227 255
207 228 255
207 228 255
207 228 255
207 228 255
207 228 255
207 228 255
207 228 255
207 228 255
207 228 255
207 228 255
207 228 255
207 228 255
207 228 255
207 228 255
208 228 255
208 228 255
208 228 255
208 228 255
208 228 255
208 228 255
208 228 255
208 228 255
208 228 255
208 228 255
208 228 255
208 228 255
208 228 255
208 228 255
208 228 255
208 228 255
208 228 255
208 228 255
208 228 255
208 228 255
209 228 255
209 228 255
209 229 255
209 229 255
209 229 255
209 229 255
209 229 255
209 229 255
209 229 255
209 229 255
209 229 255
209 229 255
209 229 255
209 229 255
209 229 255
209 229 255
209 229 255
209 229 255
209 229 255
209 229 255
209 229 255
209 229 255
210 229 255
210 229 255
210 229 255
210 229 255
210 229 255
210 229 255
210 229 255
210 229 255
210 229 255
210 229 255
210 229 255
210 229 255
210 229 255
210 229 255
210 229 255
210 229 255
210 229 255
210 229 255
210 229 255
210 229 255
210 229 255
209 229 255
209 229 255
209 229 255
209 229 255
209 229 255
209 229 255
209 229 255
209 229 255
209 229 255
209 229 255
209 229 255
209 229 255
209 229 255
209 229 255
209 229 255
209 229 255
209 229 255
209 229 255
209 229 255
209 229 255
209 229 255
209 228 255
208 228 255
208 228 255
208 228 255
208 228 255
208 228 255
208 228 255
208 228 255
208 228 255
208 228 255
208 228 255
208 228 255
208 228 255
208 228 255
208 228 255
208 228 255
208 228 255
208 228 255
208 228 255
208 228 255
208 228 255
207 228 255
207 228 255
207 228 255
207 228 255
207 228 255
207 228 255
207 228 255
207 228 255
207 228 255
207 228 255
207 228 255
207 228 255
207 228 255
207 228 255
207 227 255
207 227 255
207 227 255
207 227 255
206 227 255
206 227 255
206 227 255
206 227 255
206 227 255
206 227 255
206 227 255
206 227 255
206 227 255
206 227 255
206 227 255
206 227 255
206 227 255
206 227 255
206 227 255
206 227 255
206 227 255
205 227 255
205 227 255
205 227 255
205 227 255
205 227 255
205 227 255
205 227 255
205 227 255
205 227 255
205 227 255
205 226 255
205 226 255
205 226 255
205 226 255
205 226 255
205 226 255
205 226 255
204 226 255
204 226 255
204 226 255
204 226 255
204 226 255
204 226 255
204 226 255
204 226 255
204 226 255
204 226 255
204 226 255
204 226 255
204 226 255
204 226 255
204 226 255
204 226 255
203 226 255
203 226 255
203 226 255
203 226 255
203 226 255
203 226 255
203 226 255
203 225 255
203 225 255
203 225 255
203 225 255
203 225 255
203 225 255
203 225 255
203 225 255
203 225 255
203 225 255
202 225 255
202 225 255
202 225 255
202 225 255
202 225 255
202 225 255
202 225 255
202 225 255
202 225 255
202 225 255
202 225 255
202 225 255
202 225 255
202 225 255
202 225 255
202 225 255
202 225 255
202 225 255
202 225 255
202 225 255
201 225 255
201 225 255
201 225 255
201 225 255
201 225 255
201 225 255
201 224 255
201 224 255
201 224 255
201 224 255
201 224 255
201 224 255
201 224 255
201 224 255
201 224 255
201 224 255
201 224 255
201 224 255
201 224 255
201 224 255
201 224 255
201 224 255
201 224 255
201 224 255
201 224 255
201 224 255
201 224 255
201 224 255
201 224 255
201 224 255
201 224 255
201 224 255
201 224 255
201 224 255
201 224 255
201 224 255
201 224 255
201 224 255
201 224 255
201 224 255
201 224 255
201 224 255
201 224 255
201 224 255
201 224 255
201 224 255
201 224 255
201 224 255
201 224 255
201 224 255
201 224 255
201 224 255
201 224 255
201 224 255
201 224 255
201 224 255
201 224 255
201 224 255
201 224 255
201 224 255
201 224 255
201 224 255
201 224 255
201 224 255
201 224 255
201 224 255
201 224 255
201 224 255
201 224 255
201 224 255
201 224 255
201 224 255
201 224 255
201 224 255
201 224 255
201 225 255
201 225 255
201 225 255
201 225 255
201 225 255
201 225 255
201 225 255
202 225 255
202 225 255
202 225 255
202 225 255
202 225 255
202 225 255
202 225 255
202 225 255
202 225 255
202 225 255
202 225 255
202 225 255
202 225 255
202 225 255
202 225 255
202 225 255
202 225 255
202 225 255
202 225 255
202 225 255
203 225 255
203 225 255
203 225 255
203 225 255
203 225 255
203 225 255
203 225 255
203 225 255
203 225 255
203 225 255
203 226 255
203 226 255
203 226 255
203 226 255
203 226 255
203 226 255
203 226 255
204 226 255
204 226 255
204 226 255
204 226 255
204 226 255
204 226 255
204 226 255
204 226 255
204 226 255
204 226 255
204 226 255
204 226 255
204 226 255
204 226 255
204 226 255
204 226 255
205 226 255
205 226 255
205 226 255
205 226 255
205 226 255
205 226 255
205 226 255
205 227 255
205 227 255
205 227 255
205 227 255
205 227 255
205 227 255
205 227 255
205 227 255
205 227 255
205 227 255
206 227 255
206 227 255
206 227 255
206 227 255
206 227 255
206 227 255
206 227 255
206 227 255
206 227 255
206 227 255
206 227 255
206 227 255
206 227 255
206 227 255
206 227 255
206 227 255
206 227 255
207 227 255
207 227 255
207 227 255
207 227 255
207 228 255
207 228 255
207 228 255
207 228 255
207 228 255
207 228 255
207 228 255
207 228 255
207 228 255
207 228 255
207 228 255
207 228 255
207 228 255
207 228 255
208 228 255
208 228 255
208 228 255
208 228 255
208 228 255
208 228 255
208 228 255
208 228 255
208 228 255
208 228 255
208 228 255
208 228 255
208 228 255
208 228 255
208 228 255
208 228 255
208 228 255
208 228 255
208 228 255
208 228 255
209 228 255
209 229 255
209 229 255
209 229 255
209 229 255
209 229 255
209 229 255
209 229 255
209 229 255
209 229 255
209 229 255
209 229 255
209 229 255
209 229 255
209 229 255
209 229 255
209 229 255
209 229 255
209 229 255
209 229 255
209 229 255
209 229 255
210 229 255
210 229 255
210 229 255
210 229 255
210 229 255
210 229 255
210 229 255
210 229 255
210 229 255
210 229 255
210 229 255
210 229 255
210 229 255
210 229 255
210 229 255
210 229 255
210 229 255
210 229 255
210 229 255
210 229 255
210 229 255
210 229 255
210 229 255
210 229 255
210 229 255
210 229 255
210 229 255
210 229 255
209 229 255
209 229 255
209 229 255
209 229 255
209 229 255
209 229 255
209 229 255
209 229 255
209 229 255
209 229 255
209 229 255
209 229 255
209 229 255
209 229 255
209 229 255
209 229 255
209 229 255
209 229 255
209 229 255
209 229 255
209 228 255
209 228 255
208 228 255
208 228 255
208 228 255
208 228 255
208 228 255
208 228 255
208 228 255
208 228 255
208 228 255
208 228 255
208 228 255
208 228 255
208 228 255
208 228 255
208 228 255
208 228 255
208 228 255
208 228 255
208 228 255
207 228 255
207 228 255
207 228 255
207 228 255
207 228 255
207 228 255
207 228 255
207 228 255
207 228 255
207 228 255
207 228 255
207 228 255
207 228 255
207 228 255
207 227 255
207 227 255
207 227 255
207 227 255
206 227 255
206 227 255
206 227 255
206 227 255
206 227 255
206 227 255
206 227 255
206 227 255
206 227 255
206 227 255
206 227 255
206 227 255
206 227 255
206 227 255
206 227 255
206 227 255
206 227 255
205 227 255
205 227 255
205 227 255
205 227 255
205 227 255
205 227 255
205 227 255
205 227 255
205 227 255
205 227 255
205 226 255
205 226 255
205 226 255
205 226 255
205 226 255
205 226 255
205 226 255
204 226 255
204 226 255
204 226 255
204 226 255
204 226 255
204 226 255
204 226 255
204 226 255
204 226 255
204 226 255
204 226 255
204 226 255
204 226 255
204 226 255
204 226 255
204 226 255
203 226 255
203 226 255
203 226 255
203 226 255
203 226 255
203 226 255
203 226 255
203 226 255
203 225 255
203 225 255
203 225 255
203 225 255
203 225 255
203 225 255
203 225 255
203 225 255
203 225 255
203 225 255
202 225 255
202 225 255
202 225 255
202 225 255
202 225 255
202 225 255
202 225 255
202 225 255
202 225 255
202 225 255
202 225 255
202 225 255
202 225 255
202 225 255
202 225 255
202 225 255
202 225 255
202 225 255
202 225 255
202 225 255
202 225 255
201 225 255
201 225 255
201 225 255
201 225 255
201 225 255
201 225 255
201 225 255
201 225 255
201 224 255
201 224 255
201 224 255
201 224 255
201 224 255
201 224 255
201 224 255
201 224 255
201 224 255
201 224 255
201 224 255
201 224 255
201 224 255
201 224 255
201 224 255
201 224 255
201 224 255
201 224 255
201 224 255
201 224 255
201 224 255
201 224 255
201 224 255
201 224 255
201 224 255
201 224 255
201 224 255
201 224 255
201 224 255
201 224 255
201 224 255
201 224 255
201 224 255
201 224 255
201 224 255
201 224 255
201 224 255
201 224 255
201 224 255
201 224 255
201 224 255
201 224 255
201 224 255
201 224 255
201 224 255
201 224 255
201 224 255
201 224 255
201 224 255
201 224 255
201 224 255
201 224 255
201 224 255
201 224 255
201 224 255
201 224 255
201 225 255
201 225 255
201 225 255
201 225 255
201 225 255
201 225 255
201 225 255
201 225 255
201 225 255
202 225 255
202 225 255
202 225 255
202 225 255
202 225 255
202 225 255
202 225 255
202 225 255
202 225 255
202 225 255
202 225 255
202 225 255
202 225 255
202 225 255
202 225 255
202 225 255
202 225 255
202 225 255
202 225 255
202 225 255
203 225 255
203 225 255
203 225 255
203 225 255
203 225 255
203 225 255
203 225 255
203 225 255
203 225 255
203 225 255
203 226 255
203 226 255
203 226 255
203 226 255
203 226 255
203 226 255
203 226 255
203 226 255
204 226 255
204 226 255
204 226 255
204 226 255
204 226 255
204 226 255
204 226 255
204 226 255
204 226 255
204 226 255
204 226 255
204 226 255
204 226 255
204 226 255
204 226 255
204 226 255
205 226 255
205 226 255
205 226 255
205 226 255
205 226 255
205 226 255
205 226 255
205 227 255
205 227 255
205 227 255
205 227 255
205 227 255
205 227 255
205 227 255
205 227 255
205 227 255
205 227 255
206 227 255
206 227 255
206 227 255
206 227 255
206 227 255
206 227 255
206 227 255
206 227 255
206 227 255
206 227 255
206 227 255
206 227 255
206 227 255
206 227 255
206 227 255
206 227 255
206 227 255
207 227 255
207 227 255
207 227 255
207 227 255
207 228 255
207 228 255
207 228 255
207 228 255
207 228 255
207 228 255
207 228 255
207 228 255
207 228 255
207 228 255
207 228 255
207 228 255
207 228 255
207 228 255
208 228 255
208 228 255
208 228 255
208 228 255
208 228 255
208 228 255
208 228 255
208 228 255
208 228 255
208 228 255
208 228 255
208 228 255
208 228 255
208 228 255
208 228 255
208 228 255
208 228 255
208 228 255
208 228 255
209 228 255
209 228 255
209 229 255
209 229 255
209 229 255
209 229 255
209 229 255
209 229 255
209 229 255
209 229 255
209 229 255
209 229 255
209 229 255
209 229 255
209 229 255
209 229 255
209 229 255
209 229 255
209 229 255
209 229 255
209 229 255
209 229 255
210 229 255
210 229 255
210 229 255
210 229 255
210 229 255
210 229 255
210 229 255
210 229 255
210 229 255
210 229 255
210 229 255
210 229 255
210 229 255
210 229 255
210 229 255
210 229 255
210 229 255
210 229 255
210 229 255
210 229 255
210 229 255
210 229 255
210 229 255
210 229 255
210 229 255
210 229 255
210 229 255
210 229 255
210 229 255
210 229 255
210 229 255
210 229 255
210 229 255
210 229 255
210 229 255
209 229 255
209 229 255
209 229 255
209 229 255
209 229 255
209 229 255
209 229 255
209 229 255
209 229 255
209 229 255
209 229 255
209 229 255
209 229 255
209 229 255
209 229 255
209 229 255
209 229 255
209 229 255
209 229 255
209 229 255
209 229 255
209 228 255
208 228 255
208 228 255
208 228 255
208 228 255
208 228 255
208 228 255
208 228 255
208 228 255
208 228 255
208 228 255
208 228 255
208 228 255
208 228 255
208 228 255
208 228 255
208 228 255
208 228 255
208 228 255
208 228 255
207 228 255
207 228 255
207 228 255
207 228 255
207 228 255
207 228 255
207 228 255
207 228 255
207 228 255
207 228 255
207 228 255
207 228 255
207 228 255
207 228 255
207 227 255
207 227 255
207 227 255
207 227 255
206 227 255
206 227 255
206 227 255
206 227 255
206 227 255
206 227 255
206 227 255
206 227 255
206 227 255
206 227 255
206 227 255
206 227 255
206 227 255
206 227 255
206 227 255
206 227 255
206 227 255
206 227 255
205 227 255
205 227 255
205 227 255
205 227 255
205 227 255
205 227 255
205 227 255
205 227 255
205 227 255
205 227 255
205 226 255
205 226 255
205 226 255
205 226 255
205 226 255
205 226 255
204 226 255
204 226 255
204 226 255
204 226 255
204 226 255
204 226 255
204 226 255
204 226 255
204 226 255
204 226 255
204 226 255
204 226 255
204 226 255
204 226 255
204 226 255
204 226 255
204 226 255
203 226 255
203 226 255
203 226 255
203 226 255
203 226 255
203 226 255
203 226 255
203 225 255
203 225 255
203 225 255
203 225 255
203 225 255
203 225 255
203 225 255
203 225 255
203 225 255
203 225 255
203 225 255
202 225 255
202 225 255
202 225 255
202 225 255
202 225 255
202 225 255
202 225 255
202 225 255
202 225 255
202 225 255
202 225 255
202 225 255
202 225 255
202 225 255
202 225 255
202 225 255
202 225 255
202 225 255
202 225 255
202 225 255
202 225 255
202 225 255
202 225 255
201 225 255
201 225 255
201 225 255
201 225 255
201 225 255
201 225 255
201 225 255
201 225 255
201 225 255
201 225 255
201 224 255
201 224 255
201 224 255
201 224 255
201 224 255
201 224 255
201 224 255
201 224 255
201 224 255
201 224 255
201 224 255
201 224 255
201 224 255
201 224 255
201 224 255
201 224 255
201 224 255
201 224 255
201 224 255
201 224 255
201 224 255
201 224 255
201 224 255
201 224 255
201 224 255
201 224 255
201 224 255
201 224 255
201 224 255
201 224 255
201 224 255
201 224 255
201 224 255
201 224 255
201 224 255
201 224 255
201 224 255
201 224 255
201 224 255
201 224 255
201 225 255
201 225 255
201 225 255
201 225 255
201 225 255
201 225 255
201 225 255
201 225 255
201 225 255
201 225 255
202 225 255
202 225 255
202 225 255
202 225 255
202 225 255
202 225 255
202 225 255
202 225 255
202 225 255
202 225 255
202 225 255
202 225 255
202 225 255
202 225 255
202 225 255
202 225 255
202 225 255
202 225 255
202 225 255
202 225 255
202 225 255
202 225 255
202 225 255
203 225 255
203 225 255
203 225 255
203 225 255
203 225 255
203 225 255
203 225 255
203 225 255
203 225 255
203 225 255
203 225 255
203 226 255
203 226 255
203 226 255
203 226 255
203 226 255
203 226 255
203 226 255
204 226 255
204 226 255
204 226 255
204 226 255
204 226 255
204 226 255
204 226 255
204 226 255
204 226 255
204 226 255
204 226 255
204 226 255
204 226 255
204 226 255
204 226 255
204 226 255
204 226 255
205 226 255
205 226 255
205 226 255
205 226 255
205 226 255
205 226 255
205 226 255
205 227 255
205 227 255
205 227 255
205 227 255
205 227 255
205 227 255
205 227 255
205 227 255
205 227 255
205 227 255
206 227 255
206 227 255
206 227 255
206 227 255
206 227 255
206 227 255
206 227 255
206 227 255
206 227 255
206 227 255
206 227 255
206 227 255
206 227 255
206 227 255
206 227 255
206 227 255
207 227 255
207 227 255
207 227 255
207 227 255
207 227 255
207 228 255
207 228 255
207 228 255
207 228 255
207 228 255
207 228 255
207 228 255
207 228 255
207 228 255
207 228 255
207 228 255
207 228 255
207 228 255
207 228 255
208 228 255
208 228 255
208 228 255
208 228 255
208 228 255
208 228 255
208 228 255
208 228 255
208 228 255
208 228 255
208 228 255
208 228 255
208 228 255
208 228 255
208 228 255
208 228 255
208 228 255
208 228 255
208 228 255
209 228 255
209 229 255
209 229 255
209 229 255
209 229 255
209 229 255
209 229 255
209 229 255
209 229 255
209 229 255
209 229 255
209 229 255
209 229 255
209 229 255
209 229 255
209 229 255
209 229 255
209 229 255
209 229 255
209 229 255
209 229 255
209 229 255
210 229 255
210 229 255
210 229 255
210 229 255
210 229 255
210 229 255
210 229 255
210 229 255
210 229 255
210 229 255
210 229 255
210 229 255
210 229 255
210 229 255
210 229 255
210 229 255
210 229 255
210 229 255
210 229 255
210 230 255
210 229 255
210 229 255
210 229 255
210 229 255
210 229 255
210 229 255
210 229 255
210 229 255
210 229 255
210 229 255
210 229 255
210 229 255
210 229 255
210 229 255
210 229 255
210 229 255
210 229 255
210 229 255
210 229 255
210 229 255
210 229 255
210 229 255
209 229 255
209 229 255
209 229 255
209 229 255
209 229 255
209 229 255
209 229 255
209 229 255
209 229 255
209 229 255
209 229 255
209 229 255
209 229 255
209 229 255
209 229 255
209 229 255
209 229 255
209 229 255
209 229 255
209 229 255
209 228 255
209 228 255
208 228 255
208 228 255
208 228 255
208 228 255
208 228 255
208 228 255
208 228 255
208 228 255
208 228 255
208 228 255
208 228 255
208 228 255
208 228 255
208 228 255
208 228 255
208 228 255
208 228 255
208 228 255
208 228 255
207 228 255
207 228 255
207 228 255
207 228 255
207 228 255
207 228 255
207 228 255
207 228 255
207 228 255
207 228 255
207 228 255
207 228 255
207 228 255
207 228 255
207 227 255
207 227 255
207 227 255
207 227 255
206 227 255
206 227 255
206 227 255
206 227 255
206 227 255
206 227 255
206 227 255
206 227 255
206 227 255
206 227 255
206 227 255
206 227 255
206 227 255
206 227 255
206 227 255
206 227 255
206 227 255
205 227 255
205 227 255
205 227 255
205 227 255
205 227 255
205 227 255
205 227 255
205 227 255
205 227 255
205 227 255
205 226 255
205 226 255
205 226 255
205 226 255
205 226 255
205 226 255
205 226 255
204 226 255
204 226 255
204 226 255
204 226 255
204 226 255
204 226 255
204 226 255
204 226 255
204 226 255
204 226 255
204 226 255
204 226 255
204 226 255
204 226 255
204 226 255
204 226 255
203 226 255
203 226 255
203 226 255
203 226 255
203 226 255
203 226 255
203 226 255
203 226 255
203 225 255
203 225 255
203 225 255
203 225 255
203 225 255
203 225 255
203 225 255
203 225 255
203 225 255
203 225 255
203 225 255
202 225 255
202 225 255
202 225 255
202 225 255
202 225 255
202 225 255
202 225 255
202 225 255
202 225 255
202 225 255
202 225 255
202 225 255
202 225 255
202 225 255
202 225 255
202 225 255
202 225 255
202 225 255
202 225 255
202 225 255
202 225 255
202 225 255
202 225 255
202 225 255
202 225 255
202 225 255
201 225 255
201 225 255
201 225 255
201 225 255
201 225 255
201 225 255
201 225 255
201 225 255
201 225 255
201 225 255
201 225 255
201 225 255
201 225 255
201 225 255
201 225 255
201 225 255
201 225 255
201 224 255
201 224 255
201 224 255
201 224 255
201 224 255
201 224 255
201 224 255
201 224 255
201 224 255
201 224 255
201 224 255
201 225 255
201 225 255
201 225 255
201 225 255
201 225 255
201 225 255
201 225 255
201 225 255
201 225 255
201 225 255
201 225 255
201 225 255
201 225 255
201 225 255
201 225 255
201 225 255
201 225 255
201 225 255
202 225 255
202 225 255
202 225 255
202 225 255
202 225 255
202 225 255
202 225 255
202 225 255
202 225 255
202 225 255
202 225 255
202 225 255
202 225 255
202 225 255
202 225 255
202 225 255
202 225 255
202 225 255
202 225 255
202 225 255
202 225 255
202 225 255
202 225 255
202 225 255
202 225 255
202 225 255
203 225 255
203 225 255
203 225 255
203 225 255
203 225 255
203 225 255
203 225 255
203 225 255
203 225 255
203 225 255
203 225 255
203 226 255
203 226 255
203 226 255
203 226 255
203 226 255
203 226 255
203 226 255
203 226 255
204 226 255
204 226 255
204 226 255
204 226 255
204 226 255
204 226 255
204 226 255
204 226 255
204 226 255
204 226 255
204 226 255
204 226 255
204 226 255
204 226 255
204 226 255
204 226 255
204 226 255
205 226 255
205 226 255
205 226 255
205 226 255
205 226 255
205 226 255
205 227 255
205 227 255
205 227 255
205 227 255
205 227 255
205 227 255
205 227 255
205 227 255
205 227 255
205 227 255
206 227 255
206 227 255
206 227 255
206 227 255
206 227 255
206 227 255
206 227 255
206 227 255
206 227 255
206 227 255
206 227 255
206 227 255
206 227 255
206 227 255
206 227 255
206 227 255
206 227 255
207 227 255
207 227 255
207 227 255
207 227 255
207 228 255
207 228 255
207 228 255
207 228 255
207 228 255
207 228 255
207 228 255
207 228 255
207 228 255
207 228 255
207 228 255
207 228 255
207 228 255
207 228 255
208 228 255
208 228 255
208 228 255
208 228 255
208 228 255
208 228 255
208 228 255
208 228 255
208 228 255
208 228 255
208 228 255
208 228 255
208 228 255
208 228 255
208 228 255
208 228 255
208 228 255
208 228 255
208 228 255
209 228 255
209 228 255
209 229 255
209 229 255
209 229 255
209 229 255
209 229 255
209 229 255
209 229 255
209 229 255
209 229 255
209 229 255
209 229 255
209 229 255
209 229 255
209 229 255
209 229 255
209 229 255
209 229 255
209 229 255
209 229 255
209 229 255
210 229 255
210 229 255
210 229 255
210 229 255
210 229 255
210 229 255
210 229 255
210 229 255
210 229 255
210 229 255
210 229 255
210 229 255
210 229 255
210 229 255
210 229 255
210 229 255
210 229 255
210 229 255
210 229 255
210 229 255
210 229 255
210 229 255
210 230 255
211 230 255
211 230 255
211 230 255
210 230 255
210 230 255
210 229 255
210 229 255
210 229 255
210 229 255
210 229 255
210 229 255
210 229 255
210 229 255
210 229 255
210 229 255
210 229 255
210 229 255
210 229 255
210 229 255
210 229 255
210 229 255
210 229 255
210 229 255
210 229 255
210 229 255
210 229 255
210 229 255
209 229 255
209 229 255
209 229 255
209 229 255
209 229 255
209 229 255
209 229 255
209 229 255
209 229 255
209 229 255
209 229 255
209 229 255
209 229 255
209 229 255
209 229 255
209 229 255
209 229 255
209 229 255
209 229 255
209 228 255
209 228 255
208 228 255
208 228 255
208 228 255
208 228 255
208 228 255
208 228 255
208 228 255
208 228 255
208 228 255
208 228 255
208 228 255
208 228 255
208 228 255
208 228 255
208 228 255
208 228 255
208 228 255
208 228 255
208 228 255
207 228 255
207 228 255
207 228 255
207 228 255
207 228 255
207 228 255
207 228 255
207 228 255
207 228 255
207 228 255
207 228 255
207 228 255
207 228 255
207 228 255
207 227 255
207 227 255
207 227 255
207 227 255
206 227 255
206 227 255
206 227 255
206 227 255
206 227 255
206 227 255
206 227 255
206 227 255
206 227 255
206 227 255
206 227 255
206 227 255
206 227 255
206 227 255
206 227 255
206 227 255
206 227 255
205 227 255
205 227 255
205 227 255
205 227 255
205 227 255
205 227 255
205 227 255
205 227 255
205 227 255
205 227 255
205 226 255
205 226 255
205 226 255
205 226 255
205 226 255
205 226 255
205 226 255
204 226 255
204 226 255
204 226 255
204 226 255
204 226 255
204 226 255
204 226 255
204 226 255
204 226 255
204 226 255
204 226 255
204 226 255
204 226 255
204 226 255
204 226 255
204 226 255
204 226 255
203 226 255
203 226 255
203 226 255
203 226 255
203 226 255
203 226 255
203 226 255
203 226 255
203 225 255
203 225 255
203 225 255
203 225 255
203 225 255
203 225 255
203 225 255
203 225 255
203 225 255
203 225 255
203 225 255
203 225 255
202 225 255
202 225 255
202 225 255
202 225 255
202 225 255
202 225 255
202 225 255
202 225 255
202 225 255
202 225 255
202 225 255
202 225 255
202 225 255
202 225 255
202 225 255
202 225 255
202 225 255
202 225 255
202 225 255
202 225 255
202 225 255
202 225 255
202 225 255
202 225 255
202 225 255
202 225 255
202 225 255
202 225 255
202 225 255
202 225 255
202 225 255
202 225 255
201 225 255
201 225 255
201 225 255
201 225 255
201 225 255
201 225 255
201 225 255
201 225 255
201 225 255
201 225 255
201 225 255
201 225 255
201 225 255
201 225 255
201 225 255
201 225 255
201 225 255
201 225 255
201 225 255
201 225 255
201 225 255
201 225 255
201 225 255
201 225 255
201 225 255
202 225 255
202 225 255
202 225 255
202 225 255
202 225 255
202 225 255
202 225 255
202 225 255
202 225 255
202 225 255
202 225 255
202 225 255
202 225 255
202 225 255
202 225 255
202 225 255
202 225 255
202 225 255
202 225 255
202 225 255
202 225 255
202 225 255
202 225 255
202 225 255
202 225 255
202 225 255
202 225 255
202 225 255
202 225 255
202 225 255
202 225 255
203 225 255
203 225 255
203 225 255
203 225 255
203 225 255
203 225 255
203 225 255
203 225 255
203 225 255
203 225 255
203 225 255
203 226 255
203 226 255
203 226 255
203 226 255
203 226 255
203 226 255
203 226 255
203 226 255
203 226 255
204 226 255
204 226 255
204 226 255
204 226 255
204 226 255
204 226 255
204 226 255
204 226 255
204 226 255
204 226 255
204 226 255
204 226 255
204 226 255
204 226 255
204 226 255
204 226 255
204 226 255
205 226 255
205 226 255
205 226 255
205 226 255
205 226 255
205 226 255
205 226 255
205 227 255
205 227 255
205 227 255
205 227 255
205 227 255
205 227 255
205 227 255
205 227 255
205 227 255
205 227 255
206 227 255
206 227 255
206 227 255
206 227 255
206 227 255
206 227 255
206 227 255
206 227 255
206 227 255
206 227 255
206 227 255
206 227 255
206 227 255
206 227 255
206 227 255
206 227 255
206 227 255
207 227 255
207 227 255
207 227 255
207 227 255
207 228 255
207 228 255
207 228 255
207 228 255
207 228 255
207 228 255
207 228 255
207 228 255
207 228 255
207 228 255
207 228 255
207 228 255
207 228 255
207 228 255
208 228 255
208 228 255
208 228 255
208 228 255
208 228 255
208 228 255
208 228 255
208 228 255
208 228 255
208 228 255
208 228 255
208 228 255
208 228 255
208 228 255
208 228 255
208 228 255
208 228 255
208 228 255
208 228 255
209 228 255
209 229 255
209 229 255
209 229 255
209 229 255
209 229 255
209 229 255
209 229 255
209 229 255
209 229 255
209 229 255
209 229 255
209 229 255
209 229 255
209 229 255
209 229 255
209 229 255
209 229 255
209 229 255
209 229 255
209 229 255
210 229 255
210 229 255
210 229 255
210 229 255
210 229 255
210 229 255
210 229 255
210 229 255
210 229 255
210 229 255
210 229 255
210 229 255
210 229 255
210 229 255
210 229 255
210 229 255
210 229 255
210 229 255
210 229 255
210 229 255
210 229 255
210 229 255
210 230 255
210 230 255
210 230 255
211 230 255
211 230 255
211 230 255
211 230 255
211 230 255
211 230 255
211 230 255
211 230 255
210 230 255
210 230 255
210 230 255
210 229 255
210 229 255
210 229 255
210 229 255
210 229 255
210 229 255
210 229 255
210 229 255
210 229 255
210 229 255
210 229 255
210 229 255
210 229 255
210 229 255
210 229 255
210 229 255
210 229 255
210 229 255
210 229 255
210 229 255
210 229 255
209 229 255
209 229 255
209 229 255
209 229 255
209 229 255
209 229 255
209 229 255
209 229 255
209 229 255
209 229 255
209 229 255
209 229 255
209 229 255
209 229 255
209 229 255
209 229 255
209 229 255
209 229 255
209 229 255
209 229 255
209 228 255
209 228 255
208 228 255
208 228 255
208 228 255
208 228 255
208 228 255
208 228 255
208 228 255
208 228 255
208 228 255
208 228 255
208 228 255
208 228 255
208 228 255
208 228 255
208 228 255
208 228 255
208 228 255
208 228 255
208 228 255
207 228 255
207 228 255
207 228 255
207 228 255
207 228 255
207 228 255
207 228 255
207 228 255
207 228 255
207 228 255
207 228 255
207 228 255
207 228 255
207 228 255
207 227 255
207 227 255
207 227 255
207 227 255
206 227 255
206 227 255
206 227 255
206 227 255
206 227 255
206 227 255
206 227 255
206 227 255
206 227 255
206 227 255
206 227 255
206 227 255
206 227 255
206 227 255
206 227 255
206 227 255
206 227 255
205 227 255
205 227 255
205 227 255
205 227 255
205 227 255
205 227 255
205 227 255
205 227 255
205 227 255
205 226 255
205 226 255
205 226 255
205 226 255
205 226 255
205 226 255
205 226 255
204 226 255
204 226 255
204 226 255
204 226 255
204 226 255
204 226 255
204 226 255
204 226 255
204 226 255
204 226 255
204 226 255
204 226 255
204 226 255
204 226 255
204 226 255
204 226 255
204 226 255
204 226 255
203 226 255
203 226 255
203 226 255
203 226 255
203 226 255
203 226 255
203 226 255
203 226 255
203 226 255
203 225 255
203 225 255
203 225 255
203 225 255
203 225 255
203 225 255
203 225 255
203 225 255
203 225 255
203 225 255
203 225 255
203 225 255
202 225 255
202 225 255
202 225 255
202 225 255
202 225 255
202 225 255
202 225 255
202 225 255
202 225 255
202 225 255
202 225 255
202 225 255
202 225 255
202 225 255
202 225 255
202 225 255
202 225 255
202 225 255
202 225 255
202 225 255
202 225 255
202 225 255
202 225 255
202 225 255
202 225 255
202 225 255
202 225 255
202 225 255
202 225 255
202 225 255
202 225 255
202 225 255
202 225 255
202 225 255
202 225 255
202 225 255
202 225 255
202 225 255
202 225 255
202 225 255
202 225 255
202 225 255
202 225 255
202 225 255
202 225 255
202 225 255
202 225 255
202 225 255
202 225 255
202 225 255
202 225 255
202 225 255
202 225 255
202 225 255
202 225 255
202 225 255
202 225 255
202 225 255
202 225 255
202 225 255
202 225 255
202 225 255
202 225 255
202 225 255
202 225 255
202 225 255
202 225 255
202 225 255
202 225 255
202 225 255
202 225 255
202 225 255
202 225 255
202 225 255
202 225 255
202 225 255
202 225 255
202 225 255
203 225 255
203 225 255
203 225 255
203 225 255
203 225 255
203 225 255
203 225 255
203 225 255
203 225 255
203 225 255
203 225 255
203 225 255
203 226 255
203 226 255
203 226 255
203 226 255
203 226 255
203 226 255
203 226 255
203 226 255
203 226 255
204 226 255
204 226 255
204 226 255
204 226 255
204 226 255
204 226 255
204 226 255
204 226 255
204 226 255
204 226 255
204 226 255
204 226 255
204 226 255
204 226 255
204 226 255
204 226 255
204 226 255
205 226 255
205 226 255
205 226 255
205 226 255
205 226 255
205 226 255
205 226 255
205 227 255
205 227 255
205 227 255
205 227 255
205 227 255
205 227 255
205 227 255
205 227 255
205 227 255
205 227 255
206 227 255
206 227 255
206 227 255
206 227 255
206 227 255
206 227 255
206 227 255
206 227 255
206 227 255
206 227 255
206 227 255
206 227 255
206 227 255
206 227 255
206 227 255
206 227 255
206 227 255
207 227 255
207 227 255
207 227 255
207 227 255
207 227 255
207 228 255
207 228 255
207 228 255
207 228 255
207 228 255
207 228 255
207 228 255
207 228 255
207 228 255
207 228 255
207 228 255
207 228 255
207 228 255
208 228 255
208 228 255
208 228 255
208 228 255
208 228 255
208 228 255
208 228 255
208 228 255
208 228 255
208 228 255
208 228 255
208 228 255
208 228 255
208 228 255
208 228 255
208 228 255
208 228 255
208 228 255
208 228 255
209 228 255
209 228 255
209 229 255
209 229 255
209 229 255
209 229 255
209 229 255
209 229 255
209 229 255
209 229 255
209 229 255
209 229 255
209 229 255
209 229 255
209 229 255
209 229 255
209 229 255
209 229 255
209 229 255
209 229 255
209 229 255
209 229 255
210 229 255
210 229 255
210 229 255
210 229 255
210 229 255
210 229 255
210 229 255
210 229 255
210 229 255
210 229 255
210 229 255
210 229 255
210 229 255
210 229 255
210 229 255
210 229 255
210 229 255
210 229 255
210 229 255
210 229 255
210 229 255
210 230 255
210 230 255
210 230 255
211 230 255
211 230 255
211 230 255
211 230 255
211 230 255
211 230 255
211 230 255
211 230 255
211 230 255
211 230 255
211 230 255
211 230 255
211 230 255
211 230 255
211 230 255
211 230 255
210 230 255
210 230 255
210 230 255
210 229 255
210 229 255
210 229 255
210 229 255
210 229 255
210 229 255
210 229 255
210 229 255
210 229 255
210 229 255
210 229 255
210 229 255
210 229 255
210 229 255
210 229 255
210 229 255
210 229 255
210 229 255
210 229 255
210 229 255
210 229 255
209 229 255
209 229 255
209 229 255
209 229 255
208 228 254
202 221 247
201 221 246
197 216 241
189 207 232
191 209 235
189 208 233
199 219 245
191 210 236
185 203 228
184 203 229
190 209 235
177 195 219
185 203 228
185 204 229
187 206 232
189 208 233
185 204 229
194 214 240
191 209 235
197 216 242
200 219 246
202 222 248
205 225 252
208 228 255
208 228 255
208 228 255
208 228 255
208 228 255
208 228 255
208 228 255
208 228 255
208 228 255
208 228 255
208 228 255
208 228 255
207 228 255
207 228 255
207 228 255
207 228 255
207 228 255
207 228 255
207 228 255
207 228 255
207 228 255
207 228 255
207 228 255
207 228 255
207 228 255
207 228 255
207 227 255
207 227 255
207 227 255
207 227 255
206 227 255
206 227 255
206 227 255
206 227 255
206 227 255
206 227 255
206 227 255
206 227 255
206 227 255
206 227 255
206 227 255
206 227 255
206 227 255
206 227 255
206 227 255
206 227 255
206 227 255
205 227 255
205 227 255
205 227 255
205 227 255
205 227 255
205 227 255
205 227 255
205 227 255
205 227 255
205 227 255
205 226 255
205 226 255
205 226 255
205 226 255
205 226 255
205 226 255
205 226 255
204 226 255
204 226 255
204 226 255
204 226 255
204 226 255
204 226 255
204 226 255
204 226 255
204 226 255
204 226 255
204 226 255
204 226 255
204 226 255
204 226 255
204 226 255
204 226 255
204 226 255
204 226 255
203 226 255
203 226 255
203 226 255
203 226 255
203 226 255
203 226 255
203 226 255
203 226 255
203 226 255
203 225 255
203 225 255
203 225 255
203 225 255
203 225 255
203 225 255
203 225 255
203 225 255
203 225 255
203 225 255
203 225 255
203 225 255
203 225 255
203 225 255
202 225 255
202 225 255
202 225 255
202 225 255
202 225 255
202 225 255
202 225 255
202 225 255
202 225 255
202 225 255
202 225 255
202 225 255
202 225 255
202 225 255
202 225 255
202 225 255
202 225 255
202 225 255
202 225 255
202 225 255
202 225 255
202 225 255
202 225 255
202 225 255
202 225 255
202 225 255
202 225 255
202 225 255
202 225 255
202 225 255
202 225 255
202 225 255
202 225 255
202 225 255
202 225 255
202 225 255
202 225 255
202 225 255
202 225 255
202 225 255
202 225 255
202 225 255
202 225 255
202 225 255
202 225 255
202 225 255
202 225 255
202 225 255
202 225 255
202 225 255
202 225 255
202 225 255
202 225 255
202 225 255
202 225 255
202 225 255
202 225 255
202 225 255
202 225 255
202 225 255
202 225 255
202 225 255
202 225 255
202 225 255
202 225 255
202 225 255
203 225 255
203 225 255
203 225 255
203 225 255
203 225 255
203 225 255
203 225 255
203 225 255
203 225 255
203 225 255
203 225 255
203 225 255
203 225 255
203 225 255
203 226 255
203 226 255
203 226 255
203 226 255
203 226 255
203 226 255
203 226 255
203 226 255
203 226 255
204 226 255
204 226 255
204 226 255
204 226 255
204 226 255
204 226 255
204 226 255
204 226 255
204 226 255
204 226 255
204 226 255
204 226 255
204 226 255
204 226 255
204 226 255
204 226 255
204 226 255
204 226 255
205 226 255
205 226 255
205 226 255
205 226 255
205 226 255
205 226 255
205 226 255
205 227 255
205 227 255
205 227 255
205 227 255
205 227 255
205 227 255
205 227 255
205 227 255
205 227 255
205 227 255
206 227 255
206 227 255
206 227 255
206 227 255
206 227 255
206 227 255
206 227 255
206 227 255
206 227 255
206 227 255
206 227 255
206 227 255
206 227 255
206 227 255
206 227 255
206 227 255
206 227 255
207 227 255
207 227 255
207 227 255
207 227 255
207 228 255
207 228 255
207 228 255
207 228 255
207 228 255
207 228 255
207 228 255
207 228 255
207 228 255
207 228 255
207 228 255
207 228 255
207 228 255
207 228 255
208 228 255
208 228 255
208 228 255
208 228 255
208 228 255
208 228 255
208 228 255
208 228 255
208 228 255
208 228 255
208 228 255
208 228 255
204 223 248
201 219 243
204 223 247
188 205 223
189 206 225
186 200 212
183 197 209
186 199 210
181 193 202
176 188 197
181 194 206
173 184 191
184 196 202
181 192 193
173 184 191
180 192 199
193 208 221
192 205 216
181 195 206
194 210 230
194 210 227
205 223 246
204 223 246
208 228 254
209 229 255
209 229 255
209 229 255
209 229 255
210 229 255
210 229 255
210 229 255
210 229 255
210 229 255
210 229 255
210 229 255
210 229 255
210 229 255
210 229 255
210 229 255
210 229 255
210 229 255
210 229 255
210 229 255
210 229 255
210 229 255
210 229 255
210 229 255
210 229 255
210 229 255
210 230 255
210 230 255
210 230 255
211 230 255
211 230 255
211 230 255
211 230 255
211 230 255
211 230 255
211 230 255
211 230 255
211 230 255
211 230 255
211 230 255
211 230 255
211 230 255
211 230 255
211 230 255
211 230 255
211 230 255
211 230 255
211 230 255
211 230 255
211 230 255
211 230 255
211 230 255
211 230 255
210 230 255
210 230 255
210 230 255
210 229 255
210 229 255
210 229 255
210 229 255
210 229 255
210 229 255
210 229 255
210 229 255
210 229 255
210 229 255
210 229 255
210 229 255
207 226 252
197 216 241
196 215 240
176 194 217
179 197 221
166 183 206
160 177 200
161 178 202
153 170 193
148 166 190
143 160 183
145 162 184
157 176 200
149 167 191
152 171 195
153 173 198
155 174 199
138 155 178
150 168 192
144 163 187
148 167 192
145 164 188
149 167 191
155 175 200
154 173 199
148 167 192
155 174 200
149 169 194
152 171 196
150 169 194
154 173 198
143 161 184
152 171 195
149 167 191
164 183 208
156 174 198
178 197 224
171 189 214
182 200 225
193 212 238
197 217 243
205 225 252
208 228 255
208 228 255
208 228 255
208 228 255
208 228 255
208 228 255
208 228 255
207 228 255
207 228 255
207 228 255
207 228 255
207 228 255
207 228 255
207 228 255
207 228 255
207 228 255
207 228 255
207 228 255
207 228 255
207 228 255
207 227 255
207 227 255
207 227 255
207 227 255
207 227 255
206 227 255
206 227 255
206 227 255
206 227 255
206 227 255
206 227 255
206 227 255
206 227 255
206 227 255
206 227 255
206 227 255
206 227 255
206 227 255
206 227 255
206 227 255
206 227 255
206 227 255
205 227 255
205 227 255
205 227 255
205 227 255
205 227 255
205 227 255
205 227 255
205 227 255
205 227 255
205 227 255
205 226 255
205 226 255
205 226 255
205 226 255
205 226 255
205 226 255
205 226 255
204 226 255
204 226 255
204 226 255
204 226 255
204 226 255
204 226 255
204 226 255
204 226 255
204 226 255
204 226 255
204 226 255
204 226 255
204 226 255
204 226 255
204 226 255
204 226 255
204 226 255
204 226 255
204 226 255
203 226 255
203 226 255
203 226 255
203 226 255
203 226 255
203 226 255
203 226 255
203 226 255
203 226 255
203 226 255
203 225 255
203 225 255
203 225 255
203 225 255
203 225 255
203 225 255
203 225 255
203 225 255
203 225 255
203 225 255
203 225 255
203 225 255
203 225 255
203 225 255
203 225 255
202 225 255
202 225 255
202 225 255
202 225 255
202 225 255
202 225 255
202 225 255
202 225 255
202 225 255
202 225 255
202 225 255
202 225 255
202 225 255
202 225 255
202 225 255
202 225 255
202 225 255
202 225 255
202 225 255
202 225 255
202 225 255
202 225 255
202 225 255
202 225 255
202 225 255
202 225 255
202 225 255
202 225 255
202 225 255
202 225 255
202 225 255
202 225 255
202 225 255
202 225 255
202 225 255
202 225 255
202 225 255
202 225 255
202 225 255
202 225 255
202 225 255
202 225 255
202 225 255
202 225 255
202 225 255
202 225 255
202 225 255
202 225 255
202 225 255
202 225 255
202 225 255
202 225 255
203 225 255
203 225 255
203 225 255
203 225 255
203 225 255
203 225 255
203 225 255
203 225 255
203 225 255
203 225 255
203 225 255
203 225 255
203 225 255
203 225 255
203 225 255
203 225 255
203 226 255
203 226 255
203 226 255
203 226 255
203 226 255
203 226 255
203 226 255
203 226 255
203 226 255
204 226 255
204 226 255
204 226 255
204 226 255
204 226 255
204 226 255
204 226 255
204 226 255
204 226 255
204 226 255
204 226 255
204 226 255
204 226 255
204 226 255
204 226 255
204 226 255
204 226 255
204 226 255
204 226 255
205 226 255
205 226 255
205 226 255
205 226 255
205 226 255
205 226 255
205 226 255
205 227 255
205 227 255
205 227 255
205 227 255
205 227 255
205 227 255
205 227 255
205 227 255
205 227 255
205 227 255
206 227 255
206 227 255
206 227 255
206 227 255
206 227 255
206 227 255
206 227 255
206 227 255
206 227 255
206 227 255
206 227 255
206 227 255
206 227 255
206 227 255
206 227 255
206 227 255
206 227 255
206 227 255
207 227 255
207 227 255
207 227 255
207 227 255
207 228 255
207 228 255
207 228 255
207 228 255
207 228 255
207 228 255
207 228 255
207 228 255
207 228 255
207 228 255
207 228 255
207 228 255
207 228 255
208 228 255
208 228 255
208 228 255
208 228 255
208 228 255
208 228 255
208 228 255
208 228 254
195 212 232
189 204 219
179 193 205
171 183 189
164 174 175
155 159 143
143 146 129
140 140 106
128 126 84
124 121 80
129 126 84
129 126 84
125 123 81
130 129 87
123 120 80
135 132 87
137 135 90
134 132 88
130 128 85
137 133 87
131 130 87
142 139 92
124 121 80
123 120 80
121 118 78
119 118 79
114 113 75
134 131 87
122 120 80
141 137 90
132 129 86
127 124 82
126 126 97
153 154 130
160 166 155
164 171 165
174 184 188
182 195 203
190 204 218
190 206 226
207 225 250
210 229 255
210 229 255
210 229 255
210 229 255
210 229 255
210 229 255
210 229 255
210 229 255
210 229 255
210 229 255
210 229 255
210 229 255
210 230 255
210 230 255
210 230 255
211 230 255
211 230 255
211 230 255
211 230 255
211 230 255
211 230 255
211 230 255
211 230 255
211 230 255
211 230 255
211 230 255
211 230 255
211 230 255
211 230 255
211 230 255
211 230 255
211 230 255
211 230 255
211 230 255
211 230 255
211 230 255
211 230 255
211 230 255
211 230 255
211 230 255
211 230 255
211 230 255
211 230 255
211 230 255
211 230 255
211 230 255
211 230 255
210 230 255
210 230 255
210 230 255
210 229 255
210 229 255
201 220 245
194 213 237
179 196 219
168 185 207
161 177 199
153 170 192
143 159 181
151 168 191
154 171 195
157 175 199
161 181 207
155 174 199
158 178 203
152 171 196
157 177 203
157 176 202
162 183 211
158 178 204
162 183 209
162 183 211
162 183 211
165 186 214
162 183 211
157 178 206
160 181 208
155 177 204
155 177 204
166 187 216
159 181 208
158 179 207
163 184 213
159 181 209
160 182 211
164 186 216
161 183 211
161 183 212
156 177 204
157 179 207
160 182 211
154 175 202
163 185 213
158 179 207
156 176 203
156 175 202
152 172 199
150 169 195
149 168 194
144 162 186
156 174 199
156 174 197
173 191 216
188 207 232
196 216 242
202 222 249
208 228 255
208 228 255
208 228 255
208 228 255
207 228 255
207 228 255
207 228 255
207 228 255
207 228 255
207 228 255
207 228 255
207 228 255
207 228 255
207 228 255
207 228 255
207 228 255
207 228 255
207 228 255
207 227 255
207 227 255
207 227 255
207 227 255
206 227 255
206 227 255
206 227 255
206 227 255
206 227 255
206 227 255
206 227 255
206 227 255
206 227 255
206 227 255
206 227 255
206 227 255
206 227 255
206 227 255
206 227 255
206 227 255
206 227 255
205 227 255
205 227 255
205 227 255
205 227 255
205 227 255
205 227 255
205 227 255
205 227 255
205 227 255
205 227 255
205 227 255
205 226 255
205 226 255
205 226 255
205 226 255
205 226 255
205 226 255
205 226 255
204 226 255
204 226 255
204 226 255
204 226 255
204 226 255
204 226 255
204 226 255
204 226 255
204 226 255
204 226 255
204 226 255
204 226 255
204 226 255
204 226 255
204 226 255
204 226 255
204 226 255
204 226 255
204 226 255
204 226 255
203 226 255
203 226 255
203 226 255
203 226 255
203 226 255
203 226 255
203 226 255
203 226 255
203 226 255
203 226 255
203 225 255
203 225 255
203 225 255
203 225 255
203 225 255
203 225 255
203 225 255
203 225 255
203 225 255
203 225 255
203 225 255
203 225 255
203 225 255
203 225 255
203 225 255
203 225 255
203 225 255
203 225 255
203 225 255
203 225 255
202 225 255
202 225 255
202 225 255
202 225 255
202 225 255
202 225 255
202 225 255
202 225 255
202 225 255
202 225 255
202 225 255
202 225 255
202 225 255
202 225 255
202 225 255
202 225 255
202 225 255
202 225 255
202 225 255
202 225 255
202 225 255
202 225 255
202 225 255
202 225 255
202 225 255
202 225 255
202 225 255
202 225 255
202 225 255
202 225 255
202 225 255
202 225 255
203 225 255
203 225 255
203 225 255
203 225 255
203 225 255
203 225 255
203 225 255
203 225 255
203 225 255
203 225 255
203 225 255
203 225 255
203 225 255
203 225 255
203 225 255
203 225 255
203 225 255
203 225 255
203 225 255
203 225 255
203 226 255
203 226 255
203 226 255
203 226 255
203 226 255
203 226 255
203 226 255
203 226 255
203 226 255
203 226 255
204 226 255
204 226 255
204 226 255
204 226 255
204 226 255
204 226 255
204 226 255
204 226 255
204 226 255
204 226 255
204 226 255
204 226 255
204 226 255
204 226 255
204 226 255
204 226 255
204 226 255
204 226 255
204 226 255
204 226 255
205 226 255
205 226 255
205 226 255
205 226 255
205 226 255
205 226 255
205 226 255
205 227 255
205 227 255
205 227 255
205 227 255
205 227 255
205 227 255
205 227 255
205 227 255
205 227 255
205 227 255
205 227 255
206 227 255
206 227 255
206 227 255
206 227 255
206 227 255
206 227 255
206 227 255
206 227 255
206 227 255
206 227 255
206 227 255
206 227 255
206 227 255
206 227 255
206 227 255
206 227 255
206 227 255
207 227 255
207 227 255
207 227 255
207 227 255
207 228 255
207 228 255
207 228 255
207 228 255
207 228 255
207 228 255
207 228 255
207 228 255
207 228 255
207 228 255
207 228 255
207 228 255
207 228 255
207 228 255
208 228 255
208 228 255
208 228 255
208 228 255
206 226 253
194 211 232
183 197 210
162 172 175
159 164 151
141 142 115
134 132 88
138 137 92
130 127 84
142 139 93
130 128 85
144 142 95
139 137 92
140 138 92
138 136 90
131 129 86
136 135 90
140 138 93
130 129 87
133 131 87
127 125 84
134 132 88
143 141 95
145 143 95
141 139 93
130 128 85
138 134 88
131 129 84
139 137 91
139 136 90
117 116 77
129 127 84
141 137 91
137 134 89
125 124 83
134 131 87
121 117 77
131 129 86
133 131 86
132 130 86
126 124 82
135 134 88
137 134 88
127 124 82
140 137 90
122 120 80
131 127 83
138 134 87
127 125 92
150 152 134
164 173 174
181 194 207
192 207 225
203 221 242
210 229 255
210 229 255
210 230 255
210 230 255
210 230 255
211 230 255
211 230 255
211 230 255
211 230 255
211 230 255
211 230 255
211 230 255
211 230 255
211 230 255
211 230 255
211 230 255
211 230 255
211 230 255
211 230 255
211 230 255
211 230 255
211 230 255
211 230 255
211 230 255
211 230 255
211 230 255
211 230 255
211 230 255
211 230 255
211 230 255
211 230 255
211 230 255
211 230 255
211 230 255
211 230 255
211 230 255
211 230 255
211 230 255
211 230 255
211 230 255
211 230 255
207 226 252
192 210 234
181 198 221
162 179 201
157 174 196
138 154 175
159 177 202
150 167 190
159 178 203
156 175 199
151 169 192
155 174 199
156 175 200
163 184 211
167 187 214
160 180 207
157 177 203
164 184 212
164 185 212
168 190 219
162 184 212
170 192 221
164 186 216
164 186 214
164 186 214
168 191 220
166 189 218
166 189 218
167 189 219
165 187 216
170 193 223
166 189 219
167 190 220
167 190 220
169 193 224
168 191 221
170 194 225
167 190 220
167 191 221
170 194 226
167 191 221
166 189 219
164 187 218
162 185 216
166 189 219
168 192 223
158 180 209
163 186 217
161 184 213
166 189 219
162 184 213
162 185 214
161 184 213
154 175 202
157 179 207
159 181 209
146 165 191
153 173 199
148 167 192
149 167 191
160 178 202
172 191 216
189 209 235
199 218 245
208 228 255
208 228 255
208 228 255
207 228 255
207 228 255
207 228 255
207 228 255
207 228 255
207 228 255
207 228 255
207 228 255
207 228 255
207 228 255
207 228 255
207 228 255
207 228 255
207 227 255
207 227 255
207 227 255
207 227 255
207 227 255
206 227 255
206 227 255
206 227 255
206 227 255
206 227 255
206 227 255
206 227 255
206 227 255
206 227 255
206 227 255
206 227 255
206 227 255
206 227 255
206 227 255
206 227 255
206 227 255
206 227 255
205 227 255
205 227 255
205 227 255
205 227 255
205 227 255
205 227 255
205 227 255
205 227 255
205 227 255
205 227 255
205 227 255
205 226 255
205 226 255
205 226 255
205 226 255
205 226 255
205 226 255
205 226 255
204 226 255
204 226 255
204 226 255
204 226 255
204 226 255
204 226 255
204 226 255
204 226 255
204 226 255
204 226 255
204 226 255
204 226 255
204 226 255
204 226 255
204 226 255
204 226 255
204 226 255
204 226 255
204 226 255
204 226 255
204 226 255
203 226 255
203 226 255
203 226 255
203 226 255
203 226 255
203 226 255
203 226 255
203 226 255
203 226 255
203 226 255
203 226 255
203 226 255
203 225 255
203 225 255
203 225 255
203 225 255
203 225 255
203 225 255
203 225 255
203 225 255
203 225 255
203 225 255
203 225 255
203 225 255
203 225 255
203 225 255
203 225 255
203 225 255
203 225 255
203 225 255
203 225 255
203 225 255
203 225 255
203 225 255
203 225 255
203 225 255
203 225 255
203 225 255
203 225 255
203 225 255
203 225 255
203 225 255
203 225 255
203 225 255
203 225 255
203 225 255
203 225 255
203 225 255
203 225 255
203 225 255
203 225 255
203 225 255
203 225 255
203 225 255
203 225 255
203 225 255
203 225 255
203 225 255
203 225 255
203 225 255
203 225 255
203 225 255
203 225 255
203 225 255
203 225 255
203 225 255
203 225 255
203 225 255
203 225 255
203 225 255
203 226 255
203 226 255
203 226 255
203 226 255
203 226 255
203 226 255
203 226 255
203 226 255
203 226 255
203 226 255
203 226 255
203 226 255
204 226 255
204 226 255
204 226 255
204 226 255
204 226 255
204 226 255
204 226 255
204 226 255
204 226 255
204 226 255
204 226 255
204 226 255
204 226 255
204 226 255
204 226 255
204 226 255
204 226 255
204 226 255
204 226 255
204 226 255
204 226 255
205 226 255
205 226 255
205 226 255
205 226 255
205 226 255
205 226 255
205 226 255
205 227 255
205 227 255
205 227 255
205 227 255
205 227 255
205 227 255
205 227 255
205 227 255
205 227 255
205 227 255
205 227 255
206 227 255
206 227 255
206 227 255
206 227 255
206 227 255
206 227 255
206 227 255
206 227 255
206 227 255
206 227 255
206 227 255
206 227 255
206 227 255
206 227 255
206 227 255
206 227 255
206 227 255
207 227 255
207 227 255
207 227 255
207 227 255
207 228 255
207 228 255
207 228 255
207 228 255
207 228 255
207 228 255
207 228 255
207 228 255
207 228 255
207 228 255
207 228 255
207 228 255
207 228 255
207 228 255
208 228 255
208 228 255
208 228 255
203 222 248
183 198 212
168 179 182
155 161 153
143 144 114
131 129 86
116 114 76
131 129 86
123 122 81
137 136 91
139 137 91
127 125 84
125 123 82
135 133 89
136 134 90
136 134 90
132 131 87
134 133 89
137 135 90
133 130 87
135 134 90
124 123 82
130 128 85
140 138 92
131 129 86
138 136 91
138 135 90
138 136 90
133 131 88
133 131 87
134 131 87
139 137 92
140 138 93
136 134 89
136 135 90
137 135 90
146 143 95
133 131 87
136 133 88
132 131 86
133 132 87
137 134 88
133 130 87
134 132 87
140 136 90
138 134 88
137 134 89
135 132 87
134 131 85
132 128 84
133 131 83
137 134 88
139 136 88
125 122 80
138 135 88
134 131 85
129 126 81
131 127 82
128 126 84
135 134 98
155 159 145
183 194 200
183 196 207
202 219 241
211 230 255
211 230 255
211 230 255
211 230 255
211 230 255
211 230 255
211 230 255
211 230 255
211 230 255
211 230 255
211 230 255
211 230 255
211 230 255
211 230 255
211 230 255
211 230 255
211 230 255
211 230 255
211 230 255
211 230 255
211 230 255
211 230 255
211 230 255
211 230 255
211 230 255
211 230 255
211 230 255
211 230 255
211 230 255
211 230 255
211 230 255
211 230 255
206 224 250
189 206 230
175 192 214
148 164 186
151 167 190
151 168 191
159 177 202
160 178 203
154 172 196
152 169 192
156 175 200
161 180 206
152 171 195
157 176 202
161 182 208
168 190 218
171 192 220
165 186 213
165 186 213
168 190 219
164 186 214
168 190 219
168 191 220
173 195 225
170 193 223
172 195 225
172 195 226
173 196 226
169 192 221
171 194 225
169 192 223
172 197 228
172 196 227
171 196 227
172 196 228
170 195 226
171 195 227
171 195 226
172 196 228
170 195 227
171 196 227
171 195 227
171 196 228
171 195 227
171 195 227
169 194 226
171 196 228
166 191 223
170 195 227
167 191 223
170 195 227
168 192 224
169 194 226
167 191 223
163 188 219
167 191 223
165 189 220
166 189 220
156 179 208
164 187 218
166 189 219
162 184 213
159 181 209
158 180 208
156 177 206
154 175 202
158 178 206
148 167 192
155 174 198
172 190 215
183 202 228
200 220 246
208 228 255
208 228 255
208 228 255
207 228 255
207 228 255
207 228 255
207 228 255
207 228 255
207 228 255
207 228 255
207 228 255
207 228 255
207 228 255
207 228 255
207 228 255
207 228 255
207 227 255
207 227 255
207 227 255
207 227 255
206 227 255
206 227 255
206 227 255
206 227 255
206 227 255
206 227 255
206 227 255
206 227 255
206 227 255
206 227 255
206 227 255
206 227 255
206 227 255
206 227 255
206 227 255
206 227 255
206 227 255
206 227 255
205 227 255
205 227 255
205 227 255
205 227 255
205 227 255
205 227 255
205 227 255
205 227 255
205 227 255
205 227 255
205 227 255
205 226 255
205 226 255
205 226 255
205 226 255
205 226 255
205 226 255
205 226 255
205 226 255
204 226 255
204 226 255
204 226 255
204 226 255
204 226 255
204 226 255
204 226 255
204 226 255
204 226 255
204 226 255
204 226 255
204 226 255
204 226 255
204 226 255
204 226 255
204 226 255
204 226 255
204 226 255
204 226 255
204 226 255
204 226 255
204 226 255
204 226 255
203 226 255
203 226 255
203 226 255
203 226 255
203 226 255
203 226 255
203 226 255
203 226 255
203 226 255
203 226 255
203 226 255
203 226 255
203 226 255
203 226 255
203 226 255
203 225 255
203 225 255
203 225 255
203 225 255
203 225 255
203 225 255
203 225 255
203 225 255
203 225 255
203 225 255
203 225 255
203 225 255
203 225 255
203 225 255
203 225 255
203 225 255
203 225 255
203 225 255
203 225 255
203 225 255
203 225 255
203 225 255
203 225 255
203 225 255
203 225 255
203 225 255
203 225 255
203 225 255
203 225 255
203 225 255
203 225 255
203 225 255
203 225 255
203 225 255
203 225 255
203 225 255
203 225 255
203 225 255
203 225 255
203 226 255
203 226 255
203 226 255
203 226 255
203 226 255
203 226 255
203 226 255
203 226 255
203 226 255
203 226 255
203 226 255
203 226 255
203 226 255
203 226 255
203 226 255
204 226 255
204 226 255
204 226 255
204 226 255
204 226 255
204 226 255
204 226 255
204 226 255
204 226 255
204 226 255
204 226 255
204 226 255
204 226 255
204 226 255
204 226 255
204 226 255
204 226 255
204 226 255
204 226 255
204 226 255
204 226 255
204 226 255
205 226 255
205 226 255
205 226 255
205 226 255
205 226 255
205 226 255
205 226 255
205 226 255
205 227 255
205 227 255
205 227 255
205 227 255
205 227 255
205 227 255
205 227 255
205 227 255
205 227 255
205 227 255
205 227 255
206 227 255
206 227 255
206 227 255
206 227 255
206 227 255
206 227 255
206 227 255
206 227 255
206 227 255
206 227 255
206 227 255
206 227 255
206 227 255
206 227 255
206 227 255
206 227 255
206 227 255
206 227 255
207 227 255
207 227 255
207 227 255
207 227 255
207 228 255
207 228 255
207 228 255
207 228 255
207 228 255
207 228 255
207 228 255
207 228 255
207 228 255
207 228 255
207 228 255
207 228 255
207 228 255
208 228 255
208 228 255
208 228 255
202 220 244
175 189 202
160 169 167
144 144 110
129 127 85
134 133 89
122 121 80
136 133 89
128 125 84
135 133 89
141 139 93
140 137 91
139 138 93
137 135 90
130 128 86
134 133 90
141 139 93
136 135 90
137 135 90
141 139 93
135 133 89
137 136 91
133 131 87
135 133 89
134 131 87
140 138 92
137 135 90
138 136 90
147 144 96
142 140 94
133 131 87
134 132 88
137 135 90
145 143 95
141 139 92
139 137 92
137 135 90
138 136 90
132 130 87
134 131 87
145 142 95
132 130 86
142 140 93
139 136 90
143 140 93
138 136 90
142 139 92
131 129 86
132 129 84
136 133 88
148 145 97
139 136 88
138 136 89
139 137 91
133 131 87
142 139 90
144 140 91
143 140 91
142 138 90
135 132 86
133 130 85
137 133 86
131 129 84
132 129 84
134 130 85
135 132 87
136 132 85
131 127 82
149 150 124
159 167 162
189 201 209
200 216 235
211 230 255
211 230 255
211 230 255
211 230 255
211 230 255
211 230 255
211 230 255
211 230 255
211 230 255
211 230 255
211 230 255
211 230 255
211 230 255
211 230 255
212 230 255
212 230 255
212 230 255
212 230 255
211 230 255
211 230 255
211 230 255
211 230 255
211 230 255
211 230 255
205 223 248
180 196 219
177 194 217
153 169 190
147 163 184
150 167 190
160 179 203
151 168 191
158 177 202
156 175 199
157 176 200
166 186 212
159 179 204
161 181 207
164 184 211
162 183 209
170 191 219
164 184 212
168 189 218
172 194 224
167 189 218
170 192 221
171 193 223
171 195 225
171 194 224
174 198 228
173 197 228
172 196 227
171 194 225
173 196 227
173 197 228
173 197 228
172 197 228
172 196 228
173 197 228
172 196 228
172 197 228
171 196 228
171 196 228
171 196 228
171 196 228
170 196 228
170 196 228
171 196 228
170 196 228
169 195 228
170 196 228
170 195 228
170 195 228
170 196 228
170 196 228
169 195 228
169 195 228
170 195 228
170 195 228
170 195 228
170 195 228
170 196 228
170 196 228
170 195 228
169 194 226
169 195 227
169 195 227
169 194 226
168 193 225
168 193 225
168 192 224
167 191 223
165 188 218
160 182 212
159 182 211
160 183 212
156 177 206
156 178 206
155 176 203
156 176 203
149 168 192
175 195 220
189 208 234
203 223 250
208 228 255
208 228 255
207 228 255
207 228 255
207 228 255
207 228 255
207 228 255
207 228 255
207 228 255
207 228 255
207 228 255
207 228 255
207 228 255
207 228 255
207 228 255
207 228 255
207 227 255
207 227 255
207 227 255
207 227 255
206 227 255
206 227 255
206 227 255
206 227 255
206 227 255
206 227 255
206 227 255
206 227 255
206 227 255
206 227 255
206 227 255
206 227 255
206 227 255
206 227 255
206 227 255
206 227 255
206 227 255
206 227 255
205 227 255
205 227 255
205 227 255
205 227 255
205 227 255
205 227 255
205 227 255
205 227 255
205 227 255
205 227 255
205 227 255
205 226 255
205 226 255
205 226 255
205 226 255
205 226 255
205 226 255
205 226 255
205 226 255
204 226 255
204 226 255
204 226 255
204 226 255
204 226 255
204 226 255
204 226 255
204 226 255
204 226 255
204 226 255
204 226 255
204 226 255
204 226 255
204 226 255
204 226 255
204 226 255
204 226 255
204 226 255
204 226 255
204 226 255
204 226 255
204 226 255
204 226 255
204 226 255
204 226 255
203 226 255
203 226 255
203 226 255
203 226 255
203 226 255
203 226 255
203 226 255
203 226 255
203 226 255
203 226 255
203 226 255
203 226 255
203 226 255
203 226 255
203 226 255
203 226 255
203 226 255
203 226 255
203 226 255
203 226 255
203 226 255
203 226 255
203 226 255
203 226 255
203 226 255
203 226 255
203 226 255
203 226 255
203 226 255
203 226 255
203 226 255
203 226 255
203 226 255
203 226 255
203 226 255
203 226 255
203 226 255
203 226 255
203 226 255
203 226 255
203 226 255
203 226 255
203 226 255
203 226 255
203 226 255
203 226 255
203 226 255
203 226 255
203 226 255
203 226 255
203 226 255
203 226 255
203 226 255
203 226 255
203 226 255
204 226 255
204 226 255
204 226 255
204 226 255
204 226 255
204 226 255
204 226 255
204 226 255
204 226 255
204 226 255
204 226 255
204 226 255
204 226 255
204 226 255
204 226 255
204 226 255
204 226 255
204 226 255
204 226 255
204 226 255
204 226 255
204 226 255
204 226 255
204 226 255
204 226 255
204 226 255
205 226 255
205 226 255
205 226 255
205 226 255
205 226 255
205 226 255
205 226 255
205 226 255
205 227 255
205 227 255
205 227 255
205 227 255
205 227 255
205 227 255
205 227 255
205 227 255
205 227 255
205 227 255
205 227 255
206 227 255
206 227 255
206 227 255
206 227 255
206 227 255
206 227 255
206 227 255
206 227 255
206 227 255
206 227 255
206 227 255
206 227 255
206 227 255
206 227 255
206 227 255
206 227 255
206 227 255
206 227 255
207 227 255
207 227 255
207 227 255
207 227 255
207 228 255
207 228 255
207 228 255
207 228 255
207 228 255
207 228 255
207 228 255
207 228 255
207 228 255
207 228 255
207 228 255
207 228 255
207 228 255
207 228 255
208 228 255
208 228 255
200 219 245
181 195 207
155 162 157
138 140 116
122 120 80
134 132 88
134 133 89
119 118 79
128 128 86
133 132 89
123 121 81
131 130 87
134 133 89
137 136 91
128 127 85
142 140 94
148 147 98
143 141 95
137 135 90
141 140 94
139 137 92
149 147 98
132 131 88
146 145 97
148 145 97
142 140 94
139 137 92
145 143 96
132 129 86
138 135 90
136 135 90
140 138 93
137 135 90
134 132 88
137 135 90
145 142 95
140 137 91
144 142 95
137 135 90
145 142 93
143 140 93
142 140 93
135 133 89
139 137 90
139 137 90
136 134 89
135 133 88
140 139 93
143 139 91
137 135 90
140 138 92
139 135 89
138 135 90
139 136 89
141 138 91
148 145 96
138 135 90
146 143 94
141 138 91
131 130 86
135 133 87
140 137 90
129 126 81
128 125 80
136 133 87
136 133 88
132 129 83
138 134 87
136 133 87
138 134 88
135 132 84
131 128 83
131 127 82
140 136 87
128 124 78
121 117 73
132 132 109
170 178 172
184 197 212
204 221 245
211 230 255
211 230 255
211 230 255
211 230 255
211 230 255
211 230 255
212 230 255
212 230 255
212 230 255
212 230 255
212 230 255
212 230 255
212 230 255
212 230 255
212 230 255
212 230 255
212 230 255
197 214 238
177 194 216
157 172 192
146 161 182
149 165 187
159 176 199
148 165 188
155 173 196
167 186 212
159 178 203
159 178 203
169 189 216
164 184 209
161 181 208
170 191 218
169 191 219
172 193 221
170 191 219
176 198 227
171 193 221
174 196 225
170 193 223
174 197 227
175 198 228
175 198 228
175 198 228
174 198 228
174 197 228
173 197 228
173 197 228
173 197 228
173 197 228
172 196 228
173 197 228
172 196 228
172 196 228
172 196 228
171 196 228
171 196 228
170 195 228
170 196 228
170 196 228
171 196 228
170 195 228
170 195 228
170 195 228
169 195 228
169 195 228
169 195 228
168 195 228
169 195 228
169 195 228
169 195 228
170 195 228
169 195 228
168 195 228
169 195 228
169 195 228
169 195 228
169 195 228
169 195 228
168 195 228
168 195 228
168 195 228
168 195 228
170 195 228
168 195 228
170 195 228
169 195 228
169 195 228
169 194 227
170 195 228
168 193 225
168 194 226
164 188 219
166 190 221
160 182 212
164 187 217
158 181 211
160 182 211
152 172 199
156 176 203
139 157 181
159 178 203
185 204 230
193 213 239
208 228 255
208 228 255
208 228 255
207 228 255
207 228 255
207 228 255
207 228 255
207 228 255
207 228 255
207 228 255
207 228 255
207 228 255
207 228 255
207 228 255
207 228 255
207 228 255
207 228 255
207 227 255
207 227 255
207 227 255
207 227 255
206 227 255
206 227 255
206 227 255
206 227 255
206 227 255
206 227 255
206 227 255
206 227 255
206 227 255
206 227 255
206 227 255
206 227 255
206 227 255
206 227 255
206 227 255
206 227 255
206 227 255
206 227 255
205 227 255
205 227 255
205 227 255
205 227 255
205 227 255
205 227 255
205 227 255
205 227 255
205 227 255
205 227 255
205 227 255
205 227 255
205 226 255
205 226 255
205 226 255
205 226 255
205 226 255
205 226 255
205 226 255
205 226 255
204 226 255
204 226 255
204 226 255
204 226 255
204 226 255
204 226 255
204 226 255
204 226 255
204 226 255
204 226 255
204 226 255
204 226 255
204 226 255
204 226 255
204 226 255
204 226 255
204 226 255
204 226 255
204 226 255
204 226 255
204 226 255
204 226 255
204 226 255
204 226 255
204 226 255
204 226 255
204 226 255
204 226 255
204 226 255
204 226 255
203 226 255
203 226 255
203 226 255
203 226 255
203 226 255
203 226 255
203 226 255
203 226 255
203 226 255
203 226 255
203 226 255
203 226 255
203 226 255
203 226 255
203 226 255
203 226 255
203 226 255
203 226 255
203 226 255
203 226 255
203 226 255
203 226 255
203 226 255
203 226 255
203 226 255
203 226 255
203 226 255
203 226 255
203 226 255
203 226 255
203 226 255
203 226 255
203 226 255
203 226 255
203 226 255
203 226 255
204 226 255
204 226 255
204 226 255
204 226 255
204 226 255
204 226 255
204 226 255
204 226 255
204 226 255
204 226 255
204 226 255
204 226 255
204 226 255
204 226 255
204 226 255
204 226 255
204 226 255
204 226 255
204 226 255
204 226 255
204 226 255
204 226 255
204 226 255
204 226 255
204 226 255
204 226 255
204 226 255
204 226 255
204 226 255
204 226 255
205 226 255
205 226 255
205 226 255
205 226 255
205 226 255
205 226 255
205 226 255
205 226 255
205 227 255
205 227 255
205 227 255
205 227 255
205 227 255
205 227 255
205 227 255
205 227 255
205 227 255
205 227 255
205 227 255
205 227 255
206 227 255
206 227 255
206 227 255
206 227 255
206 227 255
206 227 255
206 227 255
206 227 255
206 227 255
206 227 255
206 227 255
206 227 255
206 227 255
206 227 255
206 227 255
206 227 255
206 227 255
206 227 255
207 227 255
207 227 255
207 227 255
207 227 255
207 228 255
207 228 255
207 228 255
207 228 255
207 228 255
207 228 255
207 228 255
207 228 255
207 228 255
207 228 255
207 228 255
207 228 255
207 228 255
207 228 255
208 228 255
208 228 255
208 228 255
199 217 238
169 179 181
160 166 154
135 134 92
132 131 88
131 130 87
121 121 81
139 137 91
137 136 91
144 142 95
131 129 87
140 139 93
132 130 87
138 137 92
137 135 90
139 138 93
140 138 93
143 142 95
135 135 90
142 140 93
136 136 91
142 141 94
141 140 94
132 131 87
145 144 97
142 141 94
131 130 87
136 134 90
140 138 93
130 129 86
143 141 94
144 142 95
145 143 96
143 141 95
142 140 93
141 140 94
146 144 97
141 139 93
139 137 92
149 147 98
139 138 93
141 139 93
139 136 91
146 144 96
142 140 94
145 142 95
154 151 101
148 145 96
135 134 90
146 143 94
143 141 93
145 144 96
151 147 97
152 148 97
140 138 91
142 139 92
146 143 95
149 146 97
142 139 90
143 140 93
144 142 94
144 141 91
137 135 89
137 134 88
141 138 89
143 140 91
120 118 75
137 134 87
143 140 91
145 142 93
142 138 90
135 132 86
155 151 98
143 139 90
145 141 91
132 129 82
138 135 88
126 123 79
136 132 85
137 132 86
130 126 80
131 127 80
131 126 80
149 151 127
172 181 183
197 213 231
212 230 255
212 230 255
212 230 255
212 230 255
212 230 255
212 230 255
212 230 255
212 230 255
212 230 255
212 230 255
211 229 254
203 221 246
178 195 218
165 182 205
148 163 184
154 171 192
152 169 191
162 180 204
161 180 204
160 179 203
162 181 206
166 186 212
171 191 218
168 188 214
164 185 212
168 189 216
170 191 219
172 194 223
174 196 225
172 194 223
175 197 226
176 199 228
177 199 228
173 196 226
175 198 228
175 198 228
174 198 228
175 198 228
174 198 228
173 197 228
173 197 228
173 197 228
173 197 228
173 197 228
172 196 228
172 196 228
172 197 228
173 197 228
171 196 228
170 195 228
171 196 228
171 196 228
170 195 228
170 195 228
169 195 228
170 195 228
170 195 228
169 195 228
169 195 228
169 195 228
169 195 228
169 195 228
168 195 228
168 195 228
168 195 228
167 194 228
168 194 228
168 194 228
168 194 228
168 194 228
168 194 228
168 194 228
167 194 228
168 194 228
167 194 228
168 194 228
167 194 228
168 194 228
167 194 228
167 194 228
167 194 228
167 194 228
168 194 228
167 194 228
168 195 228
168 194 228
169 195 228
169 195 228
169 195 228
169 195 228
168 193 226
167 192 225
166 191 223
163 187 218
161 185 216
162 185 216
161 184 214
156 178 206
162 184 212
156 176 203
160 179 203
177 196 222
194 214 240
207 227 254
208 228 255
208 228 255
208 228 255
207 228 255
207 228 255
207 228 255
207 228 255
207 228 255
207 228 255
207 228 255
207 228 255
207 228 255
207 228 255
207 228 255
207 228 255
207 228 255
207 228 255
207 227 255
207 227 255
207 227 255
207 227 255
206 227 255
206 227 255
206 227 255
206 227 255
206 227 255
206 227 255
206 227 255
206 227 255
206 227 255
206 227 255
206 227 255
206 227 255
206 227 255
206 227 255
206 227 255
206 227 255
206 227 255
206 227 255
206 227 255
205 227 255
205 227 255
205 227 255
205 227 255
205 227 255
205 227 255
205 227 255
205 227 255
205 227 255
205 227 255
205 227 255
205 227 255
205 226 255
205 226 255
205 226 255
205 226 255
205 226 255
205 226 255
205 226 255
205 226 255
205 226 255
204 226 255
204 226 255
204 226 255
204 226 255
204 226 255
204 226 255
204 226 255
204 226 255
204 226 255
204 226 255
204 226 255
204 226 255
204 226 255
204 226 255
204 226 255
204 226 255
204 226 255
204 226 255
204 226 255
204 226 255
204 226 255
204 226 255
204 226 255
204 226 255
204 226 255
204 226 255
204 226 255
204 226 255
204 226 255
204 226 255
204 226 255
204 226 255
204 226 255
204 226 255
204 226 255
204 226 255
204 226 255
204 226 255
204 226 255
204 226 255
204 226 255
204 226 255
204 226 255
204 226 255
204 226 255
204 226 255
204 226 255
204 226 255
204 226 255
204 226 255
204 226 255
204 226 255
204 226 255
204 226 255
204 226 255
204 226 255
204 226 255
204 226 255
204 226 255
204 226 255
204 226 255
204 226 255
204 226 255
204 226 255
204 226 255
204 226 255
204 226 255
204 226 255
204 226 255
204 226 255
204 226 255
204 226 255
204 226 255
204 226 255
204 226 255
204 226 255
204 226 255
204 226 255
204 226 255
204 226 255
204 226 255
204 226 255
204 226 255
204 226 255
205 226 255
205 226 255
205 226 255
205 226 255
205 226 255
205 226 255
205 226 255
205 226 255
205 226 255
205 227 255
205 227 255
205 227 255
205 227 255
205 227 255
205 227 255
205 227 255
205 227 255
205 227 255
205 227 255
205 227 255
205 227 255
206 227 255
206 227 255
206 227 255
206 227 255
206 227 255
206 227 255
206 227 255
206 227 255
206 227 255
206 227 255
206 227 255
206 227 255
206 227 255
206 227 255
206 227 255
206 227 255
206 227 255
206 227 255
206 227 255
207 227 255
207 227 255
207 227 255
207 227 255
207 228 255
207 228 255
207 228 255
207 228 255
207 228 255
207 228 255
207 228 255
207 228 255
207 228 255
207 228 255
207 228 255
207 228 255
207 228 255
207 228 255
208 228 255
208 228 255
208 228 255
208 228 255
193 210 226
163 174 179
137 140 117
126 125 84
126 124 83
144 142 95
133 132 88
134 133 89
143 142 95
126 125 84
140 139 93
140 139 93
145 143 96
143 142 95
131 130 87
134 133 90
136 135 91
140 139 93
140 139 93
143 142 95
137 136 91
140 138 93
136 136 91
133 132 89
138 136 91
140 138 93
149 147 99
140 139 93
152 150 101
147 145 97
142 141 95
144 142 95
143 142 95
146 145 97
150 148 99
146 145 97
142 140 94
133 131 87
137 135 90
148 146 97
134 132 87
148 146 97
149 147 98
146 144 95
146 143 95
143 141 95
149 147 99
148 147 97
149 147 98
137 135 90
143 141 94
136 134 89
141 139 93
143 140 93
149 146 97
141 139 93
143 140 93
136 133 87
144 142 95
136 133 87
143 140 93
135 133 87
139 135 89
143 141 93
135 131 86
144 142 95
143 138 89
135 131 85
147 144 93
147 144 95
146 143 93
133 129 84
139 136 88
134 131 87
144 140 92
140 137 91
134 130 83
138 135 87
135 131 87
130 126 82
139 137 86
141 137 88
143 139 90
132 128 83
139 135 87
137 133 85
140 136 86
130 127 80
131 128 80
142 146 131
171 180 181
193 206 219
212 230 254
212 230 255
212 230 255
212 230 255
212 230 255
198 216 239
173 189 210
159 174 195
157 173 195
155 171 194
156 173 195
160 177 200
163 181 204
158 176 200
170 189 214
165 184 209
166 185 212
171 191 218
167 187 214
174 195 223
174 195 223
172 193 220
175 197 226
175 197 225
176 199 228
174 196 225
174 197 227
176 199 228
175 198 228
175 198 228
174 198 228
174 198 228
174 198 228
174 197 228
174 198 228
172 197 228
173 197 228
173 197 228
171 196 228
172 197 228
171 196 228
171 196 228
171 196 228
171 196 228
171 196 228
171 196 228
171 196 228
170 196 228
170 196 228
170 195 228
169 195 228
169 195 228
169 195 228
169 195 228
169 195 228
168 195 228
168 194 228
168 194 228
167 194 228
168 195 228
167 194 228
167 194 228
167 194 228
167 194 228
167 194 228
167 194 228
166 194 228
167 194 228
167 194 228
166 193 228
166 194 228
166 194 228
166 194 228
166 194 228
166 194 228
166 194 228
166 194 228
167 194 228
167 194 228
167 194 228
167 194 228
167 194 228
167 194 228
168 194 228
167 194 228
167 194 228
168 194 228
168 195 228
168 195 228
168 195 228
169 195 228
170 195 227
169 194 226
164 188 219
167 191 223
167 191 221
160 182 212
159 182 211
152 173 200
150 169 195
153 171 195
181 200 226
198 218 244
208 228 255
208 228 255
208 228 255
208 228 255
208 228 255
207 228 255
207 228 255
207 228 255
207 228 255
207 228 255
207 228 255
207 228 255
207 228 255
207 228 255
207 228 255
207 228 255
207 228 255
207 228 255
207 228 255
207 227 255
207 227 255
207 227 255
207 227 255
206 227 255
206 227 255
206 227 255
206 227 255
206 227 255
206 227 255
206 227 255
206 227 255
206 227 255
206 227 255
206 227 255
206 227 255
206 227 255
206 227 255
206 227 255
206 227 255
206 227 255
206 227 255
206 227 255
205 227 255
205 227 255
205 227 255
205 227 255
205 227 255
205 227 255
205 227 255
205 227 255
205 227 255
205 227 255
205 227 255
205 227 255
205 227 255
205 226 255
205 226 255
205 226 255
205 226 255
205 226 255
205 226 255
205 226 255
205 226 255
205 226 255
205 226 255
205 226 255
204 226 255
204 226 255
204 226 255
204 226 255
204 226 255
204 226 255
204 226 255
204 226 255
204 226 255
204 226 255
204 226 255
204 226 255
204 226 255
204 226 255
204 226 255
204 226 255
204 226 255
204 226 255
204 226 255
204 226 255
204 226 255
204 226 255
204 226 255
204 226 255
204 226 255
204 226 255
204 226 255
204 226 255
204 226 255
204 226 255
204 226 255
204 226 255
204 226 255
204 226 255
204 226 255
204 226 255
204 226 255
204 226 255
204 226 255
204 226 255
204 226 255
204 226 255
204 226 255
204 226 255
204 226 255
204 226 255
204 226 255
204 226 255
204 226 255
204 226 255
204 226 255
204 226 255
204 226 255
204 226 255
204 226 255
204 226 255
204 226 255
204 226 255
204 226 255
204 226 255
204 226 255
204 226 255
204 226 255
204 226 255
204 226 255
204 226 255
204 226 255
204 226 255
204 226 255
204 226 255
204 226 255
205 226 255
205 226 255
205 226 255
205 226 255
205 226 255
205 226 255
205 226 255
205 226 255
205 226 255
205 226 255
205 227 255
205 227 255
205 227 255
205 227 255
205 227 255
205 227 255
205 227 255
205 227 255
205 227 255
205 227 255
205 227 255
205 227 255
205 227 255
206 227 255
206 227 255
206 227 255
206 227 255
206 227 255
206 227 255
206 227 255
206 227 255
206 227 255
206 227 255
206 227 255
206 227 255
206 227 255
206 227 255
206 227 255
206 227 255
206 227 255
206 227 255
206 227 255
207 227 255
207 227 255
207 227 255
207 227 255
207 228 255
207 228 255
207 228 255
207 228 255
207 228 255
207 228 255
207 228 255
207 228 255
207 228 255
207 228 255
207 228 255
207 228 255
207 228 255
207 228 255
208 228 255
208 228 255
208 228 255
208 228 255
208 228 255
201 220 245
166 175 177
143 143 112
124 123 83
135 134 90
138 136 91
139 137 92
142 141 94
132 131 88
144 143 96
143 141 95
137 136 92
142 141 95
141 139 93
135 134 90
141 140 94
141 140 94
141 140 94
136 136 92
141 139 93
136 135 90
142 141 95
145 143 95
132 131 88
137 136 91
142 141 95
142 141 95
137 135 90
138 137 92
143 142 95
139 137 92
144 143 96
143 142 95
140 138 92
152 150 101
153 151 101
146 144 97
151 150 101
148 145 97
151 148 99
144 142 95
144 143 95
152 150 100
144 143 96
144 142 95
143 140 93
140 138 92
138 136 91
154 151 101
143 141 95
151 149 99
140 138 91
142 139 93
143 142 94
143 141 93
144 142 94
138 136 91
139 137 90
149 145 96
144 141 93
146 144 95
152 149 97
139 135 89
142 140 93
150 147 97
151 148 97
146 143 95
145 141 93
149 147 98
137 133 87
148 145 96
145 142 93
139 137 87
148 144 95
135 132 86
138 135 89
143 140 91
136 132 84
141 138 89
141 139 90
136 133 86
146 143 90
137 134 87
137 133 85
136 133 86
137 134 84
137 134 83
135 132 86
137 134 87
136 132 86
139 135 86
128 124 80
132 128 80
132 127 79
133 129 79
132 133 111
176 184 183
204 220 240
212 230 255
162 177 198
152 168 188
156 173 195
155 172 195
160 178 202
161 179 203
154 172 195
164 182 207
173 191 217
170 190 216
173 193 220
174 194 220
172 192 219
177 199 227
175 197 225
177 198 226
176 197 226
177 199 228
176 198 227
176 199 228
176 199 228
175 198 228
175 198 228
175 198 228
175 198 228
174 198 228
174 198 228
174 197 228
173 197 228
173 197 228
173 197 228
172 197 228
172 197 228
172 196 228
171 196 228
172 196 228
171 196 228
171 196 228
170 196 228
171 196 228
170 196 228
170 195 228
170 196 228
170 196 228
169 195 228
169 195 228
168 195 228
168 195 228
169 195 228
168 194 228
168 194 228
168 194 228
167 194 228
167 194 228
168 194 228
167 194 228
167 194 228
167 194 228
167 194 228
167 194 228
167 194 228
166 193 228
167 194 228
166 193 228
166 193 228
166 193 228
166 193 228
165 193 228
166 193 228
166 193 228
166 193 228
166 193 228
166 193 228
166 193 228
165 193 228
166 193 228
166 193 228
166 193 228
166 193 228
166 194 228
166 193 228
166 193 228
167 194 228
166 193 228
167 194 228
168 194 228
167 194 228
168 195 228
169 195 228
169 195 228
168 194 227
168 193 226
167 192 224
168 192 224
165 188 219
159 182 212
158 180 208
152 172 199
158 179 206
162 180 205
183 202 228
203 223 250
208 228 255
208 228 255
208 228 255
208 228 255
208 228 255
208 228 255
207 228 255
207 228 255
207 228 255
207 228 255
207 228 255
207 228 255
207 228 255
207 228 255
207 228 255
207 228 255
207 228 255
207 228 255
207 228 255
207 228 255
207 227 255
207 227 255
207 227 255
207 227 255
207 227 255
206 227 255
206 227 255
206 227 255
206 227 255
206 227 255
206 227 255
206 227 255
206 227 255
206 227 255
206 227 255
206 227 255
206 227 255
206 227 255
206 227 255
206 227 255
206 227 255
206 227 255
206 227 255
206 227 255
205 227 255
205 227 255
205 227 255
205 227 255
205 227 255
205 227 255
205 227 255
205 227 255
205 227 255
205 227 255
205 227 255
205 227 255
205 227 255
205 227 255
205 226 255
205 226 255
205 226 255
205 226 255
205 226 255
205 226 255
205 226 255
205 226 255
205 226 255
205 226 255
205 226 255
205 226 255
204 226 255
204 226 255
204 226 255
204 226 255
204 226 255
204 226 255
204 226 255
204 226 255
204 226 255
204 226 255
204 226 255
204 226 255
204 226 255
204 226 255
204 226 255
204 226 255
204 226 255
204 226 255
204 226 255
204 226 255
204 226 255
204 226 255
204 226 255
204 226 255
204 226 255
204 226 255
204 226 255
204 226 255
204 226 255
204 226 255
204 226 255
204 226 255
204 226 255
204 226 255
204 226 255
204 226 255
204 226 255
204 226 255
204 226 255
204 226 255
204 226 255
204 226 255
204 226 255
204 226 255
204 226 255
204 226 255
204 226 255
204 226 255
204 226 255
204 226 255
204 226 255
204 226 255
204 226 255
204 226 255
204 226 255
204 226 255
205 226 255
205 226 255
205 226 255
205 226 255
205 226 255
205 226 255
205 226 255
205 226 255
205 226 255
205 226 255
205 226 255
205 226 255
205 227 255
205 227 255
205 227 255
205 227 255
205 227 255
205 227 255
205 227 255
205 227 255
205 227 255
205 227 255
205 227 255
205 227 255
205 227 255
205 227 255
206 227 255
206 227 255
206 227 255
206 227 255
206 227 255
206 227 255
206 227 255
206 227 255
206 227 255
206 227 255
206 227 255
206 227 255
206 227 255
206 227 255
206 227 255
206 227 255
206 227 255
206 227 255
206 227 255
206 227 255
207 227 255
207 227 255
207 227 255
207 227 255
207 228 255
207 228 255
207 228 255
207 228 255
207 228 255
207 228 255
207 228 255
207 228 255
207 228 255
207 228 255
207 228 255
207 228 255
207 228 255
207 228 255
208 228 255
208 228 255
208 228 255
208 228 255
208 228 255
208 228 255
204 224 251
180 193 203
156 161 144
138 136 90
133 130 87
132 130 87
136 136 91
138 137 92
135 134 90
144 143 96
143 141 95
140 139 93
137 136 92
140 139 93
139 138 93
153 152 102
137 135 90
143 142 95
146 144 97
145 144 97
139 138 93
136 135 90
143 141 95
141 139 93
136 135 90
146 145 97
145 144 97
142 142 95
150 149 100
152 151 101
150 148 99
149 148 99
143 142 95
144 143 96
141 139 93
150 149 99
149 148 99
148 146 98
140 138 93
151 149 99
144 142 95
140 138 93
133 132 87
139 137 92
138 136 91
152 150 100
152 149 99
152 151 101
132 129 86
153 151 100
147 144 96
146 144 96
147 145 96
150 147 97
153 151 101
147 145 95
149 147 98
139 136 91
156 153 101
153 150 98
150 148 98
146 144 95
148 144 95
147 144 95
147 144 94
133 132 86
140 138 90
143 140 93
150 147 95
147 144 96
155 151 99
145 141 93
143 141 93
151 148 97
145 142 93
144 140 91
139 137 90
149 145 94
145 141 92
153 149 97
135 131 84
137 134 88
141 138 90
134 131 84
142 138 90
141 137 90
139 136 87
141 138 87
122 120 76
136 133 85
140 137 88
139 135 88
133 130 85
137 133 87
133 130 84
133 130 84
124 121 77
135 130 82
132 129 82
132 128 81
131 127 78
154 156 134
160 176 199
153 169 191
160 177 200
162 180 203
161 180 204
167 186 212
171 191 217
173 193 219
169 188 214
175 197 225
176 198 226
175 197 225
179 200 228
177 199 227
177 199 228
177 199 228
177 199 228
177 199 228
176 198 228
176 199 228
176 199 228
174 198 228
174 198 228
175 198 228
174 198 228
174 198 228
174 198 228
174 197 228
173 197 228
172 197 228
173 197 228
172 197 228
172 196 228
172 196 228
172 196 228
171 196 228
170 196 228
171 196 228
170 196 228
170 196 228
171 196 228
170 195 228
169 195 228
170 195 228
169 195 228
169 195 228
169 195 228
168 194 228
168 195 228
167 194 228
167 194 228
168 194 228
167 194 228
167 194 228
167 194 228
167 194 228
167 194 228
167 194 228
166 194 228
167 194 228
166 193 228
166 193 228
165 193 228
165 193 228
165 193 228
165 193 228
165 193 228
165 193 228
165 193 228
165 193 228
165 193 228
165 193 228
165 193 228
165 193 228
165 193 228
165 193 228
165 193 228
165 193 228
165 193 228
165 193 228
165 193 228
165 193 228
165 193 228
166 193 228
166 193 228
166 193 228
166 193 228
166 194 228
167 194 228
167 194 228
168 195 228
168 194 228
168 195 228
169 195 228
170 195 228
167 192 224
170 194 226
165 188 219
165 187 217
155 176 204
154 175 203
149 168 192
170 188 213
200 219 246
208 228 255
208 228 255
208 228 255
208 228 255
208 228 255
208 228 255
208 228 255
208 228 255
207 228 255
207 228 255
207 228 255
207 228 255
207 228 255
207 228 255
207 228 255
207 228 255
207 228 255
207 228 255
207 228 255
207 228 255
207 228 255
207 228 255
207 227 255
207 227 255
207 227 255
207 227 255
207 227 255
206 227 255
206 227 255
206 227 255
206 227 255
206 227 255
206 227 255
206 227 255
206 227 255
206 227 255
206 227 255
206 227 255
206 227 255
206 227 255
206 227 255
206 227 255
206 227 255
206 227 255
206 227 255
206 227 255
206 227 255
206 227 255
205 227 255
205 227 255
205 227 255
205 227 255
205 227 255
205 227 255
205 227 255
205 227 255
205 227 255
205 227 255
205 227 255
205 227 255
205 227 255
205 227 255
205 227 255
205 226 255
205 226 255
205 226 255
205 226 255
205 226 255
205 226 255
205 226 255
205 226 255
205 226 255
205 226 255
205 226 255
205 226 255
205 226 255
205 226 255
205 226 255
205 226 255
204 226 255
204 226 255
204 226 255
204 226 255
204 226 255
204 226 255
204 226 255
204 226 255
204 226 255
204 226 255
204 226 255
204 226 255
204 226 255
204 226 255
204 226 255
204 226 255
204 226 255
204 226 255
204 226 255
204 226 255
204 226 255
204 226 255
204 226 255
204 226 255
204 226 255
204 226 255
204 226 255
204 226 255
204 226 255
204 226 255
204 226 255
204 226 255
204 226 255
204 226 255
204 226 255
205 226 255
205 226 255
205 226 255
205 226 255
205 226 255
205 226 255
205 226 255
205 226 255
205 226 255
205 226 255
205 226 255
205 226 255
205 226 255
205 226 255
205 226 255
205 227 255
205 227 255
205 227 255
205 227 255
205 227 255
205 227 255
205 227 255
205 227 255
205 227 255
205 227 255
205 227 255
205 227 255
205 227 255
205 227 255
205 227 255
206 227 255
206 227 255
206 227 255
206 227 255
206 227 255
206 227 255
206 227 255
206 227 255
206 227 255
206 227 255
206 227 255
206 227 255
206 227 255
206 227 255
206 227 255
206 227 255
206 227 255
206 227 255
206 227 255
206 227 255
206 227 255
207 227 255
207 227 255
207 227 255
207 227 255
207 228 255
207 228 255
207 228 255
207 228 255
207 228 255
207 228 255
207 228 255
207 228 255
207 228 255
207 228 255
207 228 255
207 228 255
207 228 255
207 228 255
207 228 255
208 228 255
208 228 255
208 228 255
208 228 255
208 228 255
208 228 255
208 228 255
208 228 255
190 207 227
165 176 181
130 130 96
121 120 80
137 134 90
129 127 85
136 135 90
143 141 95
141 140 94
136 135 90
137 136 91
146 145 97
144 143 96
142 142 95
137 136 92
152 150 101
139 138 93
148 146 98
153 151 101
144 142 95
147 145 97
146 144 97
158 157 105
140 139 93
144 143 96
143 142 95
155 154 103
145 144 97
141 141 95
150 150 101
145 144 97
151 149 100
153 151 101
139 137 92
143 141 95
147 146 98
150 148 99
151 149 100
146 145 97
153 152 102
147 146 98
146 144 96
147 145 97
149 147 98
140 138 93
146 144 96
150 148 99
142 140 93
148 146 98
150 147 98
144 141 93
153 150 99
151 148 99
149 146 97
146 143 95
147 145 95
147 145 97
146 144 95
151 149 98
150 148 98
142 139 92
144 142 95
152 149 98
147 145 97
143 142 95
145 142 93
143 141 92
142 139 92
150 146 96
145 142 93
147 145 95
151 148 96
147 144 95
148 144 95
141 137 91
153 150 98
136 134 87
141 137 87
140 137 89
149 145 94
146 142 90
142 138 90
140 137 87
139 136 90
137 135 87
144 141 93
140 137 90
144 140 91
137 133 84
143 140 91
141 138 91
132 129 80
128 126 83
133 129 84
136 133 87
136 133 85
144 139 87
134 131 82
131 127 82
144 140 91
129 125 77
138 135 87
135 131 84
135 130 80
158 175 198
168 185 209
168 187 213
170 189 214
170 189 214
171 191 217
173 193 220
170 189 216
177 198 226
178 199 227
179 200 228
177 199 228
178 200 228
177 199 228
176 199 228
176 199 228
177 199 228
176 199 228
177 199 228
176 199 228
175 198 228
175 198 228
175 198 228
174 198 228
174 197 228
173 197 228
173 197 228
173 197 228
173 197 228
172 197 228
172 197 228
172 196 228
171 196 228
171 196 228
172 196 228
171 196 228
170 196 228
171 196 228
170 195 228
169 195 228
169 195 228
169 195 228
169 195 228
169 195 228
169 195 228
169 195 228
169 195 228
168 195 228
167 194 228
168 194 228
167 194 228
167 194 228
167 194 228
167 194 228
167 194 228
166 194 228
166 194 228
166 193 228
166 194 228
166 193 228
166 193 228
166 193 228
166 193 228
165 193 228
166 193 228
164 193 228
164 193 228
165 193 228
165 193 228
165 193 228
165 193 228
164 193 228
165 193 228
164 193 228
165 193 228
164 192 228
164 193 228
164 193 228
164 192 228
164 193 228
165 193 228
164 193 228
165 193 228
165 193 228
165 193 228
165 193 228
165 193 228
166 193 228
166 193 228
166 194 228
166 193 228
166 194 228
167 194 228
167 194 228
168 195 228
168 195 228
168 194 227
169 195 227
166 190 221
163 186 217
159 182 212
162 185 214
154 175 203
157 178 204
164 183 208
182 200 225
208 228 255
208 228 255
208 228 255
208 228 255
208 228 255
208 228 255
208 228 255
208 228 255
208 228 255
208 228 255
207 228 255
207 228 255
207 228 255
207 228 255
207 228 255
207 228 255
207 228 255
207 228 255
207 228 255
207 228 255
207 228 255
207 228 255
207 228 255
207 228 255
207 228 255
207 227 255
207 227 255
207 227 255
207 227 255
207 227 255
206 227 255
206 227 255
206 227 255
206 227 255
206 227 255
206 227 255
206 227 255
206 227 255
206 227 255
206 227 255
206 227 255
206 227 255
206 227 255
206 227 255
206 227 255
206 227 255
206 227 255
206 227 255
206 227 255
206 227 255
206 227 255
206 227 255
205 227 255
205 227 255
205 227 255
205 227 255
205 227 255
205 227 255
205 227 255
205 227 255
205 227 255
205 227 255
205 227 255
205 227 255
205 227 255
205 227 255
205 227 255
205 227 255
205 227 255
205 226 255
205 226 255
205 226 255
205 226 255
205 226 255
205 226 255
205 226 255
205 226 255
205 226 255
205 226 255
205 226 255
205 226 255
205 226 255
205 226 255
205 226 255
205 226 255
205 226 255
205 226 255
205 226 255
205 226 255
205 226 255
205 226 255
205 226 255
205 226 255
205 226 255
205 226 255
205 226 255
205 226 255
205 226 255
205 226 255
205 226 255
205 226 255
205 226 255
205 226 255
205 226 255
205 226 255
205 226 255
205 226 255
205 226 255
205 226 255
205 226 255
205 226 255
205 226 255
205 226 255
205 226 255
205 226 255
205 226 255
205 226 255
205 227 255
205 227 255
205 227 255
205 227 255
205 227 255
205 227 255
205 227 255
205 227 255
205 227 255
205 227 255
205 227 255
205 227 255
205 227 255
205 227 255
205 227 255
205 227 255
205 227 255
205 227 255
205 227 255
206 227 255
206 227 255
206 227 255
206 227 255
206 227 255
206 227 255
206 227 255
206 227 255
206 227 255
206 227 255
206 227 255
206 227 255
206 227 255
206 227 255
206 227 255
206 227 255
206 227 255
206 227 255
206 227 255
206 227 255
206 227 255
206 227 255
207 227 255
207 227 255
207 227 255
207 227 255
207 227 255
207 228 255
207 228 255
207 228 255
207 228 255
207 228 255
207 228 255
207 228 255
207 228 255
207 228 255
207 228 255
207 228 255
207 228 255
207 228 255
207 228 255
207 228 255
208 228 255
208 228 255
208 228 255
208 228 255
208 228 255
208 228 255
208 228 255
208 228 255
208 228 255
208 228 254
186 201 214
155 162 154
145 142 95
134 131 87
132 130 87
132 130 87
143 142 95
143 141 94
138 137 93
134 133 89
140 139 94
138 136 91
142 141 95
148 146 98
138 136 91
143 141 95
142 141 95
147 146 98
143 142 95
144 143 96
147 146 98
152 150 101
147 147 99
149 148 99
147 146 98
149 147 99
138 137 92
140 139 93
155 154 104
136 135 90
148 146 98
151 149 100
152 150 101
148 146 97
145 143 95
149 148 99
141 139 93
152 150 100
151 149 100
148 146 98
153 151 101
149 148 99
146 145 97
156 153 102
144 141 94
151 150 100
149 148 99
144 142 95
141 140 94
148 146 97
150 147 98
159 157 104
148 146 97
155 152 101
154 152 101
147 145 97
155 152 101
150 148 98
157 153 101
148 146 96
152 149 99
146 144 95
150 147 97
154 151 98
153 150 100
149 145 96
149 146 97
140 137 89
139 136 87
149 146 97
151 148 97
139 137 90
152 148 97
146 143 94
146 143 93
144 142 93
143 140 92
143 139 92
141 138 90
143 139 90
144 141 91
145 141 90
148 145 94
141 138 90
142 139 91
147 143 93
142 140 91
144 141 90
147 143 93
160 155 101
142 139 90
142 139 90
139 135 87
141 137 88
129 127 80
139 134 86
145 141 90
147 143 94
144 140 90
133 130 84
137 133 84
140 136 84
131 127 80
140 136 87
132 128 81
141 137 90
165 183 207
178 198 225
173 193 219
173 192 218
177 198 225
178 198 225
177 198 226
179 200 227
178 199 227
179 200 228
179 200 228
177 199 228
178 200 228
177 199 228
178 200 228
177 199 228
177 199 228
175 198 228
175 198 228
174 198 228
175 198 228
175 198 228
174 198 228
174 198 228
173 197 228
174 198 228
172 197 228
173 197 228
172 197 228
173 197 228
172 196 228
171 196 228
171 196 228
171 196 228
170 196 228
171 196 228
171 196 228
170 196 228
170 195 228
170 195 228
170 195 228
169 195 228
169 195 228
169 195 228
168 195 228
168 194 228
168 195 228
168 194 228
168 194 228
167 194 228
167 194 228
167 194 228
167 194 228
166 194 228
167 194 228
166 194 228
166 193 228
166 193 228
166 193 228
166 193 228
165 193 228
165 193 228
165 193 228
165 193 228
165 193 228
165 193 228
165 193 228
164 193 228
164 193 228
164 192 228
164 193 228
164 192 228
164 192 228
164 192 228
164 192 228
164 192 228
164 192 228
164 192 228
164 192 228
164 192 228
164 192 228
164 192 228
164 192 228
164 192 228
164 193 228
164 192 228
164 193 228
165 193 228
165 193 228
165 193 228
165 193 228
165 193 228
166 193 228
167 194 228
167 194 228
167 194 228
167 194 228
168 195 228
169 195 228
170 195 228
169 195 227
168 193 225
170 194 226
165 188 218
151 172 199
158 179 207
156 174 199
171 189 212
206 226 253
208 228 255
208 228 255
208 228 255
208 228 255
208 228 255
208 228 255
208 228 255
208 228 255
208 228 255
208 228 255
208 228 255
208 228 255
207 228 255
207 228 255
207 228 255
207 228 255
207 228 255
207 228 255
207 228 255
207 228 255
207 228 255
207 228 255
207 228 255
207 228 255
207 228 255
207 228 255
207 228 255
207 227 255
207 227 255
207 227 255
207 227 255
207 227 255
206 227 255
206 227 255
206 227 255
206 227 255
206 227 255
206 227 255
206 227 255
206 227 255
206 227 255
206 227 255
206 227 255
206 227 255
206 227 255
206 227 255
206 227 255
206 227 255
206 227 255
206 227 255
206 227 255
206 227 255
206 227 255
206 227 255
206 227 255
206 227 255
205 227 255
205 227 255
205 227 255
205 227 255
205 227 255
205 227 255
205 227 255
205 227 255
205 227 255
205 227 255
205 227 255
205 227 255
205 227 255
205 227 255
205 227 255
205 227 255
205 227 255
205 227 255
205 227 255
205 227 255
205 227 255
205 227 255
205 227 255
205 227 255
205 227 255
205 227 255
205 226 255
205 226 255
205 226 255
205 226 255
205 226 255
205 226 255
205 226 255
205 226 255
205 226 255
205 226 255
205 226 255
205 226 255
205 226 255
205 226 255
205 226 255
205 226 255
205 226 255
205 226 255
205 226 255
205 227 255
205 227 255
205 227 255
205 227 255
205 227 255
205 227 255
205 227 255
205 227 255
205 227 255
205 227 255
205 227 255
205 227 255
205 227 255
205 227 255
205 227 255
205 227 255
205 227 255
205 227 255
205 227 255
205 227 255
205 227 255
205 227 255
205 227 255
205 227 255
205 227 255
205 227 255
206 227 255
206 227 255
206 227 255
206 227 255
206 227 255
206 227 255
206 227 255
206 227 255
206 227 255
206 227 255
206 227 255
206 227 255
206 227 255
206 227 255
206 227 255
206 227 255
206 227 255
206 227 255
206 227 255
206 227 255
206 227 255
206 227 255
206 227 255
207 227 255
207 227 255
207 227 255
207 227 255
207 227 255
207 228 255
207 228 255
207 228 255
207 228 255
207 228 255
207 228 255
207 228 255
207 228 255
207 228 255
207 228 255
207 228 255
207 228 255
207 228 255
207 228 255
207 228 255
208 228 255
208 228 255
208 228 255
208 228 255
208 228 255
208 228 255
208 228 255
208 228 255
208 228 255
208 228 255
208 228 255
208 228 255
206 225 252
179 191 196
143 145 120
134 132 87
127 125 84
141 139 93
145 143 96
140 138 92
140 138 93
137 136 91
137 136 91
139 138 93
137 136 91
143 143 96
141 141 95
143 142 96
155 154 103
147 147 99
144 143 96
141 141 95
138 137 93
146 145 97
148 147 99
145 144 97
142 141 95
143 142 95
148 147 99
152 152 102
154 153 103
148 146 98
145 143 96
156 154 103
149 148 99
153 151 101
148 147 99
151 149 99
144 142 95
152 150 100
148 147 99
144 142 95
143 141 94
150 148 99
143 141 95
151 150 101
147 146 97
148 146 97
149 147 99
158 156 104
150 148 99
153 151 101
160 158 106
151 150 101
151 149 99
155 153 102
150 147 97
148 146 97
143 141 94
147 145 96
147 144 95
148 144 95
151 148 98
147 145 97
146 143 95
149 145 95
144 141 93
157 155 103
150 147 97
141 140 93
144 142 95
149 147 97
151 148 99
144 141 91
160 157 103
146 143 94
149 147 97
145 143 95
157 153 101
153 150 99
148 145 93
147 144 92
147 145 94
154 150 98
145 141 92
150 146 95
137 135 87
142 139 92
155 151 98
136 133 89
142 138 88
151 147 95
154 150 97
147 143 93
145 142 93
151 147 96
146 142 92
140 138 90
143 140 90
140 137 87
144 140 92
144 141 90
133 130 81
144 141 90
151 146 93
139 136 87
140 136 87
145 140 88
137 133 83
134 130 83
135 132 85
174 193 218
174 193 219
172 192 218
179 199 226
176 196 224
178 199 227
180 201 228
179 200 228
179 200 228
178 200 228
178 200 228
178 200 228
177 199 228
177 199 228
177 199 228
176 199 228
176 199 228
175 198 228
175 198 228
175 198 228
175 198 228
174 198 228
175 198 228
174 198 228
173 197 228
173 197 228
173 197 228
173 197 228
173 197 228
172 196 228
171 196 228
172 196 228
171 196 228
171 196 228
171 196 228
171 196 228
170 196 228
170 195 228
170 195 228
170 196 228
169 195 228
169 195 228
169 195 228
169 195 228
168 194 228
169 195 228
168 194 228
168 194 228
168 194 228
167 194 228
167 194 228
167 194 228
167 194 228
167 194 228
166 193 228
166 193 228
166 194 228
166 194 228
166 193 228
165 193 228
165 193 228
165 193 228
165 193 228
165 193 228
165 193 228
164 193 228
164 193 228
164 193 228
164 192 228
164 192 228
164 193 228
164 192 228
164 192 228
164 192 228
164 192 228
164 192 228
163 192 228
164 192 228
163 192 228
163 192 228
164 192 228
163 192 228
163 192 228
163 192 228
164 192 228
164 192 228
164 192 228
164 192 228
164 193 228
164 193 228
165 193 228
165 193 228
165 193 228
165 193 228
166 193 228
165 193 228
167 194 228
167 194 228
167 194 228
168 195 228
169 195 228
169 195 228
169 194 227
168 192 224
164 187 218
165 188 218
159 181 209
155 175 202
156 175 200
181 199 224
207 227 254
208 228 255
208 228 255
208 228 255
208 228 255
208 228 255
208 228 255
208 228 255
208 228 255
208 228 255
208 228 255
208 228 255
208 228 255
208 228 255
208 228 255
207 228 255
207 228 255
207 228 255
207 228 255
207 228 255
207 228 255
207 228 255
207 228 255
207 228 255
207 228 255
207 228 255
207 228 255
207 228 255
207 228 255
207 228 255
207 228 255
207 227 255
207 227 255
207 227 255
207 227 255
207 227 255
206 227 255
206 227 255
206 227 255
206 227 255
206 227 255
206 227 255
206 227 255
206 227 255
206 227 255
206 227 255
206 227 255
206 227 255
206 227 255
206 227 255
206 227 255
206 227 255
206 227 255
206 227 255
206 227 255
206 227 255
206 227 255
206 227 255
206 227 255
206 227 255
206 227 255
206 227 255
206 227 255
205 227 255
205 227 255
205 227 255
205 227 255
205 227 255
205 227 255
205 227 255
205 227 255
205 227 255
205 227 255
205 227 255
205 227 255
205 227 255
205 227 255
205 227 255
205 227 255
205 227 255
205 227 255
205 227 255
205 227 255
205 227 255
205 227 255
205 227 255
205 227 255
205 227 255
199 221 252
203 225 254
200 222 252
204 226 255
205 227 255
205 227 255
205 227 255
205 227 255
205 227 255
205 227 255
205 227 255
205 227 255
205 227 255
205 227 255
205 227 255
205 227 255
205 227 255
205 227 255
205 227 255
205 227 255
205 227 255
205 227 255
205 227 255
205 227 255
205 227 255
205 227 255
205 227 255
205 227 255
205 227 255
206 227 255
206 227 255
206 227 255
206 227 255
206 227 255
206 227 255
206 227 255
206 227 255
206 227 255
206 227 255
206 227 255
206 227 255
206 227 255
206 227 255
206 227 255
206 227 255
206 227 255
206 227 255
206 227 255
206 227 255
206 227 255
206 227 255
206 227 255
206 227 255
206 227 255
206 227 255
206 227 255
207 227 255
207 227 255
207 227 255
207 227 255
207 227 255
207 228 255
207 228 255
207 228 255
207 228 255
207 228 255
207 228 255
207 228 255
207 228 255
207 228 255
207 228 255
207 228 255
207 228 255
207 228 255
207 228 255
207 228 255
207 228 255
208 228 255
208 228 255
208 228 255
208 228 255
208 228 255
208 228 255
208 228 255
208 228 255
208 228 255
208 228 255
208 228 255
208 228 255
208 228 255
208 228 255
205 225 251
182 194 203
135 137 114
124 123 82
135 134 90
132 131 88
137 135 90
134 133 90
141 139 93
138 137 92
137 136 91
151 149 99
140 139 94
140 140 94
147 145 97
139 137 92
147 146 98
140 140 94
140 139 94
148 147 99
143 142 96
144 142 95
140 140 94
141 139 93
153 151 101
145 143 96
155 152 102
150 149 100
152 150 101
146 145 97
150 148 99
148 148 99
151 150 101
155 153 103
157 156 104
151 150 101
153 151 101
152 151 101
154 152 102
152 150 101
151 149 100
149 147 98
152 149 99
156 154 103
157 155 103
154 151 100
151 149 99
154 152 101
142 140 93
152 150 101
159 157 104
147 146 98
153 150 100
156 153 103
150 148 98
158 154 102
150 148 98
148 146 97
158 154 103
150 148 98
149 147 97
155 153 102
153 150 99
152 149 98
148 146 97
153 150 99
157 154 101
153 149 99
152 149 99
148 145 95
153 150 99
151 149 99
155 151 99
153 151 99
154 151 99
148 144 95
153 150 98
146 143 93
154 151 99
145 142 92
149 145 96
148 145 95
156 152 99
149 146 95
143 139 91
148 144 92
153 149 98
143 139 91
141 137 89
150 146 94
143 140 90
146 143 93
141 137 88
144 141 92
147 143 92
140 137 90
148 144 90
145 142 90
146 142 92
151 146 90
148 144 91
146 143 90
150 145 93
142 138 86
152 149 95
136 132 83
133 129 82
135 132 86
147 143 91
152 148 95
147 142 91
177 197 224
177 197 224
180 201 228
180 201 228
179 200 228
179 200 228
179 200 228
179 200 228
178 200 228
177 199 228
177 199 228
178 200 228
177 199 228
176 199 228
176 199 228
176 198 228
176 199 228
175 198 228
174 198 228
175 198 228
175 198 228
175 198 228
174 198 228
172 197 228
174 197 228
172 197 228
172 197 228
172 197 228
173 197 228
171 196 228
172 196 228
171 196 228
171 196 228
171 196 228
171 196 228
170 196 228
171 196 228
171 196 228
170 195 228
169 195 228
170 195 228
169 195 228
168 195 228
169 195 228
168 194 228
168 195 228
168 194 228
167 194 228
167 194 228
167 194 228
167 194 228
167 194 228
167 194 228
166 194 228
166 193 228
166 194 228
166 193 228
166 193 228
165 193 228
165 193 228
165 193 228
165 193 228
165 193 228
165 193 228
165 193 228
164 192 228
165 193 228
164 192 228
164 192 228
164 192 228
164 192 228
164 192 228
164 192 228
164 192 228
164 192 228
163 192 228
163 192 228
163 192 228
163 192 228
163 192 228
163 192 228
163 192 228
163 192 228
163 192 228
164 192 228
163 192 228
164 192 228
163 192 228
164 192 228
164 192 228
164 192 228
164 192 228
164 192 228
165 193 228
164 193 228
165 193 228
166 193 228
165 193 228
166 193 228
167 194 228
167 194 228
168 194 228
169 195 228
170 195 228
170 196 228
168 193 225
169 193 225
161 184 214
164 187 217
154 174 200
154 172 196
186 205 231
206 226 252
208 228 255
208 228 255
208 228 255
208 228 255
208 228 255
208 228 255
208 228 255
208 228 255
208 228 255
208 228 255
208 228 255
208 228 255
208 228 255
208 228 255
208 228 255
208 228 255
208 228 255
207 228 255
207 228 255
207 228 255
207 228 255
207 228 255
207 228 255
207 228 255
207 228 255
207 228 255
207 228 255
207 228 255
207 228 255
207 228 255
207 228 255
207 228 255
207 228 255
207 227 255
207 227 255
207 227 255
207 227 255
207 227 255
207 227 255
206 227 255
206 227 255
206 227 255
206 227 255
206 227 255
206 227 255
206 227 255
206 227 255
206 227 255
206 227 255
206 227 255
206 227 255
206 227 255
206 227 255
206 227 255
206 227 255
206 227 255
206 227 255
206 227 255
206 227 255
206 227 255
206 227 255
206 227 255
206 227 255
206 227 255
206 227 255
206 227 255
206 227 255
206 227 255
206 227 255
206 227 255
206 227 255
206 227 255
205 227 255
205 227 255
205 227 255
205 227 255
202 223 253
189 211 243
171 193 233
158 181 224
140 164 214
116 142 198
85 116 182
78 111 184
62 99 178
62 99 179
62 98 173
62 99 179
61 98 175
62 99 178
73 107 182
94 123 190
124 149 203
133 157 208
153 176 221
175 197 235
189 211 244
204 226 255
205 227 255
205 227 255
205 227 255
206 227 255
206 227 255
206 227 255
206 227 255
206 227 255
206 227 255
206 227 255
206 227 255
206 227 255
206 227 255
206 227 255
206 227 255
206 227 255
206 227 255
206 227 255
206 227 255
206 227 255
206 227 255
206 227 255
206 227 255
206 227 255
206 227 255
206 227 255
206 227 255
206 227 255
206 227 255
206 227 255
206 227 255
206 227 255
206 227 255
206 227 255
206 227 255
206 227 255
206 227 255
207 227 255
207 227 255
207 227 255
207 227 255
207 227 255
207 227 255
207 228 255
207 228 255
207 228 255
207 228 255
207 228 255
207 228 255
207 228 255
207 228 255
207 228 255
207 228 255
207 228 255
207 228 255
207 228 255
207 228 255
207 228 255
207 228 255
208 228 255
208 228 255
208 228 255
208 228 255
208 228 255
208 228 255
208 228 255
208 228 255
208 228 255
208 228 255
208 228 255
208 228 255
208 228 255
208 228 255
208 228 255
208 228 255
208 228 255
206 225 251
173 184 192
148 147 112
136 134 90
128 126 84
138 136 90
137 135 90
135 134 90
146 144 97
135 134 90
145 143 96
139 138 93
140 139 93
148 146 97
137 136 92
146 145 97
143 142 95
140 139 93
154 152 102
144 143 96
150 149 100
151 149 100
140 139 93
155 153 103
145 144 97
140 139 93
156 155 104
149 147 99
149 148 99
147 145 97
142 141 95
151 149 100
152 150 101
150 149 100
150 148 99
154 152 102
159 156 104
159 157 105
153 152 102
157 155 104
156 154 103
157 155 104
147 145 97
150 149 99
158 155 104
153 152 103
149 147 98
152 150 100
150 148 97
156 154 103
147 145 97
151 149 98
155 152 101
153 151 101
154 152 101
151 148 99
158 156 104
143 142 95
155 153 102
151 148 99
153 150 99
153 151 99
150 147 97
157 153 99
149 147 97
143 141 93
155 151 99
146 144 93
152 149 99
150 147 97
148 146 97
147 145 96
144 141 93
153 150 97
151 148 97
152 148 97
163 159 102
151 147 97
151 148 95
153 148 96
149 147 93
151 148 97
154 149 97
154 151 98
148 145 93
158 155 101
153 150 98
146 142 93
159 154 100
144 140 93
132 129 83
148 144 93
154 150 97
140 137 88
148 144 92
154 151 99
145 141 89
148 144 90
143 139 89
143 139 90
149 144 93
141 138 89
153 149 96
144 140 89
139 136 87
135 131 83
143 140 89
148 145 94
142 139 88
139 135 86
150 146 92
135 133 87
129 127 80
180 201 228
179 199 227
181 201 228
179 200 228
180 201 228
179 200 228
179 200 228
179 200 228
178 200 228
178 200 228
177 199 228
178 200 228
177 199 228
177 199 228
176 199 228
176 199 228
175 198 228
175 198 228
175 198 228
175 198 228
174 197 228
174 198 228
174 198 228
174 197 228
174 198 228
173 197 228
173 197 228
172 197 228
173 197 228
173 197 228
172 196 228
172 197 228
171 196 228
171 196 228
171 196 228
171 196 228
170 196 228
170 195 228
170 195 228
170 195 228
169 195 228
170 195 228
169 195 228
169 195 228
168 194 228
167 194 228
167 194 228
167 194 228
168 195 228
167 194 228
167 194 228
167 194 228
167 194 228
167 194 228
167 194 228
166 193 228
166 193 228
165 193 228
165 193 228
165 193 228
165 193 228
165 193 228
165 193 228
165 193 228
165 193 228
165 193 228
164 193 228
164 192 228
164 192 228
164 192 228
164 192 228
164 192 228
164 192 228
163 192 228
163 192 228
163 192 228
163 192 228
163 192 228
163 192 228
163 192 228
163 192 228
163 192 228
163 192 228
163 192 228
163 192 228
163 192 228
163 192 228
163 192 228
163 192 228
163 192 228
163 192 228
164 192 228
164 192 228
164 192 228
164 192 228
164 193 228
164 192 228
165 193 228
165 193 228
165 193 228
166 194 228
166 193 228
167 194 228
168 194 228
168 194 228
169 195 228
170 195 228
169 193 225
169 193 224
162 184 214
162 184 213
158 179 206
165 184 209
183 202 227
207 227 254
208 228 255
208 228 255
208 228 255
208 228 255
208 228 255
208 228 255
208 228 255
208 228 255
208 228 255
208 228 255
208 228 255
208 228 255
208 228 255
208 228 255
208 228 255
208 228 255
208 228 255
208 228 255
208 228 255
208 228 255
207 228 255
207 228 255
207 228 255
207 228 255
207 228 255
207 228 255
207 228 255
207 228 255
207 228 255
207 228 255
207 228 255
207 228 255
207 228 255
207 228 255
207 228 255
207 228 255
207 228 255
207 227 255
207 227 255
207 227 255
207 227 255
207 227 255
207 227 255
207 227 255
206 227 255
206 227 255
206 227 255
206 227 255
206 227 255
206 227 255
206 227 255
206 227 255
206 227 255
206 227 255
206 227 255
206 227 255
206 227 255
206 227 255
206 227 255
206 227 255
206 227 255
206 227 255
206 227 255
206 227 255
206 227 255
206 227 255
206 227 255
206 227 255
206 227 255
206 227 255
201 222 252
181 203 239
143 167 216
114 141 197
73 107 176
62 99 177
62 99 172
62 99 175
61 98 174
62 99 178
63 100 180
62 99 177
62 99 175
61 98 175
62 99 178
62 99 176
61 98 173
62 99 175
62 99 171
62 99 176
62 99 178
62 99 176
62 98 173
62 99 178
62 99 178
68 103 181
112 139 198
159 182 223
182 204 238
202 223 253
206 227 255
206 227 255
206 227 255
206 227 255
206 227 255
206 227 255
206 227 255
206 227 255
206 227 255
206 227 255
206 227 255
206 227 255
206 227 255
206 227 255
206 227 255
206 227 255
206 227 255
206 227 255
206 227 255
206 227 255
206 227 255
206 227 255
206 227 255
206 227 255
206 227 255
206 227 255
206 227 255
207 227 255
207 227 255
207 227 255
207 227 255
207 227 255
207 227 255
207 228 255
207 228 255
207 228 255
207 228 255
207 228 255
207 228 255
207 228 255
207 228 255
207 228 255
207 228 255
207 228 255
207 228 255
207 228 255
207 228 255
207 228 255
207 228 255
207 228 255
208 228 255
208 228 255
208 228 255
208 228 255
208 228 255
208 228 255
208 228 255
208 228 255
208 228 255
208 228 255
208 228 255
208 228 255
208 228 255
208 228 255
208 228 255
208 228 255
208 228 255
208 228 255
208 228 255
208 228 255
208 227 253
180 194 205
142 144 116
132 130 86
140 138 92
146 145 97
143 141 94
131 129 87
137 135 90
139 138 93
135 133 89
146 144 97
146 145 98
145 144 97
145 143 96
146 145 97
142 141 95
148 148 99
151 149 100
148 147 99
151 150 101
147 146 98
149 147 99
151 149 100
161 159 106
150 149 101
146 145 97
149 147 99
147 146 98
155 153 102
152 151 101
152 151 102
154 153 103
151 149 100
150 148 99
150 149 101
146 144 97
159 157 104
150 149 100
156 155 104
152 150 101
146 144 96
150 148 99
165 162 108
153 150 100
156 153 102
158 155 103
147 145 97
152 149 99
158 156 104
148 145 97
155 152 101
153 151 101
150 148 99
150 148 99
156 153 101
150 148 98
153 150 99
153 150 99
154 151 101
144 142 95
158 155 103
149 146 96
163 160 106
153 149 97
152 149 97
158 155 102
147 145 96
156 153 100
154 151 99
142 140 93
161 157 103
157 154 101
152 149 99
157 153 100
155 152 100
153 151 99
153 148 96
155 152 99
155 151 99
152 148 96
150 147 97
151 147 95
147 144 93
151 147 95
154 150 98
157 154 101
157 153 101
155 151 99
152 147 95
144 141 93
155 152 99
150 145 93
152 149 97
149 144 93
143 140 87
156 152 95
149 145 94
142 138 88
156 152 99
144 141 91
138 135 87
144 141 90
144 140 92
142 139 91
136 133 84
140 136 87
152 147 95
144 140 89
149 146 93
136 132 85
139 136 85
139 135 87
144 139 87
145 141 87
180 201 228
180 201 228
180 201 228
180 201 228
179 200 228
178 200 228
178 200 228
178 200 228
178 200 228
178 200 228
178 199 228
177 199 228
177 199 228
176 199 228
176 199 228
175 198 228
175 198 228
175 198 228
175 198 228
175 198 228
174 198 228
174 198 228
173 197 228
173 197 228
174 198 228
174 197 228
172 197 228
173 197 228
172 197 228
172 196 228
172 196 228
172 196 228
170 196 228
171 196 228
171 196 228
170 196 228
171 196 228
170 195 228
170 196 228
170 195 228
170 195 228
169 195 228
169 195 228
169 195 228
169 195 228
168 195 228
168 194 228
168 194 228
167 194 228
168 194 228
168 194 228
167 194 228
167 194 228
167 194 228
166 194 228
167 194 228
166 193 228
166 193 228
166 194 228
165 193 228
166 193 228
165 193 228
165 193 228
165 193 228
165 193 228
164 192 228
164 193 228
164 193 228
164 193 228
164 192 228
164 192 228
163 192 228
163 192 228
163 192 228
163 192 228
163 192 228
163 192 228
163 192 228
163 192 228
163 192 228
163 192 228
163 192 228
163 192 228
163 192 228
163 192 228
163 192 228
163 192 228
163 192 228
163 192 228
163 192 228
163 192 228
163 192 228
163 192 228
164 192 228
164 192 228
164 192 228
164 192 228
165 193 228
165 193 228
164 193 228
165 193 228
166 193 228
166 193 228
167 194 228
167 194 228
167 194 228
168 194 228
169 195 228
170 196 228
171 196 228
166 190 221
170 193 224
160 181 209
161 182 209
164 183 208
185 203 228
209 229 255
209 229 255
209 228 255
208 228 255
208 228 255
208 228 255
208 228 255
208 228 255
208 228 255
208 228 255
208 228 255
208 228 255
208 228 255
208 228 255
208 228 255
208 228 255
208 228 255
208 228 255
208 228 255
208 228 255
208 228 255
208 228 255
208 228 255
208 228 255
208 228 255
207 228 255
207 228 255
207 228 255
207 228 255
207 228 255
207 228 255
207 228 255
207 228 255
207 228 255
207 228 255
207 228 255
207 228 255
207 228 255
207 228 255
207 228 255
207 228 255
207 228 255
207 228 255
207 227 255
207 227 255
207 227 255
207 227 255
207 227 255
207 227 255
207 227 255
206 227 255
206 227 255
206 227 255
206 227 255
206 227 255
206 227 255
206 227 255
206 227 255
206 227 255
206 227 255
206 227 255
206 227 255
206 227 255
206 227 255
206 227 255
206 227 255
201 222 252
174 196 235
132 156 208
78 111 181
62 99 174
63 100 178
61 98 177
61 98 174
62 99 175
62 99 176
62 99 172
62 99 176
63 99 175
63 99 176
62 99 174
62 99 169
62 99 171
61 98 173
61 98 173
61 98 170
63 99 172
63 99 179
62 99 173
62 98 170
62 98 171
62 99 177
61 98 176
61 98 173
62 99 175
62 99 175
62 99 175
61 98 171
76 109 182
121 146 203
165 188 228
200 222 252
206 227 255
206 227 255
206 227 255
206 227 255
206 227 255
206 227 255
206 227 255
206 227 255
206 227 255
206 227 255
206 227 255
206 227 255
206 227 255
206 227 255
206 227 255
206 227 255
207 227 255
207 227 255
207 227 255
207 227 255
207 227 255
207 227 255
207 227 255
207 228 255
207 228 255
207 228 255
207 228 255
207 228 255
207 228 255
207 228 255
207 228 255
207 228 255
207 228 255
207 228 255
207 228 255
207 228 255
207 228 255
207 228 255
207 228 255
207 228 255
207 228 255
208 228 255
208 228 255
208 228 255
208 228 255
208 228 255
208 228 255
208 228 255
208 228 255
208 228 255
208 228 255
208 228 255
208 228 255
208 228 255
208 228 255
208 228 255
208 228 255
208 228 255
208 228 255
208 228 255
208 228 255
208 228 255
209 228 255
209 228 255
209 229 255
209 229 255
194 211 229
149 152 127
138 135 90
136 133 88
143 141 94
138 136 92
141 140 94
134 133 90
134 133 89
138 137 92
148 146 98
136 135 92
152 150 100
140 139 94
132 131 89
152 151 101
147 146 98
150 148 100
155 154 103
152 151 101
150 149 100
145 143 95
147 146 98
140 139 93
148 147 99
143 142 96
153 152 102
141 139 93
153 151 101
150 149 100
157 154 103
151 149 100
147 146 98
158 156 104
153 151 101
158 155 103
147 145 97
151 149 100
148 146 98
156 153 102
152 151 101
153 152 102
156 154 103
150 147 98
156 154 103
157 155 104
159 157 105
153 151 101
157 156 104
155 152 101
158 155 103
151 149 100
157 153 101
161 157 103
154 152 100
155 152 101
151 149 99
151 149 99
155 152 101
152 149 98
157 153 101
150 147 97
161 158 106
154 151 100
154 151 99
156 152 100
148 146 96
148 145 94
158 155 103
156 152 101
160 156 104
157 154 101
155 152 100
154 150 99
155 152 98
149 146 96
152 149 97
165 162 104
157 153 101
155 153 100
163 159 102
148 144 95
145 142 92
153 149 97
148 144 92
153 149 95
154 151 98
154 151 99
147 143 93
152 148 97
144 140 92
150 146 93
146 143 93
151 147 95
152 147 94
152 149 97
153 149 96
144 140 89
144 141 89
150 146 93
153 150 97
150 145 93
143 139 89
148 143 90
148 145 94
145 140 89
148 144 92
147 143 92
138 135 85
149 145 90
150 145 90
136 133 86
139 135 86
139 135 84
145 141 87
140 137 86
180 201 228
180 201 228
180 201 228
179 200 228
179 200 228
179 200 228
177 199 228
178 200 228
178 200 228
177 199 228
177 199 228
176 199 228
176 199 228
176 199 228
176 198 228
176 199 228
176 198 228
175 198 228
175 198 228
174 198 228
174 197 228
174 198 228
174 197 228
174 197 228
174 197 228
173 197 228
172 197 228
172 197 228
173 197 228
172 197 228
171 196 228
172 196 228
171 196 228
172 196 228
171 196 228
171 196 228
170 195 228
171 196 228
170 196 228
170 195 228
170 195 228
169 195 228
169 195 228
168 195 228
169 195 228
169 195 228
168 195 228
168 195 228
168 194 228
168 194 228
168 194 228
167 194 228
167 194 228
167 194 228
166 194 228
166 193 228
166 193 228
166 193 228
166 193 228
165 193 228
165 193 228
165 193 228
165 193 228
165 193 228
164 193 228
165 193 228
164 193 228
164 192 228
164 192 228
164 192 228
164 192 228
164 192 228
164 192 228
163 192 228
163 192 228
163 192 228
163 192 228
163 192 228
163 192 228
163 192 228
163 192 228
163 192 228
163 192 228
163 192 228
163 192 228
163 192 228
163 192 228
163 192 228
163 192 228
163 192 228
163 192 228
163 192 228
163 192 228
163 192 228
163 192 228
163 192 228
163 192 228
164 192 228
164 192 228
164 192 228
164 193 228
164 193 228
165 193 228
166 193 228
166 193 228
166 193 228
166 194 228
168 194 228
168 195 228
170 195 228
170 195 228
170 195 227
171 195 227
162 184 213
164 186 214
158 178 204
168 186 210
199 218 244
209 229 255
209 229 255
209 229 255
209 229 255
209 229 255
209 228 255
208 228 255
208 228 255
208 228 255
208 228 255
208 228 255
208 228 255
208 228 255
208 228 255
208 228 255
208 228 255
208 228 255
208 228 255
208 228 255
208 228 255
208 228 255
208 228 255
208 228 255
208 228 255
208 228 255
208 228 255
208 228 255
208 228 255
207 228 255
207 228 255
207 228 255
207 228 255
207 228 255
207 228 255
207 228 255
207 228 255
207 228 255
207 228 255
207 228 255
207 228 255
207 228 255
207 228 255
207 228 255
207 228 255
207 228 255
207 228 255
207 228 255
207 228 255
207 227 255
207 227 255
207 227 255
207 227 255
207 227 255
207 227 255
207 227 255
207 227 255
207 227 255
207 227 255
206 227 255
206 227 255
206 227 255
206 227 255
186 207 242
128 152 204
83 114 184
62 99 178
62 98 173
61 98 176
62 99 174
62 99 176
63 99 179
62 99 171
62 98 168
62 99 172
62 98 169
62 99 178
61 98 170
62 99 172
62 99 173
62 98 172
63 99 173
62 99 168
62 99 173
62 99 175
62 99 178
63 99 176
63 99 172
63 99 176
62 98 172
62 98 172
62 98 170
62 98 175
62 98 173
61 98 167
62 99 178
62 98 171
61 98 171
62 99 174
62 99 175
73 107 178
138 162 208
185 206 240
206 227 255
206 227 255
206 227 255
206 227 255
206 227 255
207 227 255
207 227 255
207 227 255
207 227 255
207 227 255
207 227 255
207 227 255
207 227 255
207 227 255
207 228 255
207 228 255
207 228 255
207 228 255
207 228 255
207 228 255
207 228 255
207 228 255
207 228 255
207 228 255
207 228 255
207 228 255
207 228 255
207 228 255
207 228 255
207 228 255
207 228 255
207 228 255
207 228 255
207 228 255
208 228 255
208 228 255
208 228 255
208 228 255
208 228 255
208 228 255
208 228 255
208 228 255
208 228 255
208 228 255
208 228 255
208 228 255
208 228 255
208 228 255
208 228 255
208 228 255
208 228 255
208 228 255
208 228 255
208 228 255
208 228 255
209 228 255
209 228 255
209 229 255
209 229 255
209 229 255
209 229 255
209 229 255
201 219 241
158 165 157
136 134 90
139 137 91
140 138 92
140 138 92
143 141 94
141 139 93
138 137 92
137 135 91
147 145 98
142 141 95
138 137 92
150 148 99
141 139 93
147 146 98
142 141 95
152 151 101
143 142 95
156 155 104
142 141 95
159 158 106
150 149 100
149 148 99
150 148 100
152 151 102
153 152 102
157 155 104
153 151 101
148 147 98
152 150 100
155 153 103
153 151 101
151 149 100
152 151 101
155 153 102
156 154 103
152 150 100
162 161 108
159 157 105
151 149 100
151 148 99
160 157 104
156 154 103
161 160 107
153 151 101
153 151 101
156 154 103
156 153 102
156 153 102
163 160 106
149 147 99
157 155 103
160 158 105
163 160 105
154 151 99
162 159 106
156 152 99
157 154 102
151 148 97
156 153 99
160 156 101
148 145 96
157 153 99
159 155 101
153 149 99
153 149 98
154 151 99
166 163 109
150 147 97
150 146 97
158 154 101
160 157 103
154 152 99
155 153 102
157 154 100
146 143 95
150 146 93
152 149 98
160 156 101
159 154 100
160 156 103
145 142 91
150 147 95
152 149 96
155 152 99
150 146 95
147 145 95
149 145 93
147 143 89
150 146 95
154 150 95
153 150 94
150 146 93
151 149 98
144 141 89
143 140 88
152 148 97
153 148 91
145 141 89
146 143 90
146 142 90
149 145 94
147 144 93
149 145 92
151 147 93
147 144 93
151 147 95
148 144 90
147 142 92
144 140 90
151 146 92
149 145 93
141 137 87
141 137 87
144 139 89
151 147 95
145 140 88
180 201 228
180 201 228
179 200 228
179 200 228
179 200 228
179 200 228
178 200 228
177 199 228
177 199 228
177 199 228
177 199 228
176 199 228
176 199 228
176 199 228
176 199 228
176 199 228
175 198 228
173 197 228
175 198 228
175 198 228
174 198 228
174 198 228
173 197 228
173 197 228
173 197 228
173 197 228
173 197 228
172 197 228
173 197 228
172 196 228
172 197 228
172 196 228
171 196 228
171 196 228
171 196 228
170 196 228
171 196 228
170 196 228
170 196 228
170 195 228
170 195 228
169 195 228
169 195 228
169 195 228
169 195 228
168 195 228
168 195 228
168 195 228
168 195 228
168 194 228
168 194 228
168 194 228
167 194 228
167 194 228
167 194 228
167 194 228
166 194 228
166 193 228
166 193 228
166 193 228
165 193 228
165 193 228
165 193 228
165 193 228
165 193 228
165 193 228
164 193 228
164 193 228
164 192 228
164 193 228
164 192 228
164 192 228
164 192 228
164 192 228
163 192 228
163 192 228
163 192 228
163 192 228
163 192 228
163 192 228
163 192 228
163 192 228
163 192 228
163 192 228
163 192 228
163 192 228
163 192 228
163 192 228
163 192 228
163 192 228
163 192 228
163 192 228
163 192 228
163 192 228
163 192 228
163 192 228
163 192 228
163 192 228
163 192 228
164 192 228
164 192 228
164 193 228
165 193 228
165 193 228
165 193 228
166 193 228
166 193 228
166 194 228
168 195 228
168 195 228
169 195 228
170 196 228
171 196 228
173 197 228
168 192 223
165 188 217
160 181 208
148 167 191
174 191 215
205 225 251
209 229 255
209 229 255
209 229 255
209 229 255
209 229 255
209 229 255
209 229 255
209 229 255
209 228 255
209 228 255
208 228 255
208 228 255
208 228 255
208 228 255
208 228 255
208 228 255
208 228 255
208 228 255
208 228 255
208 228 255
208 228 255
208 228 255
208 228 255
208 228 255
208 228 255
208 228 255
208 228 255
208 228 255
208 228 255
208 228 255
208 228 255
208 228 255
208 228 255
207 228 255
207 228 255
207 228 255
207 228 255
207 228 255
207 228 255
207 228 255
207 228 255
207 228 255
207 228 255
207 228 255
207 228 255
207 228 255
207 228 255
207 228 255
207 228 255
207 228 255
207 228 255
207 228 255
207 228 255
207 228 255
207 228 255
207 228 255
207 228 255
205 226 254
163 185 224
104 132 194
62 99 176
62 99 175
61 98 173
61 98 171
62 99 177
62 99 177
62 99 171
62 98 170
62 99 172
62 99 173
63 99 173
63 100 176
62 99 178
62 99 172
63 99 173
62 98 169
63 99 176
61 98 166
61 98 167
62 99 172
62 98 171
62 99 170
61 97 165
62 98 170
63 99 174
62 99 170
62 99 171
63 99 173
61 98 175
62 99 172
62 99 178
63 99 174
61 98 173
62 99 170
62 99 175
61 97 170
62 98 175
61 97 170
61 97 173
62 98 174
100 128 192
170 192 232
204 225 254
207 227 255
207 228 255
207 228 255
207 228 255
207 228 255
207 228 255
207 228 255
207 228 255
207 228 255
207 228 255
207 228 255
207 228 255
207 228 255
207 228 255
207 228 255
207 228 255
207 228 255
207 228 255
207 228 255
207 228 255
207 228 255
207 228 255
207 228 255
207 228 255
208 228 255
208 228 255
208 228 255
208 228 255
208 228 255
208 228 255
208 228 255
208 228 255
208 228 255
208 228 255
208 228 255
208 228 255
208 228 255
208 228 255
208 228 255
208 228 255
208 228 255
208 228 255
208 228 255
208 228 255
208 228 255
208 228 255
208 228 255
208 228 255
209 228 255
209 229 255
209 229 255
209 229 255
209 229 255
209 229 255
209 229 255
209 229 255
209 229 255
208 227 253
183 196 203
129 127 89
118 117 78
139 137 91
136 134 90
144 142 95
149 147 98
142 141 94
141 140 93
140 139 94
148 147 98
140 139 94
148 147 99
144 143 97
151 150 101
144 143 97
153 151 101
148 147 98
149 147 98
152 151 101
147 146 98
153 152 102
153 152 102
156 154 103
156 154 103
148 146 98
149 148 99
148 147 99
150 149 100
151 149 100
152 150 100
157 155 103
158 156 104
151 149 100
155 153 103
164 161 108
155 153 103
157 155 103
161 159 106
158 155 103
153 151 101
159 157 104
158 156 104
161 158 105
165 162 108
160 157 104
155 153 102
162 159 106
157 155 104
159 155 102
156 154 103
158 155 103
152 150 100
156 154 102
160 156 104
158 154 103
156 154 102
159 155 102
155 153 103
156 152 101
156 152 99
159 156 104
159 157 104
162 159 106
158 155 103
145 142 93
160 158 105
160 157 103
153 149 98
157 154 101
155 152 100
157 154 102
146 142 92
160 157 104
155 152 101
152 149 98
155 152 101
154 150 98
149 146 95
155 151 98
152 148 95
157 152 97
157 153 99
154 151 97
151 147 97
161 157 101
155 151 99
157 153 99
158 154 100
157 154 97
155 150 97
156 153 99
156 152 99
155 152 97
150 147 95
160 156 102
157 152 97
154 150 97
151 147 93
161 156 99
151 146 94
152 148 94
138 135 88
155 150 96
148 144 93
146 143 89
152 148 95
151 147 94
152 148 93
140 136 87
143 139 87
143 138 87
146 142 89
149 145 92
148 144 93
148 144 89
146 141 90
155 150 94
145 139 87
180 201 228
179 200 228
179 200 228
178 200 228
178 200 228
178 200 228
178 200 228
177 199 228
177 199 228
177 199 228
178 200 228
177 199 228
177 199 228
177 199 228
176 199 228
175 198 228
176 199 228
175 198 228
174 198 228
175 198 228
175 198 228
174 198 228
174 198 228
173 197 228
173 197 228
173 197 228
173 197 228
174 198 228
172 197 228
172 197 228
172 197 228
171 196 228
172 196 228
172 196 228
171 196 228
171 196 228
170 196 228
170 196 228
170 195 228
171 196 228
169 195 228
170 196 228
169 195 228
169 195 228
169 195 228
169 195 228
168 195 228
168 195 228
168 194 228
168 194 228
168 195 228
167 194 228
167 194 228
167 194 228
167 194 228
166 194 228
167 194 228
166 194 228
166 193 228
166 194 228
166 193 228
165 193 228
165 193 228
165 193 228
165 193 228
165 193 228
165 193 228
165 193 228
165 193 228
164 193 228
164 192 228
164 192 228
164 192 228
164 192 228
164 192 228
163 192 228
163 192 228
163 192 228
163 192 228
163 192 228
163 192 228
163 192 228
163 192 228
163 192 228
163 192 228
163 192 228
163 192 228
163 192 228
163 192 228
163 192 228
163 192 228
163 192 228
163 192 228
163 192 228
163 192 228
163 192 228
163 192 228
163 192 228
163 192 228
164 192 228
164 192 228
164 193 228
164 192 228
165 193 228
165 193 228
165 193 228
166 193 228
166 193 228
167 194 228
167 194 228
168 194 228
169 195 228
169 195 228
170 196 228
170 195 227
169 193 224
168 191 221
164 186 214
156 176 202
158 176 199
196 214 240
209 229 255
209 229 255
209 229 255
209 229 255
209 229 255
209 229 255
209 229 255
209 229 255
209 229 255
209 229 255
209 229 255
209 229 255
209 229 255
209 228 255
208 228 255
208 228 255
208 228 255
208 228 255
208 228 255
208 228 255
208 228 255
208 228 255
208 228 255
208 228 255
208 228 255
208 228 255
208 228 255
208 228 255
208 228 255
208 228 255
208 228 255
208 228 255
208 228 255
208 228 255
208 228 255
208 228 255
208 228 255
208 228 255
208 228 255
207 228 255
207 228 255
207 228 255
207 228 255
207 228 255
207 228 255
207 228 255
207 228 255
207 228 255
207 228 255
207 228 255
207 228 255
207 228 255
207 228 255
207 228 255
204 225 254
163 185 225
92 121 189
62 99 175
62 99 174
62 99 175
62 98 169
63 99 176
62 99 175
63 99 173
62 99 172
63 99 172
62 98 166
63 99 168
63 99 171
62 98 167
61 98 174
62 98 171
61 98 169
62 99 173
62 98 168
62 98 170
62 98 167
63 99 173
62 99 177
62 99 171
62 99 171
62 98 171
62 99 172
61 98 165
62 98 171
62 98 168
63 99 170
62 98 173
62 99 176
62 99 170
63 100 178
62 99 170
61 97 170
62 98 170
61 97 166
62 98 172
63 99 174
62 98 173
62 99 173
61 97 166
62 98 173
87 117 183
174 195 230
207 228 255
207 228 255
207 228 255
207 228 255
207 228 255
207 228 255
207 228 255
207 228 255
207 228 255
207 228 255
207 228 255
207 228 255
207 228 255
207 228 255
207 228 255
207 228 255
208 228 255
208 228 255
208 228 255
208 228 255
208 228 255
208 228 255
208 228 255
208 228 255
208 228 255
208 228 255
208 228 255
208 228 255
208 228 255
208 228 255
208 228 255
208 228 255
208 228 255
208 228 255
208 228 255
208 228 255
208 228 255
208 228 255
208 228 255
208 228 255
208 228 255
209 228 255
209 229 255
209 229 255
209 229 255
209 229 255
209 229 255
209 229 255
209 229 255
209 229 255
209 229 255
209 229 255
209 229 255
209 229 255
209 229 255
194 209 226
153 158 145
133 130 87
127 125 84
139 137 91
144 142 95
138 137 91
146 143 95
138 135 91
140 139 93
144 142 95
145 144 97
146 144 97
144 143 96
148 146 98
145 144 97
147 146 99
149 148 100
151 150 101
145 145 98
148 147 98
152 151 102
149 147 98
148 146 98
149 148 100
143 141 95
150 149 100
140 140 94
147 145 98
153 151 101
148 146 98
163 161 108
152 151 101
155 152 102
152 150 101
158 155 103
161 160 107
150 148 99
156 153 102
156 153 102
159 157 104
154 151 101
156 155 104
160 156 104
157 155 103
158 155 103
157 155 103
152 149 99
161 159 106
165 162 108
157 154 102
158 156 104
158 155 103
158 155 103
154 152 101
157 154 101
152 150 99
158 155 101
157 154 102
156 153 102
161 158 105
159 156 103
159 156 103
155 153 102
160 157 103
156 152 101
162 158 104
156 154 101
153 150 98
160 157 103
159 155 101
154 150 98
158 154 101
153 150 100
155 152 100
156 152 101
160 156 103
155 152 99
151 148 98
160 156 101
158 155 101
161 156 101
156 151 98
159 155 102
159 154 99
155 151 97
152 147 95
153 150 97
148 145 92
148 145 95
159 155 101
155 150 96
144 140 88
151 147 93
155 150 97
150 146 93
161 157 103
159 154 100
162 158 101
149 145 93
162 157 101
145 141 91
145 141 90
149 146 93
152 148 94
154 149 96
156 152 95
151 147 94
148 143 89
143 139 89
152 147 93
146 141 90
137 134 84
141 137 84
144 140 90
151 145 93
145 141 89
140 136 84
135 131 80
144 140 86
143 139 85
181 201 228
180 201 228
180 201 228
179 200 228
179 200 228
178 200 228
178 200 228
178 200 228
177 199 228
177 199 228
177 199 228
177 199 228
177 199 228
176 199 228
176 199 228
175 198 228
176 198 228
175 198 228
176 198 228
174 198 228
174 198 228
175 198 228
175 198 228
174 197 228
175 198 228
174 197 228
173 197 228
172 197 228
173 197 228
173 197 228
173 197 228
172 197 228
172 196 228
172 197 228
171 196 228
171 196 228
171 196 228
171 196 228
170 196 228
170 196 228
170 195 228
170 195 228
169 195 228
169 195 228
169 195 228
169 195 228
169 195 228
169 195 228
168 195 228
169 195 228
168 194 228
167 194 228
168 194 228
168 194 228
167 194 228
167 194 228
167 194 228
167 194 228
167 194 228
166 194 228
166 193 228
167 194 228
166 193 228
166 193 228
166 193 228
165 193 228
165 193 228
165 193 228
165 193 228
165 193 228
164 193 228
164 192 228
164 192 228
164 192 228
164 192 228
164 192 228
164 192 228
164 192 228
163 192 228
163 192 228
163 192 228
163 192 228
163 192 228
163 192 228
163 192 228
163 192 228
163 192 228
163 192 228
163 192 228
163 192 228
163 192 228
163 192 228
163 192 228
163 192 228
163 192 228
163 192 228
163 192 228
163 192 228
163 192 228
163 192 228
164 192 228
164 192 228
164 192 228
164 192 228
165 193 228
165 193 228
165 193 228
165 193 228
166 193 228
167 194 228
167 194 228
168 194 228
168 195 228
169 195 228
171 196 228
171 196 228
170 196 228
173 197 228
167 189 219
160 181 208
148 166 190
176 194 218
206 225 251
209 229 255
209 229 255
209 229 255
209 229 255
209 229 255
209 229 255
209 229 255
209 229 255
209 229 255
209 229 255
209 229 255
209 229 255
209 229 255
209 229 255
209 229 255
209 229 255
209 229 255
209 228 255
208 228 255
208 228 255
208 228 255
208 228 255
208 228 255
208 228 255
208 228 255
208 228 255
208 228 255
208 228 255
208 228 255
208 228 255
208 228 255
208 228 255
208 228 255
208 228 255
208 228 255
208 228 255
208 228 255
208 228 255
208 228 255
208 228 255
208 228 255
208 228 255
208 228 255
208 228 255
208 228 255
207 228 255
207 228 255
207 228 255
207 228 255
207 228 255
207 228 255
182 203 238
92 121 184
62 99 177
62 99 175
61 98 170
62 98 173
62 98 171
62 99 174
62 99 174
62 99 174
63 99 173
62 99 175
62 99 171
62 98 171
61 98 168
62 98 170
62 98 169
62 99 173
61 98 167
63 99 173
62 98 168
61 98 165
62 98 171
62 98 165
62 98 165
61 98 166
62 98 169
63 99 172
62 98 171
62 99 174
62 99 175
62 99 173
62 99 173
62 99 173
63 99 172
62 99 172
62 98 170
61 97 168
62 98 170
61 98 174
62 98 171
61 98 170
62 98 171
62 98 170
62 98 170
61 97 166
62 98 172
62 98 168
62 98 169
61 98 170
96 124 185
174 196 233
207 228 255
207 228 255
207 228 255
207 228 255
207 228 255
207 228 255
208 228 255
208 228 255
208 228 255
208 228 255
208 228 255
208 228 255
208 228 255
208 228 255
208 228 255
208 228 255
208 228 255
208 228 255
208 228 255
208 228 255
208 228 255
208 228 255
208 228 255
208 228 255
208 228 255
208 228 255
208 228 255
208 228 255
208 228 255
208 228 255
208 228 255
208 228 255
208 228 255
209 228 255
209 228 255
209 229 255
209 229 255
209 229 255
209 229 255
209 229 255
209 229 255
209 229 255
209 229 255
209 229 255
209 229 255
209 229 255
209 229 255
209 229 255
209 229 255
209 229 255
209 229 255
207 226 251
161 171 175
136 133 93
132 130 86
134 132 89
139 137 92
128 127 85
149 147 99
144 143 96
144 142 95
136 135 90
154 152 102
148 146 98
143 143 96
148 147 99
142 141 96
149 147 99
151 150 101
151 149 101
149 147 99
154 152 103
150 148 100
155 153 102
155 153 103
152 150 100
153 152 102
147 145 97
156 154 103
147 145 97
150 149 99
161 160 107
153 152 103
150 148 99
157 155 103
147 145 97
157 156 105
158 155 103
155 151 101
159 157 105
157 156 104
156 153 101
158 155 103
157 155 104
159 156 104
161 158 105
159 156 104
156 153 102
161 158 105
161 158 106
161 158 105
149 147 99
155 153 102
160 157 105
159 157 104
160 157 103
159 156 103
154 152 101
162 158 105
162 158 104
154 152 100
160 156 101
158 154 102
151 147 97
155 153 101
156 153 102
163 159 105
157 153 101
151 148 97
156 152 99
148 145 96
157 153 101
158 155 101
162 159 103
160 156 103
160 157 104
159 156 100
160 155 100
163 159 106
153 149 99
159 156 101
164 160 105
163 159 104
156 152 98
154 150 96
156 153 100
154 150 96
157 154 99
160 156 101
151 147 96
151 147 95
151 148 97
154 150 95
159 155 99
154 150 97
150 147 95
162 158 103
157 151 97
155 151 97
152 149 96
150 145 91
155 151 97
153 148 95
144 141 89
151 146 93
149 145 95
158 153 97
138 135 85
152 148 93
150 146 95
152 148 95
142 137 86
156 152 98
152 147 95
145 142 92
152 148 92
151 146 91
155 150 95
145 141 85
152 147 90
147 143 91
138 133 85
141 136 81
154 148 90
180 201 228
180 201 228
180 201 228
179 200 228
179 200 228
179 200 228
178 200 228
179 200 228
178 200 228
178 200 228
176 199 228
177 199 228
177 199 228
177 199 228
176 199 228
176 199 228
176 199 228
176 199 228
176 199 228
175 198 228
175 198 228
175 198 228
174 198 228
174 198 228
174 198 228
173 197 228
173 197 228
174 197 228
173 197 228
173 197 228
173 197 228
173 197 228
171 196 228
172 196 228
171 196 228
172 197 228
171 196 228
171 196 228
171 196 228
171 196 228
170 196 228
171 196 228
170 195 228
170 196 228
170 195 228
169 195 228
170 195 228
169 195 228
169 195 228
168 195 228
169 195 228
168 195 228
168 195 228
168 194 228
167 194 228
167 194 228
168 194 228
167 194 228
167 194 228
166 194 228
167 194 228
165 193 228
166 193 228
166 193 228
166 193 228
166 193 228
166 193 228
166 193 228
165 193 228
165 193 228
165 193 228
165 193 228
165 193 228
165 193 228
164 193 228
164 192 228
164 192 228
164 192 228
164 192 228
164 192 228
164 192 228
163 192 228
163 192 228
163 192 228
163 192 228
163 192 228
163 192 228
163 192 228
163 192 228
163 192 228
163 192 228
163 192 228
163 192 228
163 192 228
163 192 228
163 192 228
163 192 228
163 192 228
163 192 228
164 192 228
163 192 228
164 192 228
164 192 228
164 192 228
164 193 228
165 193 228
165 193 228
165 193 228
166 193 228
166 193 228
167 194 228
167 194 228
167 194 228
168 194 228
169 195 228
169 195 228
170 196 228
172 196 228
170 194 225
167 190 220
167 188 217
158 177 203
167 185 210
194 213 238
209 229 255
209 229 255
209 229 255
209 229 255
209 229 255
209 229 255
209 229 255
209 229 255
209 229 255
209 229 255
209 229 255
209 229 255
209 229 255
209 229 255
209 229 255
209 229 255
209 229 255
209 229 255
209 229 255
209 229 255
209 229 255
209 228 255
209 228 255
208 228 255
208 228 255
208 228 255
208 228 255
208 228 255
208 228 255
208 228 255
208 228 255
208 228 255
208 228 255
208 228 255
208 228 255
208 228 255
208 228 255
208 228 255
208 228 255
208 228 255
208 228 255
208 228 255
208 228 255
208 228 255
208 228 255
208 228 255
208 228 255
208 228 255
190 211 244
122 147 202
62 99 172
61 98 174
61 98 171
62 99 177
62 98 171
61 97 166
62 98 169
62 98 168
61 97 166
62 98 168
62 99 175
62 98 168
62 99 171
62 98 168
62 99 171
62 98 171
62 98 169
61 98 169
62 98 168
61 98 171
62 98 167
61 97 166
61 98 164
62 98 164
62 99 168
62 98 165
62 99 171
63 100 174
62 99 173
62 98 167
62 98 166
62 99 170
61 97 162
61 98 166
63 99 174
61 98 164
62 99 170
63 99 168
62 99 168
61 97 165
62 98 171
62 98 166
61 98 169
62 98 170
63 99 172
62 98 169
61 97 168
61 98 174
62 98 168
61 98 174
61 98 170
61 97 172
110 136 192
198 219 248
208 228 255
208 228 255
208 228 255
208 228 255
208 228 255
208 228 255
208 228 255
208 228 255
208 228 255
208 228 255
208 228 255
208 228 255
208 228 255
208 228 255
208 228 255
208 228 255
208 228 255
208 228 255
208 228 255
208 228 255
208 228 255
208 228 255
208 228 255
208 228 255
208 228 255
209 228 255
209 229 255
209 229 255
209 229 255
209 229 255
209 229 255
209 229 255
209 229 255
209 229 255
209 229 255
209 229 255
209 229 255
209 229 255
209 229 255
209 229 255
209 229 255
209 229 255
209 229 255
209 229 255
209 229 255
209 229 255
209 229 255
209 229 255
195 212 233
151 154 134
141 138 92
141 140 94
128 127 86
143 140 94
132 130 88
141 140 94
139 137 92
141 141 96
142 140 94
145 143 95
140 139 94
151 150 100
140 139 93
148 146 98
145 144 97
148 147 98
143 142 96
142 142 96
147 146 98
149 147 98
150 150 101
154 152 102
150 150 102
152 150 100
159 157 105
149 147 99
160 158 106
151 149 100
149 147 98
155 153 103
155 153 102
154 152 103
152 150 100
159 156 105
156 153 102
160 157 104
158 156 104
157 155 103
161 158 106
154 152 102
154 152 102
154 152 102
159 157 104
154 151 101
160 157 105
165 161 107
166 163 108
158 155 103
153 151 101
164 161 107
156 154 102
167 164 109
154 150 99
159 156 103
152 150 99
158 155 102
161 158 104
159 156 104
158 155 103
158 155 101
162 159 106
160 155 101
160 157 103
165 162 106
156 153 101
166 162 106
164 161 106
161 158 103
164 160 103
162 158 104
157 154 101
162 159 104
163 160 106
161 157 101
162 159 103
162 156 101
157 154 101
161 157 103
167 162 105
158 155 103
161 158 104
151 146 92
162 158 101
150 147 95
161 158 104
151 147 92
156 152 99
158 154 101
156 152 96
158 153 97
153 149 95
157 154 100
163 158 103
162 157 101
156 151 95
154 150 97
154 151 96
157 153 99
157 153 98
152 149 95
154 149 94
156 153 99
160 155 101
154 150 97
152 148 94
156 151 98
155 150 92
158 153 98
155 152 97
158 154 96
155 150 97
152 148 93
139 135 87
160 155 98
157 153 97
157 152 95
148 144 90
150 145 91
147 143 91
140 135 84
147 143 89
142 138 87
181 201 228
180 201 228
180 201 228
179 200 228
179 200 228
179 200 228
178 200 228
179 200 228
178 200 228
177 199 228
178 200 228
177 199 228
176 199 228
176 199 228
176 199 228
175 198 228
176 198 228
176 199 228
175 198 228
176 199 228
175 198 228
175 198 228
174 198 228
174 198 228
174 198 228
174 198 228
174 197 228
174 197 228
173 197 228
174 197 228
173 197 228
173 197 228
173 197 228
172 197 228
172 197 228
171 196 228
171 196 228
172 196 228
172 196 228
171 196 228
171 196 228
171 196 228
170 196 228
170 196 228
170 195 228
170 195 228
169 195 228
169 195 228
170 195 228
169 195 228
169 195 228
168 195 228
168 194 228
168 195 228
167 194 228
168 194 228
167 194 228
167 194 228
168 194 228
167 194 228
167 194 228
166 194 228
167 194 228
166 194 228
166 193 228
166 194 228
165 193 228
166 193 228
165 193 228
165 193 228
165 193 228
165 193 228
165 193 228
164 193 228
165 193 228
164 193 228
164 192 228
164 192 228
164 192 228
164 192 228
164 192 228
164 192 228
164 192 228
164 192 228
163 192 228
163 192 228
163 192 228
163 192 228
163 192 228
163 192 228
163 192 228
163 192 228
163 192 228
163 192 228
163 192 228
163 192 228
163 192 228
163 192 228
163 192 228
163 192 228
164 192 228
163 192 228
164 192 228
164 192 228
164 192 228
164 193 228
165 193 228
164 193 228
165 193 228
165 193 228
166 193 228
167 194 228
167 194 228
168 194 228
168 194 228
169 195 228
169 195 228
170 196 228
171 196 228
173 197 228
172 195 226
168 190 219
160 180 207
163 182 208
188 207 231
210 229 255
210 229 255
210 229 255
210 229 255
210 229 255
209 229 255
209 229 255
209 229 255
209 229 255
209 229 255
209 229 255
209 229 255
209 229 255
209 229 255
209 229 255
209 229 255
209 229 255
209 229 255
209 229 255
209 229 255
209 229 255
209 229 255
209 229 255
209 229 255
209 229 255
209 229 255
209 229 255
209 228 255
209 228 255
208 228 255
208 228 255
208 228 255
208 228 255
208 228 255
208 228 255
208 228 255
208 228 255
208 228 255
208 228 255
208 228 255
208 228 255
208 228 255
208 228 255
208 228 255
208 228 255
207 227 255
158 180 222
67 102 179
62 98 174
62 99 172
62 98 171
61 97 166
61 98 168
62 99 171
61 98 167
61 97 166
61 97 163
62 98 170
62 99 174
62 98 169
62 99 167
63 99 171
62 98 172
62 99 166
62 98 167
62 99 173
62 98 167
63 99 174
62 99 172
62 99 171
62 99 169
62 98 170
61 98 164
62 98 164
62 98 165
62 99 165
62 98 166
62 98 164
62 98 167
62 98 163
62 99 169
62 98 166
62 98 170
62 99 171
61 97 162
62 98 168
63 99 170
62 98 168
62 98 170
61 97 164
62 98 164
62 98 167
62 98 168
61 97 164
63 99 175
62 98 169
61 98 173
62 98 168
62 98 170
61 97 168
61 97 165
62 98 167
67 101 174
150 172 216
205 225 254
208 228 255
208 228 255
208 228 255
208 228 255
208 228 255
208 228 255
208 228 255
208 228 255
208 228 255
208 228 255
208 228 255
208 228 255
208 228 255
208 228 255
208 228 255
209 228 255
209 228 255
209 228 255
209 229 255
209 229 255
209 229 255
209 229 255
209 229 255
209 229 255
209 229 255
209 229 255
209 229 255
209 229 255
209 229 255
209 229 255
209 229 255
209 229 255
209 229 255
209 229 255
209 229 255
209 229 255
209 229 255
209 229 255
209 229 255
209 229 255
210 229 255
210 229 255
210 229 255
210 229 255
210 229 255
183 197 209
138 137 105
135 133 89
126 125 83
145 143 95
138 136 92
139 137 92
138 137 91
146 143 96
147 145 97
144 143 97
143 142 97
150 148 100
152 150 101
147 146 98
144 142 96
140 139 93
151 150 101
147 146 98
144 143 96
148 147 99
155 153 103
152 151 101
156 154 103
154 152 102
150 148 99
158 156 104
153 152 102
157 155 104
156 155 104
163 160 106
157 155 103
160 158 106
162 160 107
156 153 102
153 151 101
158 156 105
160 157 105
159 156 104
163 160 107
154 152 102
160 156 104
160 158 105
163 160 106
158 155 103
164 161 108
157 155 103
164 160 106
159 156 103
167 163 107
165 161 106
165 161 107
158 155 103
160 157 104
161 157 103
157 154 103
161 158 103
163 160 106
163 159 104
163 160 105
168 164 109
163 160 106
157 154 102
160 156 102
158 154 102
158 155 101
164 159 103
157 152 100
161 158 104
157 153 100
156 152 99
161 158 103
160 156 102
162 157 102
162 158 104
156 153 99
156 152 99
170 165 108
162 157 102
161 157 100
160 156 101
159 156 99
155 151 97
157 154 100
155 152 97
161 156 100
156 153 100
157 153 99
162 158 101
156 152 96
166 161 103
161 157 101
160 155 99
160 156 102
155 151 96
155 150 93
160 156 101
154 150 93
160 155 101
151 147 92
162 158 102
154 150 96
154 151 96
152 147 93
159 154 98
161 156 99
160 155 101
155 151 97
160 156 99
156 151 97
150 145 91
145 141 87
150 145 90
147 143 89
154 149 93
153 149 95
152 148 90
155 150 95
156 151 97
148 144 88
149 144 89
149 145 89
158 153 96
141 137 88
147 142 87
180 201 228
181 201 228
180 201 228
181 201 228
178 200 228
179 200 228
178 200 228
178 200 228
178 200 228
178 200 228
178 200 228
178 200 228
178 200 228
177 199 228
177 199 228
176 199 228
177 199 228
177 199 228
175 198 228
175 198 228
175 198 228
175 198 228
175 198 228
174 198 228
174 198 228
174 198 228
174 198 228
174 198 228
174 197 228
173 197 228
174 197 228
173 197 228
172 197 228
173 197 228
173 197 228
172 197 228
172 196 228
172 197 228
172 197 228
171 196 228
171 196 228
171 196 228
170 195 228
170 195 228
170 195 228
170 196 228
171 196 228
170 195 228
169 195 228
170 195 228
169 195 228
169 195 228
169 195 228
168 194 228
168 195 228
168 194 228
169 195 228
168 194 228
167 194 228
167 194 228
167 194 228
167 194 228
167 194 228
166 194 228
167 194 228
166 193 228
167 194 228
166 193 228
166 193 228
166 193 228
165 193 228
165 193 228
165 193 228
165 193 228
165 193 228
165 193 228
165 193 228
165 193 228
164 193 228
165 193 228
165 193 228
164 192 228
164 192 228
164 192 228
164 192 228
164 192 228
164 192 228
163 192 228
163 192 228
163 192 228
163 192 228
163 192 228
163 192 228
163 192 228
163 192 228
163 192 228
164 192 228
163 192 228
163 192 228
164 192 228
163 192 228
164 192 228
164 192 228
164 193 228
164 192 228
164 193 228
164 193 228
165 193 228
165 193 228
165 193 228
166 193 228
166 193 228
166 194 228
167 194 228
168 194 228
168 194 228
169 195 228
170 196 228
171 196 228
171 196 228
172 196 228
173 197 228
168 191 220
164 185 213
153 173 198
161 178 200
207 226 252
210 229 255
210 229 255
210 229 255
210 229 255
210 229 255
210 229 255
210 229 255
210 229 255
210 229 255
209 229 255
209 229 255
209 229 255
209 229 255
209 229 255
209 229 255
209 229 255
209 229 255
209 229 255
209 229 255
209 229 255
209 229 255
209 229 255
209 229 255
209 229 255
209 229 255
209 229 255
209 229 255
209 229 255
209 229 255
209 229 255
209 229 255
209 229 255
209 229 255
209 228 255
209 228 255
209 228 255
208 228 255
208 228 255
208 228 255
208 228 255
208 228 255
208 228 255
192 212 244
116 141 198
62 98 173
62 98 171
61 98 169
61 97 169
62 99 176
62 99 172
62 99 174
63 100 177
61 97 165
61 97 167
62 98 168
62 98 172
63 99 171
62 98 166
61 97 162
62 98 165
62 98 168
61 98 169
62 98 165
62 98 167
62 98 167
62 99 166
62 99 170
62 98 167
62 99 167
62 99 172
61 97 165
63 99 172
62 98 167
61 98 166
63 99 171
62 98 165
62 98 169
62 98 166
63 99 172
62 98 165
62 99 170
62 98 165
62 97 164
63 99 172
62 99 171
62 99 171
62 98 170
62 98 170
61 97 165
62 98 175
63 99 168
61 97 165
62 98 165
61 98 169
61 97 166
61 96 164
62 99 170
62 98 171
60 96 165
62 98 167
62 98 172
61 96 166
104 130 183
197 217 247
208 228 255
208 228 255
208 228 255
208 228 255
208 228 255
208 228 255
208 228 255
209 228 255
209 228 255
209 229 255
209 229 255
209 229 255
209 229 255
209 229 255
209 229 255
209 229 255
209 229 255
209 229 255
209 229 255
209 229 255
209 229 255
209 229 255
209 229 255
209 229 255
209 229 255
209 229 255
209 229 255
209 229 255
209 229 255
209 229 255
209 229 255
209 229 255
209 229 255
210 229 255
210 229 255
210 229 255
210 229 255
210 229 255
210 229 255
210 229 255
210 229 255
210 229 255
207 226 251
156 162 154
134 131 86
134 131 86
138 136 90
138 136 91
135 134 91
134 132 88
137 136 93
145 144 97
147 146 97
143 140 94
150 148 100
155 154 103
149 148 100
150 149 100
148 147 99
140 140 95
144 142 96
152 150 100
153 151 101
146 145 98
157 154 103
152 151 102
147 146 98
149 148 100
152 150 100
159 156 104
154 152 102
156 153 102
158 156 105
154 152 102
158 155 104
150 148 99
156 155 104
152 149 100
156 154 103
160 158 106
154 151 101
163 159 106
156 153 102
163 160 106
152 149 99
150 147 98
158 155 103
159 156 104
150 148 99
157 155 102
165 162 108
165 162 108
164 160 106
157 154 102
163 160 106
166 162 108
156 153 101
160 157 104
162 159 106
166 162 107
168 164 108
164 161 107
161 158 103
166 163 108
162 158 103
156 153 100
159 156 103
158 155 102
158 155 101
165 161 105
162 158 103
165 161 106
155 151 98
162 157 103
155 152 99
162 159 103
160 156 103
157 154 99
164 160 103
161 157 102
159 155 101
160 156 102
157 153 99
157 153 99
164 160 103
158 154 100
158 154 98
158 155 99
158 154 101
157 153 99
160 155 100
154 151 98
167 161 103
166 161 104
157 153 99
162 158 103
166 162 103
153 149 96
160 155 101
160 156 99
161 157 101
154 150 97
154 149 95
153 149 93
158 154 99
160 155 99
150 146 93
159 154 96
151 147 93
149 144 91
151 147 93
156 151 95
150 146 93
158 154 98
157 151 94
151 145 90
150 146 93
151 145 87
164 160 103
152 147 93
155 150 95
158 153 96
153 149 93
155 149 90
149 145 90
137 133 84
152 148 88
152 148 95
148 143 89
181 201 228
179 200 228
180 201 228
179 200 228
179 200 228
179 200 228
179 200 228
179 200 228
179 200 228
179 200 228
177 199 228
178 200 228
177 199 228
177 199 228
176 199 228
176 199 228
177 199 228
176 199 228
176 199 228
175 198 228
175 198 228
175 198 228
175 198 228
174 198 228
175 198 228
174 198 228
174 198 228
174 198 228
173 197 228
174 197 228
174 197 228
173 197 228
173 197 228
173 197 228
173 197 228
173 197 228
173 197 228
172 197 228
172 196 228
172 196 228
172 196 228
171 196 228
172 196 228
171 196 228
170 196 228
171 196 228
171 196 228
171 196 228
170 195 228
170 195 228
169 195 228
170 195 228
169 195 228
169 195 228
169 195 228
169 195 228
167 194 228
168 194 228
167 194 228
168 194 228
167 194 228
167 194 228
167 194 228
167 194 228
167 194 228
166 194 228
167 194 228
167 194 228
166 193 228
166 193 228
166 193 228
166 193 228
166 193 228
165 193 228
165 193 228
165 193 228
165 193 228
165 193 228
164 193 228
165 193 228
164 193 228
164 193 228
164 193 228
164 193 228
164 193 228
164 192 228
164 192 228
164 192 228
164 192 228
164 192 228
164 192 228
164 192 228
164 192 228
164 192 228
163 192 228
164 192 228
164 192 228
164 192 228
164 192 228
164 192 228
164 192 228
164 192 228
164 192 228
164 193 228
164 193 228
164 192 228
164 193 228
165 193 228
165 193 228
165 193 228
166 193 228
166 193 228
166 193 228
166 194 228
167 194 228
168 194 228
168 194 228
169 195 228
170 195 228
171 196 228
171 196 228
172 197 228
172 196 227
171 194 224
164 185 213
158 178 204
155 172 195
202 221 246
210 229 255
210 229 255
210 229 255
210 229 255
210 229 255
210 229 255
210 229 255
210 229 255
210 229 255
210 229 255
210 229 255
210 229 255
210 229 255
210 229 255
209 229 255
209 229 255
209 229 255
209 229 255
209 229 255
209 229 255
209 229 255
209 229 255
209 229 255
209 229 255
209 229 255
209 229 255
209 229 255
209 229 255
209 229 255
209 229 255
209 229 255
209 229 255
209 229 255
209 229 255
209 229 255
209 229 255
209 229 255
209 229 255
209 229 255
209 229 255
178 198 234
79 110 177
62 98 169
62 99 173
61 97 166
60 97 163
62 98 168
62 99 171
61 98 168
61 97 165
62 98 170
63 99 175
62 99 167
63 99 170
61 98 168
62 98 169
62 98 165
62 99 169
62 98 166
63 99 174
62 99 170
62 99 171
62 98 166
61 98 167
63 99 172
61 98 163
63 100 175
62 98 165
61 98 162
62 98 166
62 98 166
62 98 163
61 97 167
62 98 163
61 97 163
62 99 170
62 98 161
62 99 168
61 97 162
62 98 167
62 98 167
63 99 166
61 97 163
62 98 162
62 98 171
62 98 167
61 97 167
61 97 164
62 98 169
61 98 169
62 98 168
62 99 169
62 98 170
62 98 173
61 98 169
61 97 166
62 98 169
60 96 162
61 96 162
61 97 164
61 97 165
61 97 168
86 115 176
183 204 237
209 229 255
209 229 255
209 229 255
209 229 255
209 229 255
209 229 255
209 229 255
209 229 255
209 229 255
209 229 255
209 229 255
209 229 255
209 229 255
209 229 255
209 229 255
209 229 255
209 229 255
209 229 255
209 229 255
209 229 255
209 229 255
209 229 255
209 229 255
209 229 255
209 229 255
209 229 255
210 229 255
210 229 255
210 229 255
210 229 255
210 229 255
210 229 255
210 229 255
210 229 255
210 229 255
210 229 255
210 229 255
210 229 255
210 229 255
210 229 255
199 216 234
141 141 116
139 136 89
133 132 87
135 133 89
140 138 92
134 132 89
135 134 90
143 141 95
151 149 100
134 133 90
144 143 96
137 135 90
145 144 97
146 144 97
138 137 93
151 150 101
149 147 98
143 142 96
142 141 96
146 145 97
144 143 97
147 146 98
151 150 101
150 148 100
154 152 103
147 146 99
154 152 103
154 152 102
154 152 102
156 154 103
157 155 104
154 152 102
157 155 103
162 160 107
159 156 104
161 158 105
157 154 102
162 160 108
160 157 105
157 155 103
159 157 104
157 154 103
160 157 104
161 158 105
166 163 108
160 156 103
163 159 105
162 159 106
161 158 106
161 158 105
165 162 106
163 160 106
162 158 105
165 161 106
157 154 102
161 157 104
161 158 104
166 163 108
163 159 104
167 164 108
156 152 100
166 161 105
155 153 99
166 162 106
163 158 104
164 161 106
162 158 103
159 155 102
167 163 106
164 160 103
164 160 104
159 156 103
165 161 106
158 155 102
160 156 102
156 153 99
158 154 101
164 160 103
158 154 99
158 154 100
172 167 108
158 154 99
159 154 99
164 160 104
160 156 100
158 156 102
163 160 103
161 157 101
158 154 96
158 154 99
164 160 103
159 155 101
158 154 98
163 159 103
157 153 99
159 155 99
165 161 103
165 160 101
152 147 95
156 151 95
161 156 97
163 159 102
154 150 94
151 148 95
158 153 97
159 155 99
142 137 87
158 154 99
151 146 93
149 145 92
147 143 90
144 140 91
157 153 97
154 150 96
155 150 93
153 148 92
157 151 97
146 142 89
158 153 93
151 148 97
147 142 85
150 147 94
141 137 86
152 148 91
149 144 89
144 139 86
143 139 84
181 201 228
181 201 228
181 201 228
180 201 228
180 201 228
179 200 228
180 201 228
179 200 228
178 199 228
179 200 228
178 200 228
178 200 228
178 199 228
177 199 228
177 199 228
177 199 228
176 199 228
177 199 228
177 199 228
177 199 228
176 199 228
175 198 228
176 198 228
176 199 228
175 198 228
175 198 228
174 198 228
175 198 228
174 197 228
174 198 228
174 197 228
174 198 228
174 197 228
172 197 228
173 197 228
173 197 228
172 197 228
172 197 228
172 196 228
172 197 228
171 196 228
172 197 228
171 196 228
171 196 228
171 196 228
171 196 228
170 196 228
171 196 228
170 196 228
170 195 228
170 195 228
170 195 228
169 195 228
169 195 228
169 195 228
169 195 228
169 195 228
169 195 228
168 195 228
168 194 228
169 195 228
168 195 228
168 194 228
168 194 228
167 194 228
167 194 228
167 194 228
167 194 228
167 194 228
166 193 228
167 194 228
166 193 228
166 193 228
166 193 228
166 193 228
166 193 228
165 193 228
166 193 228
166 193 228
165 193 228
165 193 228
165 193 228
164 193 228
165 193 228
165 193 228
165 193 228
165 193 228
164 193 228
164 192 228
164 193 228
164 192 228
164 193 228
164 192 228
164 192 228
164 193 228
164 192 228
164 192 228
164 193 228
164 192 228
164 193 228
164 192 228
164 192 228
164 192 228
164 192 228
164 193 228
164 193 228
165 193 228
165 193 228
165 193 228
165 193 228
165 193 228
166 193 228
167 194 228
167 194 228
167 194 228
167 194 228
167 194 228
169 195 228
169 195 228
170 195 228
170 196 228
171 196 228
172 196 228
173 197 228
171 195 225
172 194 223
162 182 208
158 176 200
190 208 232
210 229 255
210 229 255
210 229 255
210 229 255
210 229 255
210 229 255
210 229 255
210 229 255
210 229 255
210 229 255
210 229 255
210 229 255
210 229 255
210 229 255
210 229 255
210 229 255
210 229 255
210 229 255
210 229 255
210 229 255
209 229 255
209 229 255
209 229 255
209 229 255
209 229 255
209 229 255
209 229 255
209 229 255
209 229 255
209 229 255
209 229 255
209 229 255
209 229 255
209 229 255
209 229 255
209 229 255
209 229 255
209 229 255
151 174 217
61 98 170
62 98 176
60 97 165
62 98 172
61 97 169
62 98 168
61 97 167
62 99 175
60 96 161
62 98 172
62 99 173
63 99 172
61 97 161
62 99 169
62 98 168
63 99 169
61 98 167
62 98 168
63 99 171
62 99 164
62 98 165
62 98 172
62 99 170
62 98 162
61 98 166
62 98 161
62 98 165
63 99 172
63 100 174
61 98 161
61 97 162
63 98 161
63 99 169
62 98 163
62 98 167
62 98 165
63 99 166
63 99 169
63 99 170
62 98 169
62 98 165
62 99 166
61 97 161
62 98 166
62 98 168
61 97 163
62 98 165
61 97 160
62 98 168
61 97 165
63 99 170
62 97 163
61 97 161
63 99 167
61 96 160
62 97 164
63 99 168
61 97 171
60 96 167
60 95 160
62 97 171
61 97 170
61 96 162
64 98 163
150 171 213
209 229 255
209 229 255
209 229 255
209 229 255
209 229 255
209 229 255
209 229 255
209 229 255
209 229 255
209 229 255
209 229 255
209 229 255
209 229 255
209 229 255
209 229 255
209 229 255
209 229 255
209 229 255
210 229 255
210 229 255
210 229 255
210 229 255
210 229 255
210 229 255
210 229 255
210 229 255
210 229 255
210 229 255
210 229 255
210 229 255
210 229 255
210 229 255
210 229 255
210 229 255
210 229 255
210 229 255
210 229 255
210 229 255
193 207 220
141 140 106
125 123 82
138 135 90
141 138 91
127 127 86
136 135 90
147 144 96
144 143 96
139 137 92
139 138 94
139 137 93
149 148 100
143 141 95
139 138 93
142 140 94
154 153 102
139 138 93
145 143 96
134 133 90
154 152 101
150 149 101
152 151 101
151 148 99
151 150 102
148 145 97
149 147 99
156 155 104
161 158 106
159 157 106
154 151 101
160 158 106
156 154 103
154 152 101
160 158 106
157 155 103
160 157 104
160 158 106
162 159 106
163 159 106
162 159 106
161 158 104
160 157 104
159 156 103
163 159 104
157 154 101
162 159 106
161 158 105
163 161 108
162 159 105
158 155 102
162 159 105
164 160 106
166 162 108
158 154 101
167 162 104
162 160 106
164 161 107
164 161 104
163 159 103
153 150 97
172 166 109
161 158 103
167 163 108
160 157 103
158 155 101
168 163 106
168 164 107
165 161 104
162 158 102
163 159 103
158 154 98
167 163 108
162 159 104
165 162 106
166 161 104
155 151 97
160 155 101
150 147 95
162 157 100
163 160 105
161 157 100
160 155 98
161 157 101
160 157 103
164 158 103
157 152 98
157 154 100
165 161 103
155 151 97
158 153 97
162 158 101
164 160 105
166 160 103
162 157 101
163 160 99
155 151 97
167 163 106
152 147 95
160 155 95
154 149 97
156 152 97
162 158 99
158 153 100
150 146 93
150 146 93
157 153 97
152 147 90
153 149 95
161 157 100
160 155 99
154 149 93
156 151 93
155 151 97
158 154 97
159 155 97
156 151 96
161 156 97
156 151 95
148 144 87
160 154 97
153 150 92
147 143 88
143 139 86
147 143 92
147 143 84
148 144 91
150 144 87
158 154 93
181 201 228
180 201 228
180 201 228
180 201 228
180 201 228
180 201 228
179 200 228
179 200 228
179 200 228
178 200 228
178 199 228
178 200 228
177 199 228
177 199 228
177 199 228
177 199 228
177 199 228
178 200 228
176 199 228
176 199 228
177 199 228
176 199 228
176 199 228
175 198 228
176 199 228
175 198 228
175 198 228
175 198 228
174 198 228
175 198 228
175 198 228
174 198 228
174 197 228
173 197 228
174 197 228
173 197 228
173 197 228
174 198 228
173 197 228
173 197 228
172 197 228
172 196 228
172 196 228
172 196 228
171 196 228
172 196 228
171 196 228
171 196 228
171 196 228
170 196 228
170 195 228
170 195 228
170 196 228
169 195 228
169 195 228
169 195 228
169 195 228
169 195 228
169 195 228
169 195 228
169 195 228
168 195 228
168 195 228
168 195 228
168 194 228
168 194 228
168 194 228
168 194 228
167 194 228
167 194 228
166 194 228
167 194 228
167 194 228
167 194 228
167 194 228
166 193 228
166 194 228
166 194 228
166 193 228
166 193 228
165 193 228
165 193 228
166 193 228
165 193 228
165 193 228
165 193 228
165 193 228
165 193 228
165 193 228
165 193 228
164 193 228
164 193 228
165 193 228
164 193 228
164 193 228
164 192 228
164 192 228
164 192 228
165 193 228
164 193 228
164 193 228
164 192 228
164 193 228
164 193 228
164 193 228
165 193 228
165 193 228
166 193 228
165 193 228
166 193 228
166 193 228
166 193 228
166 193 228
167 194 228
167 194 228
167 194 228
167 194 228
168 195 228
168 194 228
169 195 228
170 196 228
171 196 228
172 196 228
172 197 228
174 198 228
175 198 228
167 189 217
158 178 203
163 182 207
189 207 231
211 230 255
210 230 255
210 230 255
210 229 255
210 229 255
210 229 255
210 229 255
210 229 255
210 229 255
210 229 255
210 229 255
210 229 255
210 229 255
210 229 255
210 229 255
210 229 255
210 229 255
210 229 255
210 229 255
210 229 255
210 229 255
210 229 255
210 229 255
210 229 255
210 229 255
210 229 255
210 229 255
209 229 255
209 229 255
209 229 255
209 229 255
209 229 255
209 229 255
209 229 255
209 229 255
205 225 253
122 147 199
62 98 172
62 98 170
61 97 168
61 97 165
62 98 170
62 98 168
61 97 168
61 97 162
61 97 163
63 99 168
62 98 166
62 98 163
61 98 169
62 98 167
61 97 163
62 98 166
61 97 163
61 98 163
63 99 170
61 97 162
62 98 167
62 98 168
61 97 160
62 98 163
62 98 162
62 99 165
61 97 165
62 98 161
62 98 162
61 98 164
63 99 164
61 97 158
62 99 166
62 98 161
62 98 163
62 98 163
61 98 162
62 98 161
62 98 165
62 99 168
61 97 155
63 99 171
62 98 165
62 98 167
62 98 167
61 97 157
63 99 164
61 97 162
62 97 166
61 97 155
63 98 164
61 98 164
62 98 168
61 97 164
61 98 170
61 97 164
61 96 163
61 97 163
62 97 161
61 96 164
62 97 166
61 97 166
61 96 166
60 95 154
61 96 166
61 96 163
127 150 196
206 226 254
209 229 255
209 229 255
209 229 255
209 229 255
209 229 255
209 229 255
209 229 255
209 229 255
210 229 255
210 229 255
210 229 255
210 229 255
210 229 255
210 229 255
210 229 255
210 229 255
210 229 255
210 229 255
210 229 255
210 229 255
210 229 255
210 229 255
210 229 255
210 229 255
210 229 255
210 229 255
210 229 255
210 229 255
210 229 255
210 229 255
210 229 255
210 229 255
210 230 255
210 230 255
210 230 255
183 196 206
134 132 91
120 118 79
140 137 91
134 132 89
148 145 97
143 140 95
131 130 88
140 138 93
140 138 92
146 144 97
143 142 95
142 141 95
143 142 96
149 148 100
139 138 92
147 145 98
146 144 97
159 157 106
146 145 99
155 154 104
151 149 100
157 155 104
148 146 98
155 153 103
146 146 99
155 153 103
140 139 94
154 152 102
155 152 102
163 160 107
157 155 103
161 158 105
155 153 103
155 152 100
159 157 104
154 152 102
158 155 103
154 152 102
155 153 101
163 160 106
160 158 106
164 161 106
160 156 103
164 161 106
161 158 105
168 165 109
162 159 106
162 159 105
164 161 107
164 161 107
168 164 106
162 160 105
165 162 106
165 162 106
161 156 102
162 158 103
168 164 108
167 164 108
170 165 107
166 163 107
160 156 103
166 162 105
162 157 103
166 162 104
163 159 104
164 160 105
164 159 103
161 158 101
162 157 103
166 161 104
170 165 108
166 162 105
165 161 103
161 156 100
170 165 108
163 158 101
162 157 101
160 156 101
160 156 99
162 158 101
164 160 103
155 151 95
164 160 103
166 162 106
164 160 104
166 161 104
167 162 104
157 153 97
163 159 101
161 156 99
162 158 102
159 155 95
164 159 103
154 150 94
168 163 104
160 156 100
164 159 100
151 148 95
158 154 98
157 151 92
164 160 103
154 151 95
169 163 103
158 154 99
156 152 97
160 155 96
166 161 101
157 152 95
162 157 100
159 154 98
155 149 95
158 154 97
157 153 95
163 158 99
152 147 90
152 148 94
156 152 97
158 153 95
141 137 84
153 148 93
155 150 95
151 147 92
154 150 92
153 148 93
155 150 91
145 141 85
152 148 92
147 142 86
155 151 94
181 201 228
180 201 228
180 201 228
180 201 228
180 201 228
180 201 228
179 200 228
179 200 228
179 200 228
180 201 228
178 200 228
178 200 228
178 200 228
179 200 228
179 200 228
177 199 228
178 200 228
176 199 228
177 199 228
177 199 228
176 199 228
177 199 228
176 199 228
175 198 228
176 199 228
177 199 228
175 198 228
175 198 228
175 198 228
175 198 228
175 198 228
175 198 228
175 198 228
174 198 228
174 198 228
173 197 228
173 197 228
173 197 228
173 197 228
172 196 228
173 197 228
173 197 228
172 196 228
173 197 228
172 197 228
171 196 228
172 196 228
171 196 228
171 196 228
171 196 228
171 196 228
171 196 228
171 196 228
170 195 228
171 196 228
170 196 228
170 196 228
170 195 228
170 195 228
169 195 228
169 195 228
169 195 228
169 195 228
168 195 228
169 195 228
168 194 228
168 195 228
167 194 228
168 195 228
167 194 228
167 194 228
167 194 228
167 194 228
166 194 228
166 194 228
167 194 228
166 194 228
166 193 228
167 194 228
166 194 228
166 194 228
165 193 228
166 193 228
166 193 228
165 193 228
166 193 228
165 193 228
165 193 228
165 193 228
165 193 228
165 193 228
165 193 228
165 193 228
165 193 228
165 193 228
165 193 228
165 193 228
165 193 228
165 193 228
165 193 228
165 193 228
165 193 228
165 193 228
165 193 228
165 193 228
165 193 228
165 193 228
165 193 228
165 193 228
166 193 228
166 193 228
166 193 228
166 193 228
167 194 228
167 194 228
167 194 228
167 194 228
167 194 228
169 195 228
169 195 228
170 195 228
170 195 228
171 196 228
172 196 228
173 197 228
173 197 228
175 198 228
169 190 218
168 189 217
155 173 196
178 195 219
211 230 255
211 230 255
211 230 255
211 230 255
211 230 255
211 230 255
210 230 255
210 230 255
210 230 255
210 229 255
210 229 255
210 229 255
210 229 255
210 229 255
210 229 255
210 229 255
210 229 255
210 229 255
210 229 255
210 229 255
210 229 255
210 229 255
210 229 255
210 229 255
210 229 255
210 229 255
210 229 255
210 229 255
210 229 255
210 229 255
210 229 255
210 229 255
210 229 255
204 223 252
101 128 186
62 99 171
61 97 173
61 97 169
62 98 171
62 98 169
62 99 169
61 97 162
62 98 168
61 97 161
62 98 164
62 98 165
61 97 163
63 99 160
63 100 175
61 97 161
61 97 161
60 96 156
61 97 167
63 99 168
61 97 166
61 97 157
62 98 164
63 99 173
62 98 166
63 99 167
62 98 165
62 99 168
62 97 159
61 97 160
62 98 163
61 97 156
61 97 160
62 99 169
61 97 163
62 98 159
62 99 167
62 98 160
62 98 158
62 98 163
62 98 168
63 99 167
62 98 164
61 97 161
63 99 164
62 98 166
63 99 168
61 96 161
62 98 161
62 98 168
62 98 166
62 98 169
61 97 159
62 98 163
62 97 165
62 98 164
61 96 161
62 98 164
62 97 159
62 98 159
61 96 161
61 96 160
61 97 167
62 97 163
60 96 162
60 95 162
61 97 170
60 95 166
61 97 168
108 132 181
206 225 253
210 229 255
210 229 255
210 229 255
210 229 255
210 229 255
210 229 255
210 229 255
210 229 255
210 229 255
210 229 255
210 229 255
210 229 255
210 229 255
210 229 255
210 229 255
210 229 255
210 229 255
210 229 255
210 229 255
210 229 255
210 229 255
210 229 255
210 229 255
210 229 255
210 230 255
210 230 255
210 230 255
211 230 255
211 230 255
211 230 255
211 230 255
211 230 255
211 230 255
176 188 197
135 132 88
140 137 91
132 129 86
137 136 91
132 130 88
139 138 93
139 138 93
142 141 96
137 137 93
146 145 99
139 138 93
143 140 94
140 139 94
151 149 100
145 144 97
140 139 94
139 138 94
153 152 102
146 146 99
149 148 100
150 148 100
146 145 97
153 151 101
161 158 106
154 153 103
152 151 102
156 153 102
155 153 103
153 151 101
153 151 101
155 153 102
162 160 107
158 156 104
161 158 106
164 161 107
153 150 100
161 159 105
164 162 108
164 161 108
160 157 103
161 158 105
163 160 106
161 157 104
168 164 108
167 163 108
166 162 107
164 160 105
161 157 103
168 164 108
161 157 104
166 162 107
164 160 106
162 158 104
165 161 104
166 162 108
164 161 104
165 162 105
164 160 104
162 158 103
165 161 105
166 162 104
167 163 104
163 159 104
172 167 108
161 157 103
167 163 106
169 164 107
163 159 102
167 162 104
162 158 103
165 161 103
164 160 103
161 157 102
160 157 104
167 163 105
163 159 103
168 163 105
165 160 102
161 156 100
165 161 103
159 156 101
159 156 101
169 164 106
160 155 97
159 155 97
161 156 101
169 164 106
163 159 104
164 160 105
164 160 104
161 156 99
152 149 95
159 154 99
164 160 101
165 160 103
160 155 97
160 156 101
163 158 97
157 153 95
157 153 97
165 160 103
155 150 93
159 154 99
154 149 93
162 158 98
160 155 96
156 152 95
157 152 95
149 145 91
154 151 93
160 155 98
156 153 96
158 153 97
148 143 90
152 148 91
157 152 95
148 144 91
158 153 97
154 149 93
155 151 94
149 144 90
154 150 93
149 145 90
159 154 95
153 147 93
148 142 86
136 131 81
159 154 99
157 152 95
146 142 84
181 201 228
181 201 228
180 201 228
180 201 228
181 201 228
180 201 228
181 201 228
179 200 228
180 201 228
180 201 228
179 200 228
179 200 228
179 200 228
178 200 228
178 200 228
178 200 228
177 199 228
178 200 228
178 200 228
176 199 228
177 199 228
176 199 228
176 199 228
177 199 228
176 199 228
177 199 228
177 199 228
175 198 228
175 198 228
176 198 228
175 198 228
175 198 228
174 198 228
175 198 228
173 197 228
174 198 228
173 197 228
173 197 228
173 197 228
173 197 228
172 197 228
173 197 228
173 197 228
172 197 228
172 197 228
173 197 228
172 197 228
172 197 228
172 196 228
172 197 228
171 196 228
171 196 228
172 196 228
170 196 228
171 196 228
171 196 228
170 196 228
170 196 228
169 195 228
170 196 228
170 195 228
169 195 228
170 195 228
169 195 228
169 195 228
168 195 228
168 194 228
168 194 228
168 195 228
168 194 228
168 194 228
168 194 228
167 194 228
167 194 228
167 194 228
167 194 228
167 194 228
167 194 228
167 194 228
167 194 228
167 194 228
167 194 228
166 194 228
167 194 228
166 193 228
165 193 228
166 193 228
166 193 228
166 193 228
166 193 228
166 193 228
165 193 228
166 193 228
165 193 228
166 193 228
165 193 228
165 193 228
165 193 228
165 193 228
165 193 228
165 193 228
165 193 228
166 193 228
166 193 228
165 193 228
166 193 228
165 193 228
166 193 228
165 193 228
166 193 228
166 193 228
166 194 228
167 194 228
167 194 228
167 194 228
168 194 228
167 194 228
168 194 228
169 195 228
169 195 228
170 195 228
170 196 228
171 196 228
172 196 228
172 197 228
173 197 228
174 197 228
175 198 228
173 195 225
162 182 208
158 177 202
180 198 221
211 230 255
211 230 255
211 230 255
211 230 255
211 230 255
211 230 255
211 230 255
211 230 255
211 230 255
211 230 255
211 230 255
211 230 255
211 230 255
210 230 255
210 230 255
210 230 255
210 229 255
210 229 255
210 229 255
210 229 255
210 229 255
210 229 255
210 229 255
210 229 255
210 229 255
210 229 255
210 229 255
210 229 255
210 229 255
210 229 255
210 229 255
202 222 250
107 133 192
60 96 165
62 98 168
61 97 166
60 97 164
61 97 163
62 98 169
61 98 164
61 97 165
63 99 168
62 98 164
61 97 161
62 98 167
61 97 164
62 98 168
63 99 168
61 97 162
62 98 169
62 98 167
62 98 161
63 99 168
62 98 165
62 98 165
61 97 162
61 97 164
63 99 168
62 99 171
62 98 160
62 98 160
61 97 158
61 97 161
62 98 165
62 99 164
63 98 163
62 98 166
62 98 162
62 98 164
62 98 165
61 98 161
61 97 164
62 98 163
62 98 162
62 99 166
62 98 167
62 98 165
62 97 158
61 97 158
61 97 159
62 98 162
61 96 161
61 97 159
62 98 164
63 99 169
62 97 160
62 98 166
62 97 165
62 97 157
61 97 167
62 98 163
62 98 167
62 98 167
60 96 160
60 95 157
62 98 167
60 95 158
61 96 159
61 96 162
60 96 160
62 98 169
61 96 163
61 96 160
91 118 174
199 219 248
210 229 255
210 229 255
210 229 255
210 229 255
210 229 255
210 229 255
210 229 255
210 229 255
210 229 255
210 229 255
210 229 255
210 229 255
210 229 255
210 229 255
210 229 255
210 229 255
210 230 255
210 230 255
210 230 255
211 230 255
211 230 255
211 230 255
211 230 255
211 230 255
211 230 255
211 230 255
211 230 255
211 230 255
211 230 255
211 230 255
211 230 255
170 179 183
133 129 84
129 127 85
141 139 93
146 144 96
134 133 90
137 136 92
133 132 90
137 136 92
140 140 95
145 143 96
136 135 92
139 138 93
150 149 101
142 142 96
147 145 97
145 144 97
148 146 99
146 145 99
140 139 93
152 151 102
150 147 99
154 152 102
159 156 104
158 157 106
156 155 104
154 152 102
154 152 102
151 149 99
159 157 105
159 156 104
153 151 102
158 155 104
156 154 103
159 157 105
162 159 106
162 160 107
157 154 102
158 155 103
164 161 107
155 152 100
160 157 105
162 160 107
161 158 105
162 159 105
167 164 109
161 158 104
166 163 108
162 157 103
166 163 107
167 163 106
167 164 109
168 164 107
158 155 100
168 163 108
169 166 108
169 165 108
164 160 104
166 161 104
167 163 105
170 166 109
167 163 105
165 160 102
168 163 106
167 162 105
161 157 103
165 161 104
161 158 103
165 160 103
165 161 104
164 160 106
169 165 106
171 166 107
170 166 108
164 159 102
162 158 102
158 154 97
169 165 107
170 166 108
165 160 101
166 162 105
164 160 102
155 150 94
171 166 106
170 166 106
163 159 102
167 162 102
166 161 101
166 162 103
157 151 94
170 165 104
166 160 102
160 156 97
165 160 103
164 160 104
157 153 97
156 151 96
158 154 98
163 159 103
165 160 102
163 159 103
161 157 99
158 153 95
163 158 101
153 149 91
155 151 95
161 156 99
162 157 100
160 155 95
148 144 93
159 154 99
161 156 97
153 150 93
164 159 99
155 151 95
155 150 92
152 147 92
153 148 93
153 149 90
161 155 93
154 150 93
152 147 91
159 153 93
155 151 93
153 149 91
161 155 97
151 147 91
142 138 83
147 143 90
148 143 87
153 148 91
152 147 92
181 202 228
180 201 228
181 201 228
180 201 228
181 201 228
181 202 228
179 200 228
180 201 228
180 201 228
179 201 228
180 201 228
179 200 228
180 201 228
179 200 228
179 200 228
179 200 228
178 200 228
177 199 228
178 200 228
177 199 228
177 199 228
176 199 228
177 199 228
177 199 228
177 199 228
177 199 228
175 198 228
177 199 228
176 199 228
175 198 228
175 198 228
176 199 228
176 199 228
176 199 228
174 198 228
174 198 228
175 198 228
174 198 228
175 198 228
174 197 228
174 198 228
174 198 228
174 197 228
174 197 228
173 197 228
173 197 228
173 197 228
172 197 228
173 197 228
172 196 228
172 197 228
172 197 228
172 196 228
171 196 228
171 196 228
170 196 228
171 196 228
172 196 228
171 196 228
170 196 228
170 196 228
170 195 228
170 195 228
170 196 228
169 195 228
170 195 228
169 195 228
169 195 228
168 195 228
169 195 228
169 195 228
168 195 228
168 195 228
168 195 228
168 194 228
168 195 228
168 194 228
168 194 228
167 194 228
167 194 228
167 194 228
167 194 228
167 194 228
167 194 228
167 194 228
167 194 228
166 194 228
167 194 228
166 193 228
166 193 228
166 193 228
166 193 228
165 193 228
166 193 228
166 193 228
165 193 228
165 193 228
165 193 228
166 193 228
166 193 228
165 193 228
166 193 228
166 193 228
166 193 228
166 193 228
166 193 228
166 193 228
166 194 228
166 194 228
166 194 228
167 194 228
166 194 228
167 194 228
167 194 228
167 194 228
167 194 228
168 194 228
168 194 228
168 195 228
169 195 228
169 195 228
170 196 228
171 196 228
171 196 228
172 196 228
172 196 228
173 197 228
173 197 228
175 198 228
174 196 225
171 192 219
160 178 203
183 201 225
211 230 255
211 230 255
211 230 255
211 230 255
211 230 255
211 230 255
211 230 255
211 230 255
211 230 255
211 230 255
211 230 255
211 230 255
211 230 255
211 230 255
211 230 255
211 230 255
211 230 255
211 230 255
211 230 255
210 230 255
210 230 255
210 230 255
210 230 255
210 229 255
210 229 255
210 229 255
210 229 255
210 229 255
210 229 255
200 220 248
101 128 187
61 97 167
61 97 168
62 98 169
62 98 170
61 98 170
62 99 170
62 98 161
61 97 164
62 98 168
62 99 174
62 98 169
62 98 166
63 99 168
61 97 162
61 98 167
61 97 158
61 97 159
61 97 160
62 98 165
61 97 159
62 98 161
62 98 163
63 99 162
62 98 168
61 97 161
63 99 167
62 98 170
61 98 159
62 99 167
63 99 165
62 99 167
60 96 153
62 98 158
63 99 161
61 97 164
62 98 165
62 98 163
61 97 157
61 97 159
60 96 158
62 98 164
62 98 159
61 98 166
63 99 168
61 97 163
62 98 163
61 97 162
62 98 162
61 97 160
62 98 167
62 98 162
62 98 164
60 96 159
61 97 162
61 98 165
60 96 161
61 97 163
62 98 161
61 96 158
61 97 162
60 96 153
61 96 157
61 96 159
61 96 163
60 96 161
60 95 157
60 94 160
61 96 161
61 96 160
61 97 163
61 97 164
60 95 162
104 129 181
203 222 249
210 229 255
210 229 255
210 229 255
210 229 255
210 229 255
210 229 255
210 230 255
210 230 255
210 230 255
210 230 255
211 230 255
211 230 255
211 230 255
211 230 255
211 230 255
211 230 255
211 230 255
211 230 255
211 230 255
211 230 255
211 230 255
211 230 255
211 230 255
211 230 255
211 230 255
211 230 255
211 230 255
211 230 255
211 229 254
168 176 175
127 124 80
129 127 86
131 130 86
127 125 85
134 133 88
136 135 90
136 135 92
136 135 92
132 131 89
137 137 94
145 143 96
137 136 93
133 133 92
142 142 97
150 148 99
149 147 98
139 138 93
148 147 101
155 153 103
152 151 102
154 153 104
154 152 101
146 144 97
155 154 103
148 147 99
155 153 103
155 153 104
151 150 101
153 151 101
151 149 99
158 156 103
157 153 102
158 156 104
161 158 106
154 151 101
160 158 105
161 158 106
166 164 109
156 153 102
166 162 106
167 163 107
164 161 107
166 163 109
160 158 105
170 165 109
164 160 104
168 165 109
160 156 101
167 163 108
166 161 104
169 166 108
164 159 104
159 156 103
166 162 106
164 161 105
166 162 107
163 160 104
164 160 103
164 161 106
167 162 106
164 159 104
174 169 109
162 159 104
169 164 106
164 159 102
167 162 105
170 165 107
166 162 105
163 159 104
174 167 108
165 160 104
168 163 106
166 162 104
164 160 101
168 163 106
159 155 97
170 164 103
163 159 102
168 163 104
172 167 107
176 170 109
161 157 100
166 161 101
161 157 100
168 163 104
162 158 101
164 160 99
164 160 103
162 156 99
162 158 100
161 157 97
160 156 95
163 159 100
166 160 104
161 157 101
165 160 99
166 162 104
166 161 102
161 156 99
160 156 97
163 157 97
158 153 99
162 157 99
159 154 95
159 154 95
151 147 91
161 157 97
165 159 100
161 155 97
158 153 96
160 157 100
158 153 93
161 155 95
159 155 99
163 158 97
153 149 93
162 157 98
150 145 84
161 156 99
155 149 92
154 149 91
156 151 92
155 150 93
156 152 94
149 144 87
153 148 92
156 151 96
159 154 91
143 139 85
153 147 89
151 145 90
152 147 87
182 202 228
182 202 228
181 201 228
180 201 228
181 202 228
181 201 228
181 201 228
181 202 228
180 201 228
180 201 228
179 200 228
179 200 228
179 200 228
179 200 228
178 200 228
178 200 228
179 200 228
178 200 228
179 200 228
178 200 228
178 200 228
177 199 228
177 199 228
177 199 228
177 199 228
176 199 228
176 199 228
176 199 228
176 199 228
176 199 228
176 199 228
176 199 228
175 198 228
177 199 228
175 198 228
176 198 228
175 198 228
175 198 228
175 198 228
175 198 228
175 198 228
174 197 228
173 197 228
173 197 228
174 197 228
173 197 228
173 197 228
173 197 228
173 197 228
173 197 228
172 197 228
172 196 228
172 197 228
171 196 228
172 196 228
171 196 228
172 196 228
171 196 228
171 196 228
170 195 228
171 196 228
171 196 228
170 196 228
170 196 228
170 195 228
170 195 228
169 195 228
169 195 228
169 195 228
169 195 228
169 195 228
169 195 228
169 195 228
169 195 228
169 195 228
168 195 228
168 194 228
168 195 228
167 194 228
168 194 228
168 194 228
168 194 228
168 194 228
167 194 228
168 194 228
167 194 228
167 194 228
167 194 228
167 194 228
167 194 228
167 194 228
167 194 228
166 193 228
166 193 228
166 194 228
167 194 228
166 194 228
166 194 228
166 194 228
166 193 228
167 194 228
166 194 228
166 194 228
167 194 228
167 194 228
166 193 228
166 194 228
166 193 228
167 194 228
167 194 228
167 194 228
168 194 228
167 194 228
167 194 228
167 194 228
167 194 228
168 194 228
168 195 228
169 195 228
168 194 228
170 195 228
169 195 228
170 195 228
171 196 228
171 196 228
173 197 228
173 197 228
174 198 228
174 198 228
175 198 228
172 193 221
173 193 220
167 186 212
185 202 225
211 230 255
211 230 255
211 230 255
211 230 255
211 230 255
211 230 255
211 230 255
211 230 255
211 230 255
211 230 255
211 230 255
211 230 255
211 230 255
211 230 255
211 230 255
211 230 255
211 230 255
211 230 255
211 230 255
211 230 255
211 230 255
211 230 255
211 230 255
211 230 255
211 230 255
211 230 255
211 230 255
204 223 250
107 133 189
61 97 169
60 96 163
62 98 168
61 97 167
61 96 161
61 97 165
63 99 170
61 97 165
62 98 164
62 98 166
62 98 167
62 98 165
62 98 165
63 99 165
61 97 161
62 98 161
63 99 169
62 97 162
62 98 161
62 98 165
61 97 163
61 97 157
63 99 165
61 97 164
62 98 168
62 98 162
62 98 160
61 97 157
61 97 163
63 99 168
62 97 159
63 99 172
63 99 164
63 99 171
62 98 164
61 97 157
61 97 155
62 98 161
62 98 160
62 98 162
61 98 160
63 99 166
62 98 162
62 97 157
62 98 161
61 97 159
61 97 163
61 96 154
62 99 167
62 97 164
62 97 155
62 98 160
62 97 157
61 97 168
61 97 160
62 98 162
62 98 169
62 98 165
60 95 152
62 98 170
59 94 149
61 96 155
61 96 153
61 97 163
62 97 164
60 95 158
61 96 162
63 98 168
61 96 162
61 96 159
59 94 149
60 95 158
62 96 163
61 96 164
110 134 181
203 222 250
211 230 255
211 230 255
211 230 255
211 230 255
211 230 255
211 230 255
211 230 255
211 230 255
211 230 255
211 230 255
211 230 255
211 230 255
211 230 255
211 230 255
211 230 255
211 230 255
211 230 255
211 230 255
211 230 255
211 230 255
211 230 255
211 230 255
211 230 255
211 230 255
211 230 255
211 230 255
211 230 255
169 179 182
138 135 89
128 126 84
139 137 91
138 135 91
134 132 89
132 131 89
143 141 96
125 125 86
149 148 100
134 133 91
134 133 90
144 142 95
146 145 98
140 140 95
134 134 92
141 140 94
144 143 97
147 146 99
145 144 98
147 145 97
141 139 93
141 140 95
160 158 105
143 142 97
158 156 105
153 151 101
156 154 103
150 149 100
152 150 101
154 151 101
154 153 103
155 153 102
159 157 105
162 159 106
158 155 103
159 157 105
164 161 107
164 160 106
157 155 102
164 160 105
162 159 105
162 158 106
167 163 106
163 160 106
163 159 104
160 157 103
165 161 105
163 161 107
162 160 107
166 162 106
166 162 107
166 161 106
161 158 105
167 163 105
169 165 108
166 162 103
169 165 106
167 164 108
167 163 105
169 165 108
167 162 105
170 166 108
164 159 103
160 157 101
169 166 108
170 166 109
168 164 108
169 164 106
165 160 103
163 159 99
163 158 99
172 166 104
166 162 103
164 160 103
160 156 99
167 162 103
168 163 102
166 161 103
164 160 102
164 158 101
164 160 104
166 161 101
164 160 105
163 158 101
166 161 100
169 163 104
164 159 100
166 161 102
163 159 98
157 153 97
162 158 99
165 160 103
158 153 96
165 161 100
163 158 98
161 157 98
164 159 101
168 162 103
163 159 99
163 159 101
159 154 95
169 164 103
154 150 94
166 161 99
160 155 97
154 149 95
155 151 90
162 158 98
156 152 95
156 152 97
162 156 97
160 156 99
152 148 90
160 154 96
155 151 92
162 157 98
164 159 99
156 152 94
165 159 99
154 149 93
163 158 99
151 146 89
160 155 93
157 153 95
156 151 93
154 149 92
163 159 97
146 143 90
145 141 87
151 146 89
158 151 92
147 143 89
157 151 95
182 202 228
182 202 228
182 202 228
181 201 228
182 202 228
180 201 228
182 202 228
180 201 228
180 201 228
180 201 228
181 201 228
180 201 228
180 201 228
179 200 228
180 201 228
179 200 228
178 200 228
178 199 228
179 200 228
178 200 228
178 200 228
178 200 228
178 200 228
178 200 228
177 199 228
177 199 228
176 199 228
177 199 228
176 199 228
177 199 228
176 199 228
176 198 228
175 198 228
176 199 228
176 198 228
175 198 228
175 198 228
175 198 228
175 198 228
175 198 228
174 198 228
174 198 228
175 198 228
174 198 228
174 197 228
174 198 228
174 198 228
174 197 228
173 197 228
173 197 228
173 197 228
172 196 228
173 197 228
173 197 228
173 197 228
172 197 228
171 196 228
173 197 228
172 197 228
172 197 228
172 196 228
171 196 228
171 196 228
171 196 228
170 196 228
170 196 228
170 196 228
170 196 228
170 195 228
170 196 228
170 195 228
170 196 228
170 195 228
169 195 228
170 195 228
169 195 228
169 195 228
169 195 228
169 195 228
168 195 228
169 195 228
168 195 228
168 195 228
168 195 228
167 194 228
167 194 228
168 194 228
168 194 228
168 194 228
167 194 228
167 194 228
168 194 228
168 194 228
167 194 228
167 194 228
167 194 228
167 194 228
167 194 228
167 194 228
167 194 228
167 194 228
167 194 228
167 194 228
167 194 228
167 194 228
166 194 228
167 194 228
167 194 228
168 194 228
167 194 228
167 194 228
167 194 228
168 194 228
167 194 228
168 194 228
168 195 228
168 195 228
169 195 228
169 195 228
169 195 228
169 195 228
170 195 228
171 196 228
171 196 228
172 196 228
172 197 228
173 197 228
173 197 228
175 198 228
176 198 228
175 198 227
174 196 224
162 181 206
157 175 198
175 192 214
212 230 255
212 230 255
212 230 255
212 230 255
211 230 255
211 230 255
211 230 255
211 230 255
211 230 255
211 230 255
211 230 255
211 230 255
211 230 255
211 230 255
211 230 255
211 230 255
211 230 255
211 230 255
211 230 255
211 230 255
211 230 255
211 230 255
211 230 255
211 230 255
211 230 255
210 229 255
114 139 194
61 97 167
60 96 165
62 98 171
61 97 165
61 97 161
62 98 168
60 96 159
61 97 163
62 98 166
62 97 163
61 97 166
61 97 162
61 97 163
62 98 160
60 95 149
60 96 160
61 97 152
61 97 156
61 97 162
61 97 159
63 99 171
61 97 155
63 99 163
62 98 162
62 99 167
62 98 162
62 98 163
62 98 164
61 97 161
61 97 156
61 97 156
61 97 155
62 98 166
61 97 159
61 97 154
62 98 161
62 98 160
62 98 167
62 98 160
61 97 162
61 97 157
61 96 156
61 97 159
60 96 156
62 98 157
62 98 162
62 99 169
61 96 156
63 98 159
62 98 163
61 97 154
63 99 168
60 95 155
61 97 157
62 98 164
62 97 158
61 97 162
61 97 159
61 97 161
61 97 159
61 97 162
62 98 170
62 98 164
61 97 162
60 95 161
62 98 166
61 97 161
60 95 153
61 96 162
62 98 165
61 96 161
60 95 160
62 97 166
61 96 166
62 97 167
59 93 158
118 142 192
207 226 252
211 230 255
211 230 255
211 230 255
211 230 255
211 230 255
211 230 255
211 230 255
211 230 255
211 230 255
211 230 255
211 230 255
211 230 255
211 230 255
211 230 255
211 230 255
211 230 255
211 230 255
211 230 255
211 230 255
211 230 255
211 230 255
212 230 255
212 230 255
212 230 255
212 230 255
172 182 186
128 125 83
138 135 88
128 127 85
126 125 84
142 140 94
136 134 91
123 123 84
137 136 92
127 127 88
134 132 90
151 149 100
140 139 95
135 134 91
143 141 95
146 144 97
148 146 99
144 143 97
142 141 96
141 140 96
145 144 98
144 143 96
148 147 100
153 152 101
152 151 101
150 148 100
156 155 105
149 147 98
158 155 104
151 149 99
158 156 103
161 158 106
152 150 102
163 161 107
158 156 104
161 158 103
156 154 103
165 163 108
159 157 103
163 161 106
169 165 108
160 157 104
165 161 105
157 153 101
171 168 110
163 159 103
164 160 104
166 162 107
168 163 107
167 163 108
169 165 107
163 159 101
170 166 109
164 160 103
170 164 108
165 161 105
168 164 105
168 164 105
167 163 105
163 160 104
169 165 106
167 163 105
169 165 106
170 166 104
167 163 103
168 163 105
166 161 105
164 160 103
165 161 106
166 161 102
168 164 104
170 166 105
169 165 106
171 166 107
171 166 106
168 163 103
161 157 101
168 163 104
171 166 106
165 161 101
168 164 103
167 161 103
165 161 104
160 155 100
164 159 101
166 161 102
158 155 97
160 157 99
163 159 102
163 158 99
161 157 100
166 162 105
161 156 99
162 157 99
166 161 104
168 162 101
158 154 95
164 159 100
168 162 102
163 158 99
166 161 100
168 163 103
156 152 95
159 154 97
161 156 95
165 160 103
165 160 99
162 156 99
166 160 100
165 160 96
161 156 99
161 155 97
160 156 99
157 151 94
160 155 95
165 161 97
159 154 97
154 150 95
155 151 90
156 150 94
161 155 95
152 148 93
154 149 95
164 159 99
153 148 89
160 156 91
162 157 92
155 150 90
157 152 92
159 154 95
153 150 91
156 151 95
152 146 89
146 142 86
152 146 87
182 202 228
182 202 228
181 201 228
181 201 228
182 202 228
181 201 228
181 201 228
180 201 228
181 202 228
181 202 228
180 201 228
180 201 228
181 201 228
180 201 228
179 200 228
179 201 228
179 200 228
180 201 228
179 200 228
179 200 228
178 200 228
179 200 228
179 200 228
178 200 228
178 200 228
178 200 228
178 200 228
177 199 228
177 199 228
177 199 228
177 199 228
177 199 228
176 199 228
177 199 228
176 198 228
176 199 228
176 199 228
176 199 228
177 199 228
176 199 228
177 199 228
176 198 228
175 198 228
174 198 228
174 198 228
175 198 228
175 198 228
175 198 228
174 198 228
174 198 228
174 198 228
173 197 228
173 197 228
173 197 228
173 197 228
173 197 228
173 197 228
173 197 228
173 197 228
172 197 228
172 196 228
172 196 228
171 196 228
172 196 228
172 196 228
171 196 228
171 196 228
171 196 228
170 196 228
171 196 228
170 196 228
170 195 228
170 196 228
171 196 228
171 196 228
170 195 228
170 195 228
169 195 228
169 195 228
169 195 228
169 195 228
169 195 228
169 195 228
169 195 228
168 194 228
169 195 228
168 195 228
168 195 228
168 194 228
168 194 228
168 194 228
168 195 228
168 194 228
167 194 228
168 194 228
168 194 228
168 194 228
168 194 228
167 194 228
167 194 228
167 194 228
167 194 228
167 194 228
167 194 228
167 194 228
168 194 228
167 194 228
167 194 228
168 194 228
167 194 228
168 194 228
168 194 228
168 194 228
169 195 228
168 194 228
168 194 228
168 195 228
169 195 228
168 195 228
169 195 228
170 195 228
171 196 228
171 196 228
171 196 228
171 196 228
171 196 228
173 197 228
173 197 228
174 198 228
175 198 228
175 198 228
176 199 228
172 193 221
174 194 221
160 178 202
186 203 227
212 230 255
212 230 255
212 230 255
212 230 255
212 230 255
212 230 255
212 230 255
212 230 255
212 230 255
212 230 255
212 230 255
211 230 255
211 230 255
211 230 255
211 230 255
211 230 255
211 230 255
211 230 255
211 230 255
211 230 255
211 230 255
211 230 255
211 230 255
211 230 255
147 169 210
61 96 166
59 95 163
60 96 164
60 96 163
61 97 165
62 98 169
61 97 165
62 98 166
61 97 157
60 96 163
61 97 161
62 98 159
62 97 155
61 97 158
62 98 168
61 97 162
60 96 155
62 98 160
62 98 160
62 98 164
62 98 163
61 97 155
62 98 161
61 97 159
62 97 158
62 99 168
61 97 153
64 100 171
62 99 166
61 97 151
61 97 160
61 97 161
62 98 163
61 98 161
61 97 162
62 98 161
61 97 161
62 97 156
62 98 165
61 97 159
61 97 156
61 97 160
62 97 158
61 97 158
62 98 162
62 98 162
62 98 158
63 99 167
61 98 162
62 98 159
62 98 161
61 98 161
62 97 160
63 98 165
62 98 163
62 98 166
63 98 163
62 98 165
62 97 164
63 98 161
62 98 163
60 95 149
61 95 155
61 96 158
60 96 154
61 95 155
60 96 157
61 97 159
60 96 154
61 97 158
60 95 156
59 93 153
61 96 162
60 96 159
61 96 162
60 95 160
61 96 164
60 95 162
127 149 192
211 230 255
211 230 255
211 230 255
211 230 255
211 230 255
211 230 255
211 230 255
211 230 255
211 230 255
211 230 255
211 230 255
211 230 255
211 230 255
212 230 255
212 230 255
212 230 255
212 230 255
212 230 255
212 230 255
212 230 255
212 230 255
212 230 255
212 230 255
212 230 255
176 187 193
122 121 80
131 129 86
134 131 87
130 129 87
131 130 88
134 133 91
129 128 87
122 121 83
126 125 86
139 139 95
134 133 91
135 135 91
142 140 95
135 135 93
141 141 95
149 148 100
138 138 94
141 141 98
146 145 99
139 138 93
144 143 97
142 141 96
148 147 98
158 156 104
146 145 99
157 155 104
153 151 101
150 148 100
156 153 102
152 149 99
153 151 99
160 156 104
157 154 101
159 157 103
163 159 104
164 162 108
161 158 103
160 158 105
159 156 103
164 161 105
159 157 104
161 158 103
167 163 107
163 160 106
161 158 104
171 167 109
170 166 109
164 161 107
164 162 107
169 165 109
169 164 108
162 158 100
166 163 107
171 166 108
166 162 106
166 162 103
165 160 103
171 166 107
168 165 106
169 166 106
169 165 109
165 161 105
167 163 106
170 165 106
168 164 106
169 164 104
168 163 102
170 165 104
170 164 105
173 168 107
165 161 104
173 168 108
171 166 105
167 163 104
168 163 102
165 160 103
166 160 102
166 161 102
166 162 100
170 165 104
171 167 104
167 162 101
163 159 101
167 163 101
161 157 100
163 158 101
168 163 104
165 160 100
159 154 95
166 161 101
162 158 101
173 168 109
167 162 100
159 155 96
168 162 102
163 159 101
170 165 105
165 160 99
166 162 101
167 162 101
159 154 97
170 165 102
166 161 99
156 151 90
158 154 94
163 158 100
160 155 97
154 150 93
169 163 98
164 159 97
167 162 103
154 149 92
157 152 94
163 157 96
157 152 93
160 155 97
163 157 98
162 157 95
162 156 97
155 150 90
158 153 95
158 153 95
163 157 95
152 147 87
160 155 97
159 154 90
158 153 94
146 143 85
144 140 84
154 149 89
146 142 85
148 143 85
153 147 91
151 146 90
155 148 89
183 202 228
182 202 228
182 202 228
183 202 228
182 202 228
182 202 228
183 202 228
182 202 228
180 201 228
181 201 228
180 201 228
181 201 228
180 201 228
180 201 228
181 201 228
180 201 228
180 201 228
180 201 228
179 200 228
180 201 228
179 200 228
179 200 228
179 200 228
178 200 228
178 200 228
178 200 228
178 200 228
179 200 228
177 199 228
178 200 228
177 199 228
177 199 228
178 200 228
177 199 228
177 199 228
178 199 228
176 199 228
176 199 228
176 199 228
177 199 228
177 199 228
175 198 228
175 198 228
175 198 228
175 198 228
174 198 228
175 198 228
175 198 228
175 198 228
175 198 228
174 198 228
174 198 228
174 198 228
174 198 228
174 198 228
174 198 228
173 197 228
173 197 228
174 197 228
173 197 228
172 197 228
171 196 228
172 197 228
172 196 228
173 197 228
171 196 228
172 196 228
171 196 228
171 196 228
171 196 228
171 196 228
172 196 228
170 196 228
171 196 228
171 196 228
170 196 228
170 195 228
170 195 228
170 195 228
170 195 228
170 195 228
169 195 228
169 195 228
169 195 228
169 195 228
169 195 228
169 195 228
169 195 228
168 194 228
168 195 228
169 195 228
169 195 228
168 195 228
169 195 228
169 195 228
168 195 228
169 195 228
169 195 228
169 195 228
168 194 228
169 195 228
168 195 228
168 194 228
168 195 228
168 194 228
168 195 228
167 194 228
168 195 228
168 194 228
168 195 228
168 194 228
168 195 228
169 195 228
169 195 228
169 195 228
169 195 228
169 195 228
169 195 228
169 195 228
170 196 228
170 196 228
171 196 228
171 196 228
171 196 228
171 196 228
171 196 228
173 197 228
172 197 228
173 197 228
175 198 228
175 198 228
176 199 228
178 200 228
177 198 226
166 185 211
160 177 200
196 214 238
212 230 255
212 230 255
212 230 255
212 230 255
212 230 255
212 230 255
212 230 255
212 230 255
212 230 255
212 230 255
212 230 255
212 230 255
212 230 255
212 230 255
212 230 255
212 230 255
212 230 255
212 230 255
212 230 255
212 230 255
211 230 255
211 230 255
157 177 216
61 97 172
61 97 169
61 97 168
61 96 163
61 97 163
61 97 164
61 96 157
61 97 163
60 96 164
61 96 162
62 97 160
61 97 163
62 98 167
61 97 163
61 97 154
60 96 156
63 99 166
62 98 164
62 98 166
62 98 164
61 97 163
61 97 160
62 98 163
62 97 156
62 98 163
62 98 156
61 97 162
61 97 160
62 97 160
62 98 157
61 97 162
60 96 153
62 98 157
62 98 161
60 95 143
61 97 159
62 98 163
63 98 163
61 97 159
62 97 157
62 98 161
62 98 159
62 98 160
62 98 161
62 98 162
61 97 153
62 98 162
62 97 154
62 98 162
61 97 157
61 97 158
61 97 155
62 98 162
61 97 161
61 96 156
61 96 158
62 97 162
61 97 161
61 96 155
60 95 151
62 98 160
61 97 155
62 97 159
61 96 156
61 97 156
62 97 160
61 96 160
62 98 161
62 97 165
62 97 155
61 96 156
60 95 156
60 95 160
59 93 156
60 95 156
61 96 165
60 94 159
60 94 163
60 94 158
59 93 155
167 187 223
211 230 255
211 230 255
212 230 255
212 230 255
212 230 255
212 230 255
212 230 255
212 230 255
212 230 255
212 230 255
212 230 255
212 230 255
212 230 255
212 230 255
212 230 255
212 230 255
212 230 255
212 230 255
212 230 255
212 230 255
212 230 255
212 230 255
187 200 214
125 122 81
131 128 86
138 136 91
130 129 86
118 117 81
137 136 92
136 135 92
126 126 85
137 137 93
128 128 88
144 142 96
129 128 89
140 140 96
139 138 94
134 134 93
137 137 94
151 150 101
156 154 103
156 153 102
154 153 103
143 143 97
149 148 99
154 152 103
146 145 98
154 152 102
154 151 101
153 151 101
148 147 99
159 157 105
156 154 104
158 156 105
158 155 103
162 159 105
148 146 99
160 157 104
160 157 103
159 157 103
161 158 103
160 157 102
165 161 106
163 160 105
165 162 105
162 159 104
157 154 100
164 160 103
161 157 103
166 162 106
171 166 107
167 163 108
163 159 104
164 161 106
169 164 107
161 158 103
171 166 107
169 165 107
169 163 105
169 164 107
164 160 106
168 164 104
167 162 103
169 165 106
162 158 100
170 166 108
166 163 107
168 164 105
170 165 107
168 164 105
167 164 106
176 170 109
171 166 105
167 163 102
173 168 104
166 161 102
171 166 104
167 162 102
174 169 108
166 161 101
167 163 102
169 164 106
163 158 101
165 162 98
171 166 106
167 161 101
164 158 101
170 163 103
168 164 100
169 164 103
165 159 100
164 159 98
166 162 102
166 160 101
162 157 98
161 156 97
167 162 104
173 168 106
161 156 96
161 156 98
165 161 97
170 164 103
161 156 95
156 151 95
172 166 106
159 155 93
163 157 97
166 161 99
165 159 97
157 153 93
162 157 96
158 153 97
161 156 95
163 159 99
159 154 97
157 151 93
155 150 93
156 151 92
157 153 95
162 157 97
157 152 93
165 159 97
165 160 97
157 152 93
156 151 91
157 152 90
152 147 88
160 154 93
161 156 95
151 147 90
165 160 100
145 140 82
162 155 95
142 138 86
157 152 90
156 150 86
166 160 97
139 135 80
151 146 84
181 201 228
184 203 228
182 202 228
181 201 228
182 202 228
183 202 228
182 202 228
181 201 228
182 202 228
181 201 228
182 202 228
181 202 228
180 201 228
181 201 228
180 201 228
180 201 228
181 202 228
180 201 228
180 201 228
179 200 228
181 201 228
180 201 228
179 200 228
180 201 228
179 200 228
179 200 228
179 200 228
178 200 228
178 200 228
178 200 228
178 200 228
178 199 228
177 199 228
177 199 228
177 199 228
176 199 228
177 199 228
177 199 228
176 199 228
176 199 228
176 199 228
176 198 228
177 199 228
175 198 228
175 198 228
175 198 228
174 198 228
175 198 228
175 198 228
176 199 228
175 198 228
175 198 228
174 198 228
174 198 228
174 197 228
174 197 228
175 198 228
173 197 228
173 197 228
173 197 228
172 197 228
173 197 228
172 197 228
173 197 228
172 197 228
173 197 228
172 197 228
172 196 228
172 197 228
173 197 228
173 197 228
172 196 228
172 196 228
172 196 228
171 196 228
171 196 228
171 196 228
171 196 228
171 196 228
171 196 228
171 196 228
170 196 228
171 196 228
171 196 228
170 195 228
169 195 228
170 196 228
170 195 228
170 196 228
170 196 228
169 195 228
169 195 228
169 195 228
169 195 228
169 195 228
169 195 228
169 195 228
169 195 228
168 195 228
169 195 228
169 195 228
168 195 228
169 195 228
169 195 228
169 195 228
169 195 228
169 195 228
169 195 228
169 195 228
168 195 228
169 195 228
169 195 228
169 195 228
169 195 228
169 195 228
169 195 228
169 195 228
170 195 228
170 196 228
170 196 228
170 196 228
170 196 228
171 196 228
172 196 228
172 196 228
173 197 228
174 197 228
173 197 228
173 197 228
175 198 228
176 199 228
175 198 228
177 199 228
178 200 228
174 194 221
168 187 212
164 181 204
201 218 242
212 231 255
212 231 255
212 231 255
212 231 255
212 230 255
212 230 255
212 230 255
212 230 255
212 230 255
212 230 255
212 230 255
212 230 255
212 230 255
212 230 255
212 230 255
212 230 255
212 230 255
212 230 255
212 230 255
212 230 255
182 202 233
64 98 170
60 95 163
60 96 164
60 96 160
60 96 162
61 96 161
61 97 161
61 97 157
62 98 165
61 96 157
62 98 167
61 97 156
60 96 151
62 97 161
62 98 161
62 98 167
60 96 157
62 98 159
62 98 164
62 97 160
62 98 157
61 97 157
61 97 161
61 97 161
61 97 157
62 98 158
62 98 161
62 98 158
62 98 163
62 97 161
62 98 163
62 98 162
61 96 152
62 98 158
61 97 161
61 97 159
61 97 157
62 98 159
62 98 161
62 97 159
62 98 158
60 96 153
62 98 158
64 100 168
61 97 162
61 98 161
62 98 154
62 97 159
62 98 157
61 97 155
61 97 158
61 97 156
62 98 164
62 97 157
61 96 155
61 96 158
62 97 157
61 96 152
62 98 166
61 97 163
62 97 156
62 98 164
61 97 155
62 98 166
62 98 165
61 96 153
61 95 153
61 96 159
60 95 155
61 96 152
61 96 154
61 97 159
60 94 153
60 95 155
59 93 147
61 96 159
61 97 165
59 92 149
60 93 151
60 94 153
60 94 161
72 101 161
193 211 239
212 230 255
212 230 255
212 230 255
212 230 255
212 230 255
212 230 255
212 230 255
212 230 255
212 230 255
212 230 255
212 230 255
212 230 255
212 230 255
212 230 255
212 230 255
212 231 255
212 231 255
212 231 255
212 231 255
212 231 255
198 214 233
137 136 104
117 116 78
126 124 83
132 130 88
136 134 91
129 129 89
135 134 91
138 137 93
138 137 94
133 132 90
129 129 89
137 136 92
135 135 92
135 135 94
142 141 95
146 145 97
141 140 95
146 145 99
147 145 97
149 148 99
142 141 97
141 140 93
148 146 98
132 130 87
144 143 97
145 145 99
151 150 101
156 155 104
154 151 100
159 156 103
163 159 106
142 141 94
159 157 105
155 152 102
159 156 104
163 159 102
162 158 103
162 158 105
156 153 101
164 160 105
163 160 103
162 160 107
157 154 99
161 158 101
166 162 107
162 159 103
165 161 103
165 161 105
167 162 104
165 162 106
163 160 101
167 163 103
166 162 105
169 164 107
171 166 107
168 164 108
173 168 108
166 162 105
164 160 101
165 160 103
166 163 104
169 165 107
175 169 109
171 166 106
168 164 104
165 160 99
166 161 103
170 165 104
165 160 102
169 164 104
168 164 104
174 169 108
170 166 105
172 167 107
166 161 101
170 165 106
168 162 101
168 164 103
169 165 105
170 165 103
164 159 99
162 157 98
168 164 104
170 164 104
166 161 104
165 161 101
164 159 98
169 164 102
165 161 98
164 159 99
170 164 103
170 165 103
163 158 99
168 163 103
165 160 99
167 162 99
156 151 95
169 164 104
163 159 97
169 164 99
164 159 100
163 159 98
164 158 100
172 165 104
163 158 96
164 158 96
167 161 96
164 158 99
162 157 95
162 156 95
160 154 94
162 157 95
163 158 99
160 155 95
168 163 97
159 154 96
156 151 92
165 159 101
160 154 97
155 150 91
163 158 92
162 157 95
165 159 96
158 154 95
160 154 93
154 149 90
158 152 93
155 150 89
152 147 84
165 161 99
152 148 90
151 147 88
153 148 90
155 151 91
157 152 85
153 150 87
151 147 89
183 202 228
183 202 228
184 203 228
183 203 228
183 203 228
183 203 228
182 202 228
182 202 228
182 202 228
182 202 228
182 202 228
182 202 228
182 202 228
181 201 228
181 201 228
182 202 228
181 201 228
181 201 228
181 201 228
180 201 228
180 201 228
180 201 228
179 200 228
179 200 228
180 201 228
179 200 228
179 201 228
179 200 228
179 200 228
178 200 228
179 200 228
179 200 228
179 200 228
178 200 228
177 199 228
178 200 228
177 199 228
177 199 228
177 199 228
177 199 228
176 199 228
177 199 228
178 199 228
176 199 228
177 199 228
177 199 228
176 199 228
176 199 228
175 198 228
175 198 228
175 198 228
175 198 228
175 198 228
175 198 228
176 199 228
175 198 228
175 198 228
174 198 228
174 198 228
175 198 228
173 197 228
174 198 228
174 198 228
173 197 228
173 197 228
173 197 228
173 197 228
172 197 228
172 197 228
172 197 228
173 197 228
172 197 228
171 196 228
172 197 228
173 197 228
172 196 228
172 196 228
171 196 228
171 196 228
171 196 228
171 196 228
171 196 228
171 196 228
171 196 228
171 196 228
171 196 228
170 196 228
171 196 228
171 196 228
170 195 228
170 196 228
170 195 228
170 196 228
171 196 228
170 196 228
170 195 228
170 195 228
169 195 228
169 195 228
170 195 228
170 195 228
169 195 228
170 195 228
169 195 228
170 195 228
170 196 228
169 195 228
169 195 228
170 195 228
169 195 228
169 195 228
170 195 228
169 195 228
169 195 228
170 195 228
170 196 228
170 196 228
169 195 228
170 196 228
171 196 228
171 196 228
172 196 228
172 196 228
171 196 228
172 197 228
172 197 228
173 197 228
173 197 228
174 198 228
174 198 228
175 198 228
175 198 228
177 199 228
177 199 228
179 200 228
179 199 226
168 187 212
159 175 196
204 222 246
213 231 255
213 231 255
213 231 255
213 231 255
212 231 255
212 231 255
212 231 255
212 231 255
212 231 255
212 231 255
212 231 255
212 231 255
212 231 255
212 231 255
212 230 255
212 230 255
212 230 255
212 230 255
203 222 248
102 127 180
59 95 167
61 97 167
60 95 158
60 95 155
61 96 158
61 96 161
61 97 161
61 96 160
61 97 162
61 97 161
61 97 159
62 98 166
62 98 162
61 97 154
61 96 158
62 97 156
62 98 166
61 96 151
62 98 163
61 97 161
62 98 159
61 97 157
62 99 167
62 97 157
61 97 150
62 97 154
62 98 162
63 99 162
62 98 162
61 96 157
62 98 156
62 98 163
61 97 153
62 97 151
61 97 157
62 98 162
62 98 161
62 97 158
62 98 157
62 97 151
61 96 150
60 96 156
61 97 156
62 98 156
62 98 164
62 98 158
60 96 152
62 98 158
61 97 155
62 98 155
62 97 160
62 98 160
61 97 154
61 97 156
62 98 166
62 97 156
62 97 159
62 98 160
62 97 155
62 98 160
61 96 151
62 98 158
62 97 162
62 97 160
60 96 155
61 97 157
61 96 155
61 95 156
61 96 154
61 96 159
61 96 151
61 97 162
61 96 161
61 96 153
60 94 152
61 95 157
61 96 160
59 93 153
58 91 149
59 93 157
58 90 146
59 91 148
92 117 163
205 224 250
212 230 255
212 230 255
212 230 255
212 230 255
212 230 255
212 231 255
212 231 255
212 231 255
212 231 255
212 231 255
212 231 255
212 231 255
212 231 255
212 231 255
212 231 255
213 231 255
213 231 255
213 231 255
204 221 240
135 136 106
127 124 81
133 131 87
122 121 82
127 127 87
129 127 86
137 137 94
134 133 91
123 122 84
134 134 91
139 139 95
131 130 89
135 135 92
141 141 97
127 128 89
132 131 90
131 131 91
135 135 93
141 140 95
143 142 97
153 151 102
132 132 91
149 148 101
150 149 100
145 145 99
151 148 99
148 146 98
154 151 100
157 154 102
152 151 100
155 153 100
155 153 102
152 151 101
160 157 104
163 159 105
163 159 105
159 157 103
160 156 100
162 159 104
158 156 103
160 157 100
169 165 107
161 157 103
160 157 102
165 161 103
160 158 102
165 161 105
167 163 106
164 160 102
165 162 107
170 165 108
166 162 101
163 160 102
167 162 104
169 165 103
168 164 106
167 163 103
168 164 103
171 166 107
166 162 101
166 162 102
166 162 102
162 158 99
166 162 104
168 163 106
168 162 102
171 165 104
171 166 106
169 164 107
170 166 104
173 167 104
167 162 104
169 164 104
168 164 103
168 162 102
168 163 103
170 165 104
172 167 106
171 165 103
163 159 101
170 165 102
167 163 104
170 166 105
167 162 99
166 162 100
171 165 104
166 162 101
169 164 102
161 157 100
164 159 95
168 164 101
170 164 103
163 158 98
162 157 96
169 163 104
165 159 98
166 160 97
165 160 103
165 160 99
168 162 101
165 160 99
162 157 97
163 160 97
167 161 101
167 161 97
162 156 95
169 163 102
166 160 98
164 159 99
164 158 98
158 155 97
166 161 97
170 164 104
162 157 96
164 159 99
157 153 96
155 150 90
156 151 90
159 154 90
161 155 97
161 157 97
158 153 95
164 159 97
157 152 93
156 151 87
164 160 98
158 153 95
168 161 97
159 154 90
157 152 91
159 154 95
152 148 89
151 145 88
154 149 89
161 155 93
157 152 94
156 150 90
153 148 89
184 203 228
183 202 228
183 202 228
183 203 228
183 202 228
183 202 228
183 202 228
183 203 228
182 202 228
183 202 228
182 202 228
182 202 228
182 202 228
181 201 228
182 202 228
182 202 228
180 201 228
181 201 228
181 201 228
181 201 228
181 201 228
181 201 228
180 201 228
181 202 228
179 200 228
180 201 228
180 201 228
179 201 228
180 201 228
180 201 228
179 200 228
178 200 228
179 200 228
179 200 228
180 201 228
178 200 228
179 200 228
178 200 228
178 199 228
178 200 228
178 200 228
178 200 228
177 199 228
177 199 228
178 200 228
175 198 228
177 199 228
176 198 228
177 199 228
176 199 228
176 199 228
176 199 228
175 198 228
176 199 228
176 199 228
177 199 228
176 199 228
176 198 228
175 198 228
175 198 228
174 198 228
174 198 228
174 197 228
174 198 228
174 198 228
174 198 228
174 198 228
174 198 228
174 197 228
173 197 228
172 197 228
173 197 228
173 197 228
173 197 228
174 198 228
173 197 228
172 197 228
172 197 228
172 197 228
171 196 228
172 197 228
172 196 228
172 197 228
172 197 228
172 196 228
172 196 228
171 196 228
171 196 228
171 196 228
171 196 228
171 196 228
171 196 228
171 196 228
171 196 228
171 196 228
170 196 228
171 196 228
171 196 228
170 196 228
170 196 228
171 196 228
170 196 228
170 195 228
169 195 228
171 196 228
171 196 228
170 196 228
171 196 228
170 196 228
171 196 228
170 196 228
171 196 228
170 196 228
170 195 228
171 196 228
170 196 228
170 196 228
171 196 228
171 196 228
171 196 228
171 196 228
172 196 228
171 196 228
172 196 228
172 197 228
171 196 228
173 197 228
174 197 228
174 198 228
174 198 228
175 198 228
176 199 228
177 199 228
177 199 228
179 200 228
179 201 228
173 192 218
169 187 211
174 191 213
212 230 254
213 231 255
213 231 255
213 231 255
213 231 255
213 231 255
213 231 255
213 231 255
213 231 255
213 231 255
213 231 255
213 231 255
213 231 255
212 231 255
212 231 255
212 231 255
212 231 255
212 231 255
142 163 205
59 94 162
59 93 160
59 94 157
60 96 165
61 96 159
61 96 157
61 97 166
61 97 154
61 97 163
62 97 159
60 96 161
61 96 156
60 96 153
61 96 151
61 97 155
61 97 154
61 96 156
61 97 153
63 98 164
62 97 157
62 98 161
61 96 152
62 97 150
62 99 168
62 97 156
62 98 158
61 96 151
61 97 155
61 96 152
61 97 156
62 98 158
61 97 154
61 97 158
62 98 161
61 97 156
62 98 161
62 98 156
61 97 153
61 96 150
62 98 162
62 97 157
62 98 162
62 97 153
61 97 152
62 98 158
61 97 158
62 98 162
62 97 156
62 98 159
62 98 159
61 97 151
61 97 158
61 97 159
61 97 159
61 97 160
62 97 156
62 97 160
60 96 154
62 98 162
63 98 163
61 96 156
61 96 154
62 97 156
61 96 158
61 97 158
61 96 156
61 97 162
61 95 152
62 97 161
60 96 155
61 96 160
61 96 158
60 94 157
61 96 153
62 97 162
59 92 149
59 93 153
59 93 149
60 94 154
58 92 146
60 94 150
59 92 150
58 92 151
59 93 155
134 156 197
212 231 255
212 231 255
212 231 255
212 231 255
212 231 255
213 231 255
213 231 255
213 231 255
213 231 255
213 231 255
213 231 255
213 231 255
213 231 255
213 231 255
213 231 255
213 231 255
213 231 255
211 229 253
138 140 125
115 114 77
122 121 82
117 116 79
123 122 83
117 117 81
130 130 89
131 130 89
123 124 86
131 130 89
122 123 86
139 138 94
125 126 86
137 137 95
139 139 95
133 133 91
137 137 94
135 134 92
145 143 97
139 138 94
132 133 91
152 150 100
154 152 102
146 145 98
150 149 101
146 145 97
156 153 101
150 148 97
153 151 102
151 149 100
151 148 99
157 155 104
159 156 103
163 161 106
156 154 102
166 163 109
158 155 103
161 158 104
159 156 103
164 161 105
159 157 103
155 152 98
165 161 104
162 157 100
161 158 101
161 159 105
165 161 106
169 165 105
162 158 99
163 159 103
168 163 108
167 163 104
169 165 106
166 162 103
173 168 109
166 162 105
171 166 105
165 160 103
171 166 104
172 167 108
170 166 106
173 168 108
173 167 106
166 162 102
164 160 101
172 166 104
168 163 102
167 162 99
171 167 109
168 164 104
167 162 105
174 168 105
171 166 103
166 162 103
174 168 105
163 158 98
171 166 105
174 167 106
168 163 102
170 165 104
170 166 108
166 161 103
165 161 97
172 165 101
169 163 101
169 164 103
171 165 105
168 163 99
163 159 95
168 162 97
164 159 99
166 161 99
166 161 103
167 162 103
164 160 98
162 157 97
166 160 99
169 163 101
163 159 97
165 159 99
163 158 99
164 159 99
165 161 97
165 160 99
164 159 96
162 157 93
161 157 97
160 155 96
165 160 98
169 163 101
162 157 99
166 160 97
162 156 93
167 162 99
162 157 93
161 156 97
162 157 99
159 154 90
162 157 95
161 155 95
162 158 98
167 161 98
161 156 93
162 157 90
162 156 97
157 151 90
160 155 93
161 156 98
158 153 94
159 153 90
160 155 95
155 149 87
165 159 99
156 153 90
154 148 87
162 157 93
155 150 89
153 147 87
153 148 90
185 204 228
185 203 228
184 203 228
183 203 228
183 203 228
183 202 228
183 202 228
183 202 228
183 202 228
182 202 228
183 202 228
182 202 228
182 202 228
182 202 228
181 201 228
182 202 228
182 202 228
182 202 228
181 201 228
181 202 228
182 202 228
181 201 228
180 201 228
181 202 228
180 201 228
181 201 228
180 201 228
180 201 228
180 201 228
179 200 228
179 200 228
180 201 228
180 201 228
179 200 228
179 200 228
179 200 228
179 200 228
179 200 228
178 200 228
179 200 228
178 200 228
178 200 228
178 200 228
178 200 228
177 199 228
178 200 228
177 199 228
177 199 228
177 199 228
177 199 228
177 199 228
176 199 228
177 199 228
176 198 228
176 199 228
176 199 228
176 199 228
175 198 228
176 198 228
176 198 228
175 198 228
175 198 228
176 198 228
174 198 228
176 199 228
174 198 228
174 198 228
174 198 228
175 198 228
174 198 228
174 197 228
173 197 228
174 198 228
174 198 228
173 197 228
173 197 228
173 197 228
173 197 228
173 197 228
172 197 228
174 197 228
172 196 228
172 197 228
173 197 228
173 197 228
171 196 228
172 197 228
172 197 228
172 197 228
172 197 228
172 197 228
172 196 228
171 196 228
172 196 228
172 196 228
172 196 228
171 196 228
171 196 228
171 196 228
171 196 228
171 196 228
171 196 228
171 196 228
171 196 228
171 196 228
171 196 228
171 196 228
170 196 228
171 196 228
171 196 228
171 196 228
171 196 228
170 196 228
171 196 228
170 196 228
172 197 228
171 196 228
172 196 228
172 196 228
172 196 228
171 196 228
172 197 228
172 197 228
174 197 228
172 197 228
173 197 228
174 198 228
174 198 228
175 198 228
175 198 228
175 198 228
176 199 228
177 199 228
177 199 228
178 200 228
179 201 228
181 202 228
175 195 220
166 183 207
181 197 219
213 231 255
213 231 255
213 231 255
213 231 255
213 231 255
213 231 255
213 231 255
213 231 255
213 231 255
213 231 255
213 231 255
213 231 255
213 231 255
213 231 255
213 231 255
213 231 255
187 206 237
58 93 159
59 95 163
59 95 160
60 96 157
59 95 155
60 95 157
60 95 159
60 96 161
62 97 160
61 96 156
62 97 164
61 97 160
61 96 156
61 96 153
61 97 158
61 97 164
62 97 162
62 97 159
61 97 149
62 98 165
61 97 154
61 96 158
61 97 158
62 98 162
62 98 157
61 97 159
63 98 165
61 97 153
61 97 151
62 97 154
62 98 158
61 96 154
61 97 156
60 96 155
61 96 149
63 99 166
62 98 162
62 98 156
61 97 155
62 98 162
62 98 160
62 98 163
62 98 162
60 96 149
62 98 159
62 98 163
62 98 161
62 98 154
61 97 154
61 97 154
62 97 158
62 98 154
61 97 152
62 98 163
61 96 150
61 96 151
61 96 152
61 96 152
62 97 157
62 97 162
60 95 152
62 98 161
61 96 156
60 96 152
60 96 154
61 97 157
61 95 152
62 97 151
60 95 145
62 96 151
60 95 155
61 96 153
61 96 156
60 95 150
61 96 158
60 94 151
60 95 154
59 94 152
59 93 156
59 93 153
60 94 155
60 94 154
60 94 154
56 88 149
60 94 162
59 91 145
176 195 225
213 231 255
213 231 255
213 231 255
213 231 255
213 231 255
213 231 255
213 231 255
213 231 255
213 231 255
213 231 255
213 231 255
213 231 255
213 231 255
213 231 255
213 231 255
213 231 255
181 190 194
123 120 79
123 122 83
123 122 82
122 122 85
128 127 87
130 129 88
125 125 87
129 129 89
130 130 90
131 131 90
134 133 91
128 128 89
132 132 91
125 126 88
145 144 98
132 132 91
132 132 91
147 146 98
145 144 98
145 145 98
138 137 93
140 139 94
140 140 95
146 145 97
143 142 95
143 142 94
151 150 101
152 149 97
154 152 103
156 154 103
149 147 98
153 150 97
153 152 100
157 153 101
167 164 108
160 157 103
162 159 104
166 162 108
160 157 104
165 162 108
161 158 104
165 161 106
165 161 104
164 161 104
164 161 105
164 160 105
159 155 99
161 157 99
161 158 102
168 163 105
166 163 107
164 160 104
163 159 103
167 162 102
162 159 103
167 163 106
168 164 103
172 167 105
168 162 101
171 165 104
169 164 103
172 167 106
171 166 104
173 167 105
171 166 107
169 164 105
172 167 106
171 166 106
173 168 104
165 160 100
173 167 105
170 165 105
166 160 98
169 163 101
172 167 106
168 163 103
169 164 105
176 169 106
172 167 106
173 166 104
170 164 104
171 166 103
163 158 98
170 165 102
168 164 102
167 163 103
170 164 101
170 164 97
171 165 104
169 164 101
162 158 96
167 162 102
164 159 102
170 164 103
163 158 98
166 161 101
170 165 102
170 164 99
166 162 101
166 160 98
170 165 103
161 157 97
167 161 100
162 157 95
167 162 99
168 163 101
166 160 97
164 159 99
159 155 95
161 156 95
166 159 95
167 162 95
164 160 96
167 161 96
162 157 98
164 159 97
160 154 95
162 156 96
162 157 95
165 158 96
163 158 97
157 153 95
157 153 90
151 146 87
157 153 90
159 154 94
156 151 91
158 153 93
156 152 89
157 152 90
154 149 87
160 154 94
156 150 87
156 150 87
159 154 90
155 149 91
161 156 95
162 156 95
153 147 86
184 203 228
186 204 228
185 203 228
183 203 228
184 203 228
184 203 228
185 203 228
184 203 228
183 202 228
183 203 228
183 202 228
183 202 228
182 202 228
182 202 228
183 202 228
183 203 228
181 202 228
182 202 228
182 202 228
182 202 228
181 201 228
182 202 228
182 202 228
182 202 228
181 201 228
180 201 228
180 201 228
180 201 228
182 202 228
181 201 228
181 201 228
180 201 228
179 200 228
180 201 228
180 201 228
179 200 228
180 201 228
179 200 228
181 201 228
179 200 228
180 201 228
178 200 228
178 200 228
178 200 228
178 200 228
179 200 228
178 200 228
179 200 228
177 199 228
178 200 228
177 199 228
177 199 228
177 199 228
177 199 228
176 199 228
177 199 228
176 199 228
177 199 228
176 198 228
177 199 228
175 198 228
177 199 228
176 199 228
175 198 228
175 198 228
175 198 228
176 199 228
176 199 228
175 198 228
175 198 228
176 198 228
175 198 228
175 198 228
175 198 228
174 198 228
173 197 228
174 198 228
174 197 228
173 197 228
174 197 228
174 198 228
173 197 228
173 197 228
173 197 228
173 197 228
173 197 228
174 197 228
172 197 228
172 197 228
172 197 228
172 197 228
172 197 228
172 197 228
172 196 228
172 196 228
172 197 228
172 197 228
172 197 228
172 197 228
171 196 228
172 196 228
171 196 228
171 196 228
172 197 228
172 196 228
172 197 228
171 196 228
172 196 228
172 196 228
172 197 228
171 196 228
172 196 228
173 197 228
172 197 228
171 196 228
172 197 228
172 196 228
173 197 228
173 197 228
172 197 228
173 197 228
173 197 228
172 197 228
172 197 228
172 196 228
170 194 225
171 195 226
173 197 228
173 197 228
175 198 228
175 198 228
177 199 228
177 199 228
177 199 228
177 199 228
179 200 228
180 201 228
181 201 228
172 191 217
168 185 208
197 214 237
213 231 255
213 231 255
213 231 255
213 231 255
213 231 255
213 231 255
213 231 255
213 231 255
213 231 255
213 231 255
213 231 255
213 231 255
213 231 255
213 231 255
211 229 254
83 112 177
60 95 164
60 96 163
60 95 157
61 96 158
60 96 161
61 97 162
61 96 157
59 95 153
61 97 156
61 97 157
60 96 156
61 97 160
61 96 151
61 96 158
61 97 159
60 96 154
60 96 156
62 97 161
61 96 158
60 95 150
60 96 156
61 97 159
62 98 161
60 95 146
62 98 159
61 97 156
61 96 150
62 98 164
60 96 147
61 97 153
61 97 151
61 96 155
61 96 151
62 97 152
62 98 163
61 97 155
61 97 154
62 98 157
62 97 157
62 97 156
61 97 156
61 97 150
61 97 159
61 96 153
61 96 151
61 97 152
61 97 152
61 97 151
62 98 154
61 97 160
62 98 158
61 96 150
61 97 156
62 97 154
61 97 152
60 95 153
60 95 147
62 97 161
62 97 156
62 98 158
61 97 155
61 96 159
61 96 152
60 95 145
61 96 153
60 95 146
61 97 157
61 96 159
62 97 158
60 95 149
61 97 160
60 94 151
61 96 155
61 96 156
61 95 152
60 94 150
61 96 160
61 96 156
60 94 149
60 94 157
60 94 144
59 93 156
59 91 144
59 91 144
58 91 146
58 90 145
80 108 164
207 225 250
213 231 255
213 231 255
213 231 255
213 231 255
213 231 255
213 231 255
213 231 255
213 231 255
213 231 255
213 231 255
213 231 255
213 231 255
213 231 255
213 231 255
195 208 221
126 124 80
110 110 74
133 132 89
117 116 79
124 124 85
120 120 84
118 119 81
130 130 89
131 131 90
128 128 89
133 133 90
131 131 91
128 128 88
141 139 94
135 135 92
131 131 91
138 137 91
139 137 92
145 144 98
140 139 95
131 131 89
141 141 96
142 140 94
142 141 96
150 149 101
152 150 100
148 146 98
155 153 101
152 149 99
152 150 97
153 151 100
153 152 102
153 151 101
155 152 99
158 156 103
162 159 104
167 164 109
157 153 100
162 159 105
160 157 104
163 159 104
163 158 102
164 160 106
164 160 103
165 162 103
164 160 104
166 161 103
168 163 105
166 162 104
168 164 106
166 161 99
170 165 106
169 164 105
166 162 103
167 162 103
169 164 103
165 161 103
171 165 105
167 163 100
166 162 103
170 163 102
167 163 103
173 167 106
167 162 103
174 169 106
169 164 103
171 166 106
172 166 105
171 165 106
173 167 104
172 167 104
174 169 105
171 166 103
167 163 98
170 165 104
169 163 101
167 163 100
174 168 108
169 164 106
163 158 95
172 166 104
166 162 101
168 163 102
172 167 103
172 166 102
165 161 100
165 161 99
167 161 97
168 163 99
171 166 103
170 164 101
166 162 99
173 167 105
169 163 100
169 163 99
159 154 91
172 165 101
166 161 98
165 161 99
167 161 99
165 160 99
165 158 95
160 156 93
168 162 97
167 161 97
169 164 103
162 156 96
168 162 95
163 157 95
169 163 99
160 155 91
162 157 98
165 160 98
165 160 100
159 155 90
159 153 93
162 157 97
156 150 91
162 158 97
158 154 90
159 155 95
164 158 96
158 153 88
156 151 93
161 156 95
155 151 93
155 150 88
163 157 93
151 146 87
163 156 93
163 157 96
158 153 87
152 148 88
161 155 92
158 152 90
157 152 93
165 160 96
155 151 89
155 150 87
149 146 86
186 204 228
185 203 228
183 203 228
185 203 228
184 203 228
184 203 228
184 203 228
184 203 228
185 203 228
185 203 228
183 202 228
183 203 228
183 203 228
183 203 228
183 202 228
183 202 228
183 203 228
183 202 228
182 202 228
182 202 228
183 202 228
183 202 228
182 202 228
182 202 228
182 202 228
183 202 228
182 202 228
181 201 228
182 202 228
181 202 228
180 201 228
181 202 228
181 201 228
181 201 228
181 201 228
180 201 228
180 201 228
179 200 228
180 201 228
180 201 228
180 201 228
180 201 228
179 200 228
178 200 228
179 200 228
179 200 228
178 200 228
179 200 228
179 200 228
178 200 228
178 200 228
178 200 228
177 199 228
178 199 228
177 199 228
178 200 228
178 199 228
178 200 228
177 199 228
176 199 228
176 199 228
177 199 228
176 199 228
176 199 228
176 198 228
176 199 228
177 199 228
176 199 228
175 198 228
176 199 228
176 198 228
175 198 228
176 199 228
175 198 228
175 198 228
175 198 228
175 198 228
174 198 228
175 198 228
174 198 228
175 198 228
174 198 228
175 198 228
174 198 228
175 198 228
173 197 228
173 197 228
175 198 228
174 198 228
174 197 228
174 197 228
173 197 228
173 197 228
173 197 228
174 197 228
172 197 228
173 197 228
173 197 228
173 197 228
172 197 228
172 197 228
173 197 228
172 197 228
172 197 228
172 196 228
173 197 228
172 197 228
173 197 228
172 196 228
172 197 228
173 197 228
173 197 228
172 197 228
172 197 228
172 197 228
172 196 228
172 197 228
173 197 228
173 197 228
173 197 228
172 196 228
173 196 228
170 194 225
169 193 225
166 190 223
168 192 224
164 188 221
170 194 226
168 191 223
170 193 225
168 192 224
168 191 223
172 195 225
177 199 228
178 200 228
179 200 228
180 201 228
182 202 228
176 195 220
170 188 212
171 188 210
211 228 252
214 231 255
214 231 255
214 231 255
214 231 255
214 231 255
213 231 255
213 231 255
213 231 255
213 231 255
213 231 255
213 231 255
213 231 255
213 231 255
148 168 209
60 96 162
60 95 159
60 96 161
60 94 150
59 94 155
60 95 150
61 97 164
61 97 158
61 96 156
60 95 148
59 94 149
61 97 160
62 97 161
62 98 162
61 96 159
61 97 158
61 97 153
60 96 152
61 97 155
63 99 165
62 97 156
62 97 160
61 97 152
61 96 154
61 96 150
61 97 152
62 98 159
61 97 154
60 96 144
62 97 152
62 97 156
61 96 147
59 94 140
61 97 159
61 96 155
61 97 159
62 97 153
62 98 160
62 97 157
61 96 154
62 98 157
61 96 161
61 97 157
62 97 150
62 98 164
62 98 159
61 96 151
60 96 150
62 98 159
61 96 152
60 96 150
61 96 149
61 96 149
62 97 151
61 96 153
62 97 155
61 96 150
62 97 155
61 97 153
62 97 156
61 96 155
61 97 155
61 96 155
61 96 153
61 96 153
61 96 154
62 97 156
61 96 155
60 95 148
62 97 154
61 96 161
61 97 157
60 94 150
61 95 149
61 95 153
60 94 155
61 96 157
60 94 142
60 94 150
60 94 148
59 92 145
60 94 150
60 93 155
60 94 151
61 95 159
57 89 140
58 91 149
56 88 148
152 171 204
213 231 255
213 231 255
213 231 255
213 231 255
213 231 255
213 231 255
213 231 255
214 231 255
214 231 255
214 231 255
214 231 255
214 231 255
214 231 255
207 224 244
137 138 114
124 122 82
122 120 81
116 115 79
128 127 86
115 115 81
125 125 86
120 120 82
123 123 85
126 126 86
130 130 89
125 127 89
135 134 92
122 122 83
142 142 99
124 124 85
133 134 94
136 135 91
139 138 94
139 138 94
144 143 96
146 144 97
147 146 99
149 148 98
149 148 100
147 146 98
144 143 96
148 146 95
147 145 97
156 154 101
154 152 100
156 154 102
162 159 104
154 151 98
151 149 98
158 154 100
155 152 97
154 153 100
164 160 106
158 154 99
163 159 102
156 153 99
164 161 103
160 157 102
164 159 103
161 159 103
167 164 104
159 155 98
169 165 108
164 159 101
161 158 102
170 165 105
163 159 99
170 165 106
172 167 104
156 154 99
172 167 106
169 164 104
171 166 105
168 163 102
169 164 102
169 165 103
170 166 105
170 165 102
168 163 103
165 161 102
170 165 102
167 162 101
172 166 98
166 161 105
175 169 106
173 167 106
170 165 103
168 163 101
174 169 104
170 166 104
172 166 104
166 162 101
170 165 101
172 167 103
172 167 106
166 160 99
170 165 102
175 169 104
171 165 101
172 166 99
172 167 103
169 164 100
165 160 96
167 163 99
168 163 97
172 166 104
172 166 103
172 166 104
162 158 95
165 159 95
165 160 97
167 162 102
168 162 99
171 166 102
165 159 95
161 157 97
169 163 99
170 164 100
161 156 96
163 158 99
169 162 97
166 161 97
170 163 100
168 162 99
160 154 89
170 164 98
165 160 97
163 157 95
165 160 96
161 157 95
165 160 95
164 159 97
164 158 95
165 160 90
163 158 97
161 156 94
165 158 94
166 160 97
159 154 93
168 163 97
166 160 95
156 151 92
162 158 90
163 156 94
155 150 90
157 153 89
155 150 84
155 151 91
156 151 90
163 157 95
159 154 88
161 156 92
163 156 92
157 152 89
152 146 88
185 204 228
185 203 228
185 203 228
185 203 228
185 204 228
184 203 228
185 204 228
184 203 228
184 203 228
185 204 228
184 203 228
183 202 228
184 203 228
184 203 228
183 203 228
183 202 228
182 202 228
184 203 228
183 202 228
183 203 228
183 202 228
183 202 228
182 202 228
183 202 228
183 202 228
182 202 228
182 202 228
182 202 228
182 202 228
181 201 228
181 202 228
181 202 228
180 201 228
181 202 228
181 201 228
181 201 228
180 201 228
180 201 228
179 200 228
181 201 228
180 201 228
180 201 228
180 201 228
180 201 228
179 200 228
179 200 228
180 201 228
180 201 228
179 200 228
179 200 228
180 201 228
179 200 228
180 201 228
179 200 228
178 200 228
179 200 228
178 200 228
179 200 228
178 200 228
178 200 228
178 200 228
177 199 228
178 199 228
177 199 228
177 199 228
177 199 228
177 199 228
177 199 228
176 199 228
177 199 228
176 199 228
176 199 228
176 198 228
177 199 228
175 198 228
176 199 228
175 198 228
175 198 228
176 198 228
175 198 228
175 198 228
176 198 228
175 198 228
175 198 228
175 198 228
174 197 228
175 198 228
174 198 228
174 198 228
173 197 228
175 198 228
174 198 228
175 198 228
174 198 228
174 198 228
174 198 228
174 198 228
173 197 228
173 197 228
173 197 228
174 197 228
173 197 228
174 197 228
174 197 228
173 197 228
173 197 228
173 197 228
173 197 228
173 197 228
175 198 228
173 197 228
174 198 228
174 197 228
174 198 228
174 197 228
174 197 228
173 197 228
174 197 228
174 197 228
172 195 227
170 194 226
168 192 224
170 193 225
162 186 219
163 186 219
160 184 218
165 189 223
158 181 216
154 178 214
167 191 223
166 189 222
165 187 219
166 188 220
171 193 224
172 194 224
178 199 228
180 201 228
181 201 228
182 202 228
175 194 219
167 185 208
178 194 216
214 231 255
214 231 255
214 231 255
214 231 255
214 231 255
214 231 255
214 231 255
214 231 255
214 231 255
214 231 255
214 231 255
214 231 255
204 222 248
68 100 159
58 92 156
59 95 155
59 94 155
60 95 153
60 95 160
59 94 155
61 96 161
60 95 152
59 94 148
62 98 163
61 96 155
61 96 155
60 95 153
60 96 158
60 96 153
61 96 156
60 95 146
60 95 150
61 97 158
61 97 153
62 98 161
62 98 160
61 97 155
62 98 167
62 97 154
61 97 157
60 96 149
62 97 157
61 98 162
62 98 155
61 97 156
61 97 154
62 98 159
62 98 158
61 97 154
61 97 152
61 97 152
61 97 154
62 98 156
62 97 158
61 97 154
62 97 157
61 97 155
62 98 161
62 97 160
62 98 157
61 97 155
62 98 154
61 95 149
61 96 152
61 96 153
61 97 152
59 94 141
62 97 153
62 97 153
61 96 150
60 95 146
62 98 159
61 97 153
61 96 155
61 97 152
61 96 148
61 97 155
62 97 160
61 96 150
60 95 144
61 94 147
61 96 154
62 97 154
60 95 154
60 95 148
59 94 152
61 95 153
60 95 154
60 95 151
60 95 151
60 94 145
60 94 152
60 95 151
59 92 140
59 92 146
61 94 150
60 94 153
60 93 151
58 91 139
59 91 147
60 92 150
58 90 153
63 91 144
202 220 248
214 231 255
214 231 255
214 231 255
214 231 255
214 231 255
214 231 255
214 231 255
214 231 255
214 231 255
214 231 255
214 231 255
214 231 255
171 181 187
116 114 76
126 124 84
115 113 77
126 125 84
126 125 84
117 117 81
116 117 82
124 125 86
113 115 81
117 119 82
123 124 86
125 126 87
131 131 90
121 121 83
137 137 93
132 132 92
134 134 91
128 128 86
136 137 93
134 133 89
140 140 95
146 145 98
145 144 96
149 148 99
151 148 97
147 145 99
149 147 95
153 150 98
147 146 96
150 148 96
152 150 100
153 151 99
160 157 104
152 150 99
158 155 101
155 152 96
164 160 103
159 156 103
153 151 99
157 154 95
159 156 102
158 155 98
167 163 106
163 159 100
158 154 98
163 159 102
167 163 103
158 155 98
165 160 103
163 159 100
166 163 106
161 157 97
167 162 100
166 162 104
168 164 102
166 162 101
168 164 104
168 163 104
166 161 97
167 162 103
167 163 103
168 163 104
173 168 108
170 164 105
168 163 102
174 169 104
168 162 103
171 165 102
175 169 103
173 168 107
172 166 104
169 164 100
171 166 104
168 165 104
172 167 103
166 162 99
168 163 103
174 168 105
170 164 101
171 166 103
168 162 100
168 164 101
169 163 101
169 164 99
173 167 103
173 167 103
164 158 97
164 160 95
172 167 103
164 159 94
168 162 101
165 160 99
161 156 95
165 160 100
162 157 95
169 163 97
165 160 97
159 154 93
167 163 98
166 161 95
173 167 102
165 159 95
165 159 97
166 160 95
164 159 95
164 159 93
165 160 94
165 159 95
166 160 96
167 162 97
161 156 90
170 164 97
165 159 95
156 151 89
158 152 93
167 162 98
164 159 95
163 158 96
163 158 95
160 155 95
156 152 84
167 161 95
160 154 88
161 155 95
163 156 95
156 152 90
164 159 99
159 153 92
157 151 91
163 158 95
158 153 87
163 158 93
160 155 90
162 156 91
159 153 91
157 151 87
157 150 88
153 148 85
154 148 88
164 157 91
160 154 92
186 204 228
185 204 228
187 205 228
185 204 228
185 204 228
185 204 228
185 203 228
184 203 228
184 203 228
184 203 228
185 203 228
184 203 228
184 203 228
185 203 228
183 203 228
184 203 228
184 203 228
184 203 228
184 203 228
184 203 228
184 203 228
183 202 228
183 202 228
183 202 228
184 203 228
182 202 228
183 202 228
183 203 228
183 202 228
182 202 228
181 202 228
181 202 228
182 202 228
181 201 228
181 201 228
181 202 228
181 201 228
182 202 228
181 202 228
181 202 228
181 201 228
181 201 228
179 201 228
181 201 228
180 201 228
181 201 228
179 200 228
180 201 228
180 201 228
180 201 228
179 200 228
179 200 228
180 201 228
180 201 228
179 200 228
179 200 228
179 200 228
179 201 228
179 200 228
179 200 228
178 200 228
179 200 228
178 200 228
178 200 228
178 200 228
178 199 228
178 200 228
176 199 228
178 200 228
177 199 228
176 199 228
177 199 228
176 199 228
176 199 228
176 199 228
177 199 228
177 199 228
176 199 228
177 199 228
176 199 228
175 198 228
175 198 228
176 199 228
175 198 228
175 198 228
176 199 228
176 199 228
174 198 228
176 199 228
175 198 228
175 198 228
175 198 228
175 198 228
174 198 228
175 198 228
175 198 228
175 198 228
175 198 228
175 198 228
175 198 228
174 198 228
173 197 228
174 198 228
175 198 228
174 198 228
174 198 228
175 198 228
175 198 228
174 198 228
174 198 228
175 198 228
174 198 228
174 197 228
173 197 228
175 198 228
175 198 228
174 197 228
174 197 228
175 198 228
171 194 226
164 187 220
166 189 221
157 180 214
160 183 218
161 185 219
155 178 214
151 175 212
146 170 208
150 173 210
158 181 216
150 173 208
163 186 219
163 185 219
161 183 217
167 189 220
171 192 222
176 197 225
178 199 227
181 201 228
180 200 226
176 194 218
170 187 209
204 221 245
214 232 255
214 232 255
214 232 255
214 232 255
214 232 255
214 232 255
214 232 255
214 231 255
214 231 255
214 231 255
214 231 255
144 164 206
58 93 159
60 95 167
59 94 157
59 93 154
59 94 153
59 95 156
60 94 153
60 95 159
60 95 154
61 97 155
59 94 148
62 98 162
62 97 159
62 98 160
62 97 162
60 96 153
62 97 158
60 96 155
60 95 147
61 96 151
61 97 158
60 95 151
61 96 146
61 96 151
60 95 146
61 96 156
62 97 153
61 97 160
62 98 160
61 96 149
60 95 147
61 96 152
62 97 157
61 96 142
62 97 156
62 98 156
61 97 153
62 97 152
61 97 154
62 98 156
61 96 149
61 97 154
60 96 155
62 97 155
62 98 158
61 97 151
61 97 159
61 97 152
62 98 154
61 96 152
62 98 159
62 97 155
61 96 154
61 96 152
62 97 154
61 97 158
61 96 152
61 97 155
61 97 154
61 96 152
60 95 147
60 94 148
60 95 158
61 96 153
61 97 156
60 96 150
60 95 143
61 97 155
61 97 158
61 95 151
61 97 156
61 95 146
60 95 147
60 94 142
61 96 155
61 95 147
60 94 146
61 95 152
60 94 151
61 95 154
59 92 146
61 96 158
61 96 153
60 95 154
59 93 153
59 92 145
58 92 156
59 92 148
57 90 144
56 86 134
127 146 181
214 231 255
214 231 255
214 231 255
214 232 255
214 232 255
214 232 255
214 232 255
214 232 255
214 232 255
214 232 255
214 232 255
202 217 234
129 127 84
115 113 74
112 112 75
110 110 78
117 118 82
117 117 81
122 122 84
118 119 84
116 116 79
126 126 87
119 120 83
131 131 89
119 121 85
138 137 92
128 128 89
133 133 90
141 141 96
135 134 90
135 135 91
141 141 95
139 139 95
137 136 92
138 136 91
144 143 96
146 145 96
150 147 97
140 139 95
139 138 91
146 145 94
146 145 96
155 151 98
153 150 97
154 152 102
158 156 102
154 152 100
153 151 97
159 156 104
158 155 102
151 149 96
158 155 101
162 158 103
166 162 104
167 163 105
165 162 107
160 156 101
166 162 103
153 150 92
164 161 102
165 162 102
157 154 99
167 163 104
170 165 103
168 164 101
170 165 104
172 167 104
167 162 103
167 162 100
168 163 100
168 163 103
172 166 104
170 166 103
174 168 104
172 167 103
168 163 100
168 163 97
165 161 101
167 162 99
171 166 99
170 165 103
166 160 101
172 166 102
170 164 104
174 169 104
167 162 97
172 166 102
170 164 99
170 165 100
170 164 100
171 165 102
172 165 101
169 165 103
168 162 97
174 168 103
175 169 103
168 163 99
174 168 104
168 164 102
170 165 104
168 162 100
167 162 99
169 164 101
165 161 99
166 161 97
172 166 100
171 165 96
167 161 94
168 162 97
168 162 99
169 163 99
167 162 99
168 162 99
173 167 102
168 163 97
168 162 97
167 162 101
166 160 97
167 161 97
171 164 97
167 161 98
162 158 92
170 164 99
167 162 94
165 159 98
166 161 94
161 155 95
164 159 97
167 161 99
166 160 101
162 156 86
161 156 93
166 160 98
163 157 92
160 155 88
164 159 93
166 159 95
166 160 99
160 154 94
163 157 93
167 161 91
161 155 93
156 150 90
159 153 87
160 155 89
160 154 87
162 157 93
155 149 84
158 152 87
159 152 88
164 158 97
161 156 92
163 158 93
153 148 87
186 204 228
186 204 228
185 204 228
185 204 228
186 204 228
185 204 228
187 204 228
186 204 228
186 204 228
185 204 228
186 204 228
185 204 228
185 203 228
183 203 228
184 203 228
185 203 228
184 203 228
183 203 228
184 203 228
184 203 228
184 203 228
184 203 228
183 202 228
184 203 228
183 202 228
183 203 228
183 202 228
182 202 228
183 202 228
183 202 228
183 202 228
182 202 228
182 202 228
183 202 228
183 202 228
181 201 228
183 202 228
182 202 228
181 201 228
182 202 228
181 201 228
181 201 228
181 201 228
181 201 228
180 201 228
181 201 228
182 202 228
181 201 228
180 201 228
179 200 228
181 201 228
180 201 228
180 201 228
181 201 228
180 201 228
179 200 228
179 201 228
179 200 228
179 200 228
180 201 228
180 201 228
179 201 228
179 200 228
179 200 228
178 200 228
178 200 228
178 200 228
178 200 228
178 200 228
178 200 228
179 200 228
179 200 228
177 199 228
178 200 228
177 199 228
177 199 228
177 199 228
177 199 228
176 199 228
177 199 228
177 199 228
177 199 228
176 199 228
177 199 228
177 199 228
177 199 228
176 199 228
176 199 228
176 199 228
176 199 228
176 199 228
175 198 228
175 198 228
176 198 228
176 199 228
176 199 228
175 198 228
176 198 228
176 198 228
175 198 228
175 198 228
175 198 228
175 198 228
175 198 228
175 198 228
175 198 228
174 198 228
175 198 228
175 198 228
175 198 228
175 198 228
176 199 228
175 198 228
174 198 228
175 198 228
175 198 228
173 197 228
170 193 223
169 192 224
166 190 223
168 191 224
161 184 218
159 182 216
157 181 214
147 170 208
151 175 212
144 167 205
151 174 210
150 174 209
149 171 206
146 169 206
145 168 206
150 173 209
154 177 212
159 181 215
171 193 223
164 185 218
171 192 222
180 199 227
182 202 228
179 198 223
175 192 216
178 194 216
212 229 253
214 232 255
214 232 255
214 232 255
214 232 255
214 232 255
214 232 255
214 232 255
214 232 255
214 232 255
191 209 236
61 94 152
59 94 161
60 95 155
59 93 157
60 95 158
60 95 153
59 94 150
60 96 155
60 95 156
61 97 160
61 96 156
61 96 157
61 97 158
61 96 156
60 96 155
61 97 151
61 96 152
60 96 149
61 96 147
61 96 156
60 96 148
62 97 155
61 96 151
61 96 150
61 97 159
60 95 138
61 97 160
62 97 151
60 94 144
61 97 153
62 97 153
61 96 149
62 98 155
61 97 150
62 98 160
61 97 157
61 96 151
61 97 154
61 97 149
61 97 153
61 97 153
61 96 146
62 98 154
61 97 149
61 96 152
61 96 150
62 97 153
61 97 151
62 97 151
60 95 151
61 96 147
61 97 156
61 96 149
60 95 141
61 97 153
60 95 146
61 97 152
62 97 160
61 96 148
61 96 151
61 96 150
61 96 153
61 97 153
60 95 146
60 95 148
62 97 156
61 96 157
61 96 152
60 94 141
62 97 153
60 95 140
59 94 137
60 95 150
61 96 153
61 96 159
59 93 151
60 96 156
59 94 148
60 94 147
59 93 145
59 92 138
60 94 151
60 93 147
60 94 150
60 93 153
60 94 153
58 90 144
58 91 144
57 88 137
58 91 145
57 88 137
61 91 143
203 220 244
214 232 255
214 232 255
214 232 255
214 232 255
214 232 255
214 232 255
214 232 255
214 232 255
214 232 255
214 232 255
150 153 136
134 131 85
109 109 76
115 115 79
123 123 85
119 119 82
122 122 84
120 121 85
122 122 84
120 121 85
114 114 80
123 125 88
127 128 90
124 125 88
118 119 83
129 129 89
128 127 86
138 138 96
131 131 91
130 131 90
134 133 89
138 137 94
142 141 95
143 142 93
148 147 99
138 137 91
145 144 94
138 137 90
134 134 91
152 149 98
161 157 103
145 144 96
149 148 97
160 156 100
149 147 93
155 152 99
145 142 94
158 155 97
161 159 103
154 152 95
148 146 95
151 148 96
164 160 102
165 162 99
164 160 99
170 165 103
165 161 104
165 161 101
166 162 103
165 161 100
169 165 102
166 162 103
168 164 103
171 167 102
168 163 100
168 164 103
164 160 100
165 162 97
165 162 99
171 167 107
170 164 99
167 162 98
172 167 103
166 162 101
167 163 102
173 167 104
172 166 102
172 166 102
173 167 100
173 168 105
169 163 101
172 166 101
172 167 101
170 164 101
170 164 100
171 165 99
167 163 100
173 168 104
170 165 99
172 165 102
176 169 107
170 165 99
164 159 94
166 162 97
174 168 104
174 168 102
170 164 98
170 165 101
170 164 98
169 163 100
169 163 99
170 164 103
172 166 101
170 164 98
169 163 101
163 157 95
170 164 102
171 165 103
171 165 99
171 166 98
173 167 103
168 161 95
169 163 99
171 165 98
168 161 99
166 160 99
173 167 99
167 162 100
166 160 96
166 160 98
170 164 94
171 164 95
161 155 93
170 163 98
166 161 101
165 160 92
162 158 87
159 154 91
161 156 94
165 160 95
164 157 94
161 155 92
168 162 97
152 148 86
164 158 93
159 152 91
162 156 92
158 153 93
156 151 88
163 157 90
160 154 88
152 147 85
162 155 96
161 154 91
157 152 93
158 152 89
156 151 85
157 151 86
163 156 90
151 144 83
153 147 87
159 154 90
154 148 88
186 204 228
187 205 228
186 204 228
186 204 228
186 204 228
186 204 228
186 204 228
185 203 228
186 204 228
185 204 228
186 204 228
186 204 228
184 203 228
185 203 228
184 203 228
185 204 228
185 204 228
184 203 228
185 204 228
185 203 228
185 203 228
184 203 228
183 203 228
186 204 228
184 203 228
184 203 228
183 202 228
184 203 228
183 203 228
184 203 228
183 202 228
183 202 228
184 203 228
184 203 228
182 202 228
183 202 228
183 202 228
181 201 228
183 202 228
183 202 228
182 202 228
182 202 228
183 202 228
181 201 228
181 202 228
181 201 228
181 201 228
180 201 228
182 202 228
181 201 228
181 201 228
181 201 228
180 201 228
181 201 228
180 201 228
180 201 228
181 201 228
179 200 228
180 201 228
180 201 228
180 201 228
179 201 228
180 201 228
180 201 228
179 200 228
180 201 228
179 200 228
178 200 228
179 200 228
180 201 228
180 201 228
179 200 228
179 200 228
179 200 228
179 200 228
179 200 228
179 200 228
178 200 228
177 199 228
179 200 228
178 200 228
178 200 228
178 199 228
178 200 228
177 199 228
177 199 228
177 199 228
178 200 228
177 199 228
176 199 228
177 199 228
177 199 228
177 199 228
176 199 228
176 199 228
176 199 228
177 199 228
176 198 228
176 198 228
176 199 228
176 199 228
176 199 228
177 199 228
175 198 228
176 199 228
177 199 228
175 198 228
176 199 228
176 198 228
176 199 228
175 198 228
177 199 228
176 199 228
176 199 228
176 199 228
173 196 226
170 193 224
167 190 222
165 188 221
167 190 223
165 188 220
156 179 213
152 175 211
153 176 211
151 174 210
141 164 200
144 168 206
140 163 201
138 161 201
138 161 201
143 166 205
143 166 203
145 169 206
147 169 206
148 170 207
150 172 207
150 172 208
164 184 217
165 185 216
182 201 227
183 202 227
179 197 221
161 176 198
195 211 232
215 232 255
215 232 255
215 232 255
215 232 255
215 232 255
215 232 255
215 232 255
215 232 255
215 232 255
142 162 206
58 93 160
58 93 155
59 94 161
58 93 157
59 94 150
60 95 147
59 94 148
60 96 160
61 97 166
62 98 161
60 95 149
63 98 158
61 96 155
61 97 157
60 94 151
61 97 160
61 97 153
61 97 156
61 96 157
61 96 156
62 97 157
62 98 157
61 96 144
62 97 161
62 98 163
61 97 152
62 97 153
61 96 152
62 97 153
61 96 149
61 97 159
61 97 156
62 97 149
62 98 158
61 97 153
61 97 149
62 98 160
61 97 154
61 96 150
61 96 152
62 98 161
61 95 145
60 96 145
61 96 152
62 97 152
62 97 151
62 97 155
62 98 159
62 98 156
62 97 152
59 94 141
61 96 154
61 97 150
62 98 157
62 97 158
62 97 155
62 96 148
61 96 145
62 97 153
61 97 156
61 96 151
60 96 149
61 96 147
60 95 142
61 96 152
62 97 152
61 97 150
62 98 153
61 96 158
61 96 152
61 96 149
62 97 160
61 96 151
60 93 145
61 96 148
60 94 149
60 95 153
60 94 149
58 92 145
61 96 153
60 94 145
60 94 150
60 94 153
59 93 141
62 96 155
59 93 150
59 92 139
57 90 144
59 92 152
56 87 132
57 89 148
55 85 132
137 157 193
215 232 255
215 232 255
215 232 255
215 232 255
215 232 255
215 232 255
215 232 255
215 232 255
215 232 255
186 199 214
112 111 73
112 111 75
106 105 73
116 115 78
116 117 80
111 111 77
110 111 78
117 118 82
125 124 85
121 122 84
110 111 76
122 123 86
109 112 81
118 120 85
132 133 91
127 129 91
134 134 91
122 123 85
138 138 94
141 140 93
130 130 88
139 139 94
150 148 98
142 141 94
141 140 94
140 139 90
137 137 93
153 152 100
141 140 94
158 154 99
151 149 96
153 151 99
154 152 100
160 157 103
155 152 98
152 150 98
151 149 95
155 153 100
160 157 100
160 156 101
166 162 104
162 159 103
162 158 100
163 159 101
167 162 99
162 157 95
170 165 106
164 159 100
166 161 102
167 163 100
168 163 102
165 162 104
166 162 99
166 163 103
172 167 103
166 162 100
171 166 103
173 167 107
168 164 101
174 169 106
161 158 101
170 166 103
165 161 101
170 166 103
172 167 104
170 165 101
174 167 103
167 162 100
176 170 108
173 167 104
173 167 101
168 163 98
170 165 98
173 168 104
170 165 102
171 165 101
169 164 101
171 166 101
173 167 101
169 163 99
170 165 99
167 163 98
170 165 103
169 163 101
171 166 101
171 165 97
170 164 95
175 168 101
169 163 96
169 163 96
172 166 97
166 161 97
165 160 99
170 163 98
171 165 99
163 158 90
175 168 99
167 163 100
170 163 100
168 162 93
170 164 97
179 171 105
169 163 97
164 160 96
164 158 93
169 163 96
172 165 102
165 159 96
168 162 95
170 164 100
161 155 88
162 156 91
164 159 93
162 157 92
169 163 97
166 161 93
162 157 95
167 160 94
161 156 91
168 161 95
163 157 93
159 153 90
169 163 98
165 158 93
162 157 93
160 156 87
164 158 93
162 157 93
160 155 90
161 156 94
171 165 97
164 158 93
160 154 90
160 154 88
153 148 86
162 156 95
149 143 87
156 151 83
162 156 94
153 147 79
160 153 90
161 155 90
151 147 87
187 204 228
188 205 228
187 204 228
187 205 228
187 204 228
187 204 228
187 205 228
186 204 228
187 205 228
186 204 228
186 204 228
186 204 228
188 205 228
187 205 228
185 203 228
186 204 228
185 204 228
185 204 228
185 204 228
186 204 228
185 203 228
185 204 228
184 203 228
184 203 228
185 204 228
184 203 228
183 203 228
184 203 228
184 203 228
184 203 228
183 202 228
183 202 228
183 203 228
183 202 228
184 203 228
184 203 228
184 203 228
184 203 228
184 203 228
183 202 228
182 202 228
183 202 228
181 202 228
181 201 228
183 202 228
183 202 228
182 202 228
182 202 228
182 202 228
182 202 228
180 201 228
182 202 228
182 202 228
181 201 228
182 202 228
181 202 228
181 201 228
181 201 228
180 201 228
181 201 228
181 201 228
180 201 228
180 201 228
180 201 228
180 201 228
179 200 228
180 201 228
181 201 228
180 201 228
180 201 228
180 201 228
180 201 228
180 201 228
179 201 228
178 200 228
179 200 228
180 201 228
180 201 228
179 200 228
179 200 228
179 200 228
178 199 228
178 200 228
179 200 228
178 200 228
178 200 228
177 199 228
178 200 228
178 200 228
178 200 228
178 200 228
178 200 228
177 199 228
178 200 228
177 199 228
177 199 228
177 199 228
177 199 228
179 200 228
178 200 228
177 199 228
177 199 228
177 199 228
176 199 228
177 199 228
178 200 228
177 199 228
177 199 228
178 200 228
177 199 228
177 199 228
177 199 228
176 199 228
178 200 228
178 200 228
175 197 227
168 191 222
171 193 224
167 189 220
162 184 217
154 177 212
156 179 213
151 174 210
146 169 204
142 166 202
143 167 204
142 165 203
137 160 199
132 155 195
128 152 193
135 158 199
129 152 192
125 148 190
137 160 200
136 158 198
144 166 204
150 172 207
158 178 210
165 185 216
168 188 218
183 202 228
182 200 225
176 193 216
169 184 204
214 230 254
215 232 255
215 232 255
215 232 255
215 232 255
215 232 255
215 232 255
215 232 255
206 223 248
60 93 163
58 92 148
59 93 150
56 90 148
60 95 155
59 93 151
59 94 151
60 95 151
61 96 157
60 95 152
61 96 153
61 96 154
60 95 147
60 95 149
61 96 156
62 97 157
60 95 148
62 97 152
60 95 153
61 96 150
61 96 152
61 97 157
60 95 154
62 97 156
61 96 151
60 96 152
61 96 146
60 96 152
62 98 157
62 98 157
60 95 150
62 98 155
61 96 149
62 97 153
61 97 153
61 96 148
62 97 154
62 97 158
61 96 143
62 98 152
62 98 156
60 95 145
62 98 157
61 96 147
62 98 160
61 97 153
61 97 154
61 97 152
62 97 159
61 96 150
62 97 153
61 97 150
61 96 148
61 97 149
61 97 157
61 97 152
61 96 151
61 96 145
61 96 151
62 97 153
61 96 145
60 94 147
62 97 154
61 96 143
60 95 145
61 97 148
60 95 143
60 95 151
61 96 154
60 95 147
60 94 142
61 96 152
60 95 143
60 95 150
60 95 153
61 95 154
61 95 151
60 95 157
61 95 152
60 95 151
60 94 147
59 94 151
59 93 144
59 93 144
60 95 150
60 94 142
61 96 150
59 92 142
59 92 153
59 92 147
58 91 149
59 91 147
58 89 142
59 89 141
205 222 247
215 232 255
215 232 255
215 232 255
215 232 255
215 232 255
215 232 255
215 232 255
213 230 252
127 128 106
107 106 72
110 108 71
117 115 78
117 117 82
118 118 81
111 111 78
108 110 78
113 115 82
113 114 78
115 117 82
111 113 79
114 117 85
112 113 80
126 126 86
129 129 88
120 120 83
135 135 92
126 126 87
120 121 82
132 132 90
133 133 91
127 127 86
138 138 90
142 139 93
134 133 87
146 145 94
148 145 94
139 138 91
152 149 99
158 155 100
148 146 95
152 150 99
143 141 92
148 145 91
159 157 101
158 155 102
160 157 100
158 154 100
160 156 100
163 159 103
159 156 99
163 159 104
162 158 101
162 158 99
156 153 96
164 159 100
162 158 99
167 163 104
164 160 101
171 166 104
164 160 102
166 161 99
170 165 102
167 162 100
170 165 103
168 164 101
164 160 98
174 168 106
168 163 98
169 164 100
172 167 103
170 165 99
170 165 100
172 168 103
169 165 102
174 167 99
171 165 100
173 167 101
169 164 101
174 168 102
170 165 99
174 168 104
171 165 100
170 165 98
171 166 100
171 166 98
171 166 98
169 164 100
171 165 99
171 166 100
174 168 104
168 163 97
167 162 101
170 164 98
174 168 101
169 163 94
172 166 101
173 167 101
168 163 98
172 166 102
168 163 99
171 165 99
170 165 95
169 162 96
167 162 97
164 158 90
170 164 99
161 156 94
170 164 97
169 163 95
165 160 91
169 163 100
168 161 97
167 162 96
161 156 91
159 154 87
170 163 99
169 163 97
169 163 97
164 159 93
169 163 99
167 160 97
163 156 92
160 153 89
162 156 90
165 158 93
168 161 96
166 162 100
166 160 93
161 155 86
167 161 93
164 158 94
159 152 88
165 160 96
160 155 91
162 157 94
159 152 90
166 159 89
164 158 90
166 162 95
152 147 87
159 153 90
163 158 97
160 154 92
157 151 86
154 149 85
161 154 88
158 154 92
155 150 89
160 154 90
162 156 87
157 151 87
149 144 84
187 205 228
187 205 228
188 205 228
188 205 228
187 205 228
188 205 228
187 204 228
187 205 228
187 204 228
187 204 228
187 205 228
186 204 228
186 204 228
186 204 228
186 204 228
186 204 228
185 203 228
187 204 228
185 204 228
186 204 228
186 204 228
185 203 228
185 204 228
185 204 228
184 203 228
185 203 228
184 203 228
185 203 228
186 204 228
185 203 228
183 203 228
184 203 228
184 203 228
185 204 228
185 203 228
184 203 228
184 203 228
184 203 228
184 203 228
184 203 228
183 202 228
183 203 228
183 203 228
182 202 228
183 203 228
183 203 228
183 202 228
183 203 228
183 203 228
182 202 228
182 202 228
182 202 228
181 201 228
184 203 228
182 202 228
182 202 228
182 202 228
181 202 228
181 202 228
182 202 228
182 202 228
181 201 228
181 201 228
181 201 228
182 202 228
181 201 228
182 202 228
180 201 228
180 201 228
180 201 228
180 201 228
181 201 228
180 201 228
180 201 228
180 201 228
180 201 228
179 200 228
180 201 228
180 201 228
180 201 228
179 200 228
179 200 228
179 200 228
180 201 228
180 201 228
179 200 228
180 201 228
178 200 228
179 200 228
179 200 228
178 200 228
179 200 228
178 200 228
178 200 228
178 200 228
179 200 228
179 200 228
178 200 228
178 200 228
177 199 228
179 200 228
178 200 228
177 199 228
178 200 228
178 200 228
178 200 228
178 200 228
177 199 228
177 199 228
177 199 228
178 200 228
177 199 228
177 199 228
177 199 228
174 196 226
170 192 222
162 185 218
163 185 218
157 180 212
157 179 213
150 173 208
152 174 209
144 167 206
140 162 199
139 162 199
138 161 200
129 152 194
126 149 189
121 145 189
124 147 188
127 150 192
131 154 193
113 136 179
136 158 196
121 143 184
134 156 193
136 158 196
144 165 201
156 176 208
164 184 215
169 188 217
181 199 226
182 199 223
173 189 211
190 205 226
215 232 255
215 232 255
215 232 255
215 232 255
215 232 255
215 232 255
215 232 255
150 169 205
57 90 155
58 92 154
58 92 152
58 92 147
60 94 149
59 94 149
60 94 153
60 94 147
59 94 145
60 95 155
61 96 157
60 95 154
61 96 149
60 95 150
61 97 151
60 95 145
61 96 146
60 96 155
61 96 149
61 95 153
60 95 146
59 94 136
62 97 156
62 97 154
62 97 155
62 98 155
62 98 158
62 97 151
61 96 149
62 97 153
62 97 148
61 96 150
61 96 148
61 97 151
61 96 146
60 96 152
61 97 152
61 97 147
61 97 150
61 96 142
61 95 145
63 98 161
60 96 147
60 95 142
60 95 144
61 97 155
60 96 140
63 98 159
61 97 153
61 97 150
60 95 145
61 97 150
61 95 141
61 96 144
61 97 151
62 97 147
61 96 149
60 96 145
61 95 145
62 98 153
61 95 147
61 97 154
61 95 145
61 96 156
61 95 156
61 97 159
61 96 151
61 97 155
60 95 142
61 95 149
60 95 152
61 96 150
60 94 143
61 96 149
59 93 139
61 96 157
61 96 154
60 95 146
60 94 139
58 91 135
59 94 141
58 91 134
58 90 138
60 95 147
60 95 153
61 96 156
60 94 150
60 94 150
58 90 142
57 89 139
60 94 154
59 92 149
57 88 134
53 83 128
154 172 201
215 232 255
215 232 255
215 232 255
215 232 255
215 232 255
215 232 255
215 232 255
182 194 204
121 118 75
106 106 73
114 115 78
105 106 74
109 110 78
90 92 65
102 104 74
105 106 75
106 109 76
111 113 80
107 110 78
112 113 78
107 109 78
113 115 81
108 111 78
126 127 89
116 118 84
135 135 90
126 127 87
128 128 89
130 130 87
140 139 94
141 140 95
131 130 86
132 132 88
143 143 95
139 138 92
149 146 97
151 148 95
149 148 97
142 140 91
144 143 92
151 148 96
151 149 96
152 149 98
158 155 102
157 154 96
162 158 101
154 152 99
154 151 96
159 155 98
161 158 101
161 157 100
162 158 101
171 165 103
162 158 100
165 162 101
161 158 98
169 163 100
160 155 95
168 164 105
165 161 101
164 160 98
161 157 100
166 161 96
168 163 100
167 162 100
166 162 101
169 164 103
171 166 99
168 163 100
169 164 99
169 164 99
173 168 105
171 166 104
164 159 94
168 163 97
171 165 99
173 167 101
169 164 100
172 166 100
173 167 98
176 169 103
171 165 100
173 167 100
174 167 102
170 165 99
172 166 99
167 162 95
170 164 97
173 167 103
169 163 96
168 163 99
172 166 102
173 167 104
170 164 97
170 165 95
170 165 98
168 162 95
175 168 101
168 163 97
171 164 98
170 164 96
170 165 100
169 162 96
171 165 100
164 160 99
168 163 97
171 165 100
169 163 90
171 164 98
170 164 98
167 162 99
167 161 95
162 157 93
172 164 102
165 160 95
167 160 93
165 160 95
169 162 100
161 156 92
164 158 93
164 158 95
160 154 93
165 159 97
166 161 98
159 153 88
160 155 86
162 157 88
162 155 91
163 158 91
159 153 88
164 159 96
160 155 89
167 161 93
167 160 95
161 156 90
161 155 90
172 165 101
162 156 94
163 157 91
157 152 85
160 154 92
157 152 87
161 155 91
160 154 88
159 153 87
160 154 92
158 151 86
156 150 84
160 154 92
159 153 90
157 152 93
158 152 87
189 206 228
189 206 228
188 205 228
187 204 228
187 205 228
188 205 228
187 205 228
187 205 228
187 205 228
188 205 228
186 204 228
187 205 228
186 204 228
187 205 228
186 204 228
187 205 228
186 204 228
187 204 228
186 204 228
185 204 228
186 204 228
187 204 228
185 204 228
186 204 228
186 204 228
186 204 228
186 204 228
185 203 228
185 204 228
185 204 228
185 203 228
185 203 228
184 203 228
184 203 228
184 203 228
184 203 228
185 203 228
184 203 228
185 203 228
184 203 228
183 202 228
184 203 228
185 203 228
185 203 228
184 203 228
184 203 228
184 203 228
184 203 228
183 203 228
183 203 228
183 202 228
182 202 228
182 202 228
183 202 228
183 203 228
182 202 228
182 202 228
184 203 228
183 202 228
182 202 228
182 202 228
182 202 228
182 202 228
181 202 228
182 202 228
183 202 228
182 202 228
182 202 228
182 202 228
182 202 228
182 202 228
181 201 228
181 201 228
182 202 228
181 201 228
181 201 228
181 201 228
180 201 228
181 202 228
181 201 228
181 201 228
180 201 228
180 201 228
180 201 228
179 200 228
180 201 228
181 201 228
180 201 228
180 201 228
180 201 228
180 201 228
179 200 228
179 200 228
179 200 228
179 200 228
179 200 228
179 200 228
179 200 228
179 200 228
179 200 228
179 200 228
178 200 228
179 200 228
179 200 228
179 200 228
179 200 228
179 200 228
178 200 228
178 200 228
179 200 228
178 200 228
179 200 228
178 200 228
176 198 227
173 195 224
173 195 225
160 182 215
159 181 215
154 177 210
152 174 211
153 176 209
158 181 215
140 162 199
139 162 199
133 156 196
134 157 196
121 145 189
119 143 188
118 142 189
108 131 179
116 140 183
107 131 179
123 146 189
111 134 179
115 137 182
122 143 181
135 157 193
134 155 195
135 156 196
149 169 204
162 181 213
174 193 221
182 200 225
172 188 211
168 183 203
216 232 255
216 232 255
216 232 255
216 232 255
215 232 255
215 232 255
213 230 254
75 103 159
57 92 154
57 91 158
58 92 152
60 96 162
59 93 149
59 94 155
60 95 158
60 95 158
59 94 155
60 96 158
62 97 161
61 96 144
59 94 138
60 95 147
61 96 152
61 96 149
62 97 151
61 97 156
61 96 152
61 96 151
61 97 152
61 96 142
60 96 149
62 97 156
61 96 148
61 95 145
60 95 148
61 97 156
61 96 150
60 95 144
60 95 147
61 97 157
61 96 149
62 97 153
62 98 153
62 97 154
62 97 152
61 97 152
62 97 151
62 97 152
60 96 142
61 96 152
61 97 155
60 96 151
62 97 149
62 97 152
62 97 158
61 96 149
61 96 149
62 98 157
60 95 144
61 97 154
62 97 152
62 97 154
62 97 155
62 97 149
60 94 142
61 96 148
61 96 148
62 97 155
61 96 153
61 96 147
60 94 142
60 95 144
62 97 153
58 92 131
59 94 147
62 96 149
61 96 150
60 95 149
60 94 137
62 96 147
61 95 145
61 96 155
59 94 139
60 95 150
60 94 148
60 94 145
59 93 151
60 94 148
59 93 148
61 95 150
59 92 132
59 92 137
58 92 139
60 94 145
59 92 144
60 93 149
59 91 137
59 92 143
56 88 134
58 89 140
55 86 137
55 86 135
75 98 134
213 230 253
215 232 255
216 232 255
216 232 255
216 232 255
216 232 255
214 231 254
134 138 124
110 109 72
114 112 76
111 110 72
122 121 83
107 107 74
89 91 64
103 104 74
113 114 80
112 115 81
121 122 83
115 117 81
104 107 76
123 123 85
114 115 80
125 126 85
120 122 85
131 130 87
125 125 86
132 133 90
135 135 91
134 134 91
135 134 89
136 137 91
137 136 89
137 136 91
145 144 92
150 149 97
141 140 94
148 146 97
149 147 97
158 154 98
149 147 97
155 152 97
154 151 96
157 153 97
158 154 97
160 156 100
158 154 96
158 155 96
163 160 104
157 155 99
156 153 94
162 158 96
162 157 102
160 157 95
163 159 100
159 155 98
165 161 98
166 161 102
164 160 98
163 158 96
163 159 94
168 164 102
167 163 98
166 161 100
168 163 102
170 165 103
167 162 100
168 164 100
170 164 102
172 166 99
169 162 98
173 167 102
168 163 100
174 168 105
174 168 105
171 165 98
171 166 103
169 164 100
168 163 94
168 163 98
173 167 100
171 166 100
168 164 96
170 165 101
171 165 99
174 167 101
171 166 98
174 167 103
173 168 103
174 167 101
173 167 96
174 169 104
169 163 95
171 166 102
173 166 101
167 162 93
173 167 102
173 167 98
168 162 93
171 166 103
171 165 95
171 166 101
168 161 95
167 162 94
171 165 99
167 163 97
173 167 101
168 163 97
166 160 99
169 162 99
169 163 99
170 165 99
167 161 97
161 156 90
171 165 96
171 165 99
170 163 96
170 164 97
163 159 93
167 162 97
165 160 94
166 158 92
163 156 87
168 162 90
159 154 87
163 158 92
168 162 95
166 160 90
168 162 94
164 158 94
160 154 89
163 157 90
162 157 92
153 148 81
166 161 93
159 154 88
159 153 86
164 159 96
157 152 85
170 163 93
164 158 88
166 160 93
162 157 86
155 151 85
163 156 92
164 158 95
158 152 84
158 152 83
161 155 88
155 150 80
157 152 89
160 155 87
154 148 82
189 206 228
188 205 228
188 205 228
188 205 228
188 205 228
188 205 228
188 205 228
188 205 228
188 205 228
187 205 228
189 205 228
187 205 228
188 205 228
187 204 228
187 205 228
188 205 228
187 204 228
187 204 228
187 204 228
187 204 228
187 205 228
187 205 228
186 204 228
187 205 228
186 204 228
186 204 228
186 204 228
185 204 228
185 204 228
187 204 228
186 204 228
185 204 228
185 204 228
186 204 228
186 204 228
186 204 228
184 203 228
186 204 228
185 204 228
184 203 228
185 203 228
184 203 228
185 204 228
185 204 228
185 203 228
184 203 228
185 203 228
185 203 228
185 203 228
184 203 228
183 203 228
183 202 228
184 203 228
183 203 228
184 203 228
184 203 228
184 203 228
183 202 228
182 202 228
184 203 228
183 202 228
182 202 228
182 202 228
182 202 228
183 203 228
182 202 228
183 202 228
182 202 228
182 202 228
182 202 228
182 202 228
182 202 228
182 202 228
182 202 228
183 202 228
182 202 228
182 202 228
182 202 228
181 201 228
182 202 228
181 201 228
181 201 228
181 201 228
181 201 228
182 202 228
181 201 228
181 201 228
180 201 228
181 201 228
181 201 228
180 201 228
180 201 228
181 201 228
181 201 228
180 201 228
180 201 228
181 201 228
179 200 228
180 201 228
180 201 228
180 201 228
180 201 228
179 200 228
180 201 228
180 201 228
180 201 228
180 201 228
180 201 228
180 201 228
180 201 228
180 201 228
180 201 228
178 199 227
174 195 224
172 193 222
169 190 220
163 186 218
163 184 215
159 181 214
147 169 205
158 180 212
140 162 199
131 154 193
136 158 194
117 141 184
114 137 180
116 139 177
109 133 179
101 126 173
108 132 180
105 128 175
99 122 168
99 123 171
104 128 175
88 112 164
111 133 177
112 134 177
122 143 184
112 133 176
128 149 189
146 165 199
166 185 214
179 197 223
172 188 209
172 188 209
193 208 229
216 233 255
216 233 255
216 233 255
216 232 255
216 232 255
163 182 214
57 91 152
59 94 154
59 93 145
59 94 156
59 94 153
59 94 147
58 92 141
60 95 142
61 96 152
60 95 153
59 94 149
61 97 156
61 96 154
59 94 143
59 94 144
60 96 150
61 96 148
61 96 149
60 95 145
60 95 146
61 96 152
60 95 145
61 96 149
60 96 154
62 97 155
61 97 158
60 96 149
60 95 142
61 97 155
61 96 146
61 96 150
61 96 148
61 97 150
61 97 156
60 95 147
61 96 145
61 97 152
61 96 145
62 97 149
60 95 140
61 96 148
61 96 151
61 97 153
61 97 157
63 98 158
61 96 142
59 94 139
60 96 149
61 96 150
62 98 156
60 95 142
61 96 149
62 97 153
62 97 150
61 97 152
61 97 155
60 95 144
61 97 152
61 97 155
60 95 139
61 96 152
60 95 152
60 95 142
61 96 148
60 95 145
62 97 154
60 95 142
62 97 158
62 98 161
60 96 148
61 96 147
59 94 133
61 95 149
59 93 143
61 97 158
60 94 139
61 95 149
59 93 148
60 94 147
60 94 148
60 95 148
58 91 139
59 94 150
59 92 135
59 94 148
59 93 146
59 92 137
58 91 144
58 91 145
61 95 150
60 93 147
56 87 129
56 86 128
57 89 139
56 87 137
51 78 121
186 202 226
216 232 255
216 232 255
216 233 255
216 233 255
216 233 255
190 203 217
110 108 70
103 103 71
111 110 74
102 104 75
89 93 67
103 105 73
106 107 73
102 104 73
116 117 82
108 110 78
101 103 72
106 109 78
114 116 81
116 117 82
111 114 81
124 125 87
120 122 86
121 122 85
123 124 84
129 129 87
127 128 89
121 123 85
123 124 85
136 135 90
129 129 84
148 146 96
141 140 91
134 134 88
140 139 91
142 141 92
150 147 95
145 143 93
153 150 97
147 145 96
148 146 91
149 147 92
157 153 98
158 155 96
155 151 96
158 154 98
158 154 97
161 157 99
153 150 92
162 157 97
162 158 97
158 154 99
162 158 99
168 163 101
159 155 96
164 160 99
162 159 100
165 160 101
162 158 95
167 163 97
169 164 102
168 163 100
167 163 101
173 168 104
171 165 101
167 162 95
168 163 101
166 161 96
169 164 98
173 167 102
165 160 94
172 167 100
173 167 102
167 161 95
169 163 100
172 167 100
176 169 100
175 169 102
168 163 100
172 166 96
170 164 100
172 167 102
172 166 96
172 166 96
172 166 100
170 164 99
172 166 99
171 165 99
174 168 100
171 165 97
169 163 95
170 164 93
177 171 103
172 167 96
172 166 103
171 164 99
170 164 96
169 163 92
170 165 97
168 162 97
167 162 95
168 161 97
168 163 96
171 165 96
166 160 93
163 158 93
171 165 99
172 166 98
172 165 94
172 166 98
166 160 94
173 166 100
166 160 90
161 155 87
168 161 95
171 165 95
168 162 95
168 163 99
166 160 94
168 163 94
170 163 97
162 157 95
167 161 99
171 164 95
166 160 94
168 162 91
161 156 89
166 161 92
161 155 84
163 157 94
168 162 93
168 162 94
165 159 87
162 157 88
166 160 95
163 157 86
164 159 95
159 153 91
152 147 83
166 160 95
160 154 87
152 147 81
157 153 88
155 150 84
157 151 90
156 150 85
166 159 93
164 158 93
157 151 86
157 152 87
154 149 83
189 206 228
190 206 228
188 205 228
189 206 228
188 205 228
188 205 228
188 205 228
188 205 228
189 206 228
188 205 228
188 205 228
187 205 228
188 205 228
187 205 228
188 205 228
187 205 228
187 205 228
188 205 228
187 204 228
188 205 228
188 205 228
187 205 228
187 205 228
187 204 228
186 204 228
187 204 228
187 205 228
186 204 228
186 204 228
186 204 228
187 205 228
186 204 228
186 204 228
186 204 228
186 204 228
187 204 228
186 204 228
186 204 228
185 203 228
185 203 228
185 204 228
186 204 228
186 204 228
185 203 228
184 203 228
185 203 228
185 204 228
186 204 228
185 204 228
184 203 228
184 203 228
184 203 228
185 203 228
186 204 228
184 203 228
185 203 228
183 203 228
185 203 228
184 203 228
183 203 228
183 203 228
184 203 228
183 203 228
184 203 228
183 203 228
184 203 228
183 203 228
184 203 228
183 202 228
183 203 228
182 202 228
183 202 228
183 202 228
182 202 228
183 202 228
183 202 228
182 202 228
182 202 228
182 202 228
183 202 228
181 202 228
182 202 228
183 202 228
182 202 228
182 202 228
182 202 228
181 201 228
183 202 228
182 202 228
181 202 228
181 202 228
181 201 228
182 202 228
181 201 228
181 201 228
182 202 228
181 201 228
181 201 228
181 202 228
181 201 228
182 202 228
182 202 228
181 201 228
181 201 228
181 202 228
180 201 228
181 202 228
181 201 228
181 201 228
181 201 228
180 201 228
180 201 228
175 196 224
176 196 224
176 196 223
169 190 220
163 184 215
156 178 211
151 172 206
148 169 203
139 162 198
134 156 194
136 159 195
134 157 194
119 142 183
105 128 172
118 142 186
111 135 181
108 132 175
108 132 178
91 116 164
95 119 166
101 125 173
84 109 160
95 118 167
95 119 170
98 120 167
99 122 169
111 133 177
124 144 185
131 151 189
145 164 197
163 182 212
175 193 218
175 191 213
179 194 214
216 233 255
216 233 255
216 233 255
216 233 255
216 233 255
125 146 188
55 89 151
57 91 149
58 92 149
58 92 149
60 96 155
57 91 149
59 94 148
57 91 143
58 92 139
59 94 142
60 95 151
60 95 144
61 96 153
60 95 153
61 96 151
60 95 153
61 96 156
59 94 139
61 96 147
62 98 156
61 97 151
60 95 142
61 97 154
60 95 150
61 96 147
61 97 152
61 96 144
62 97 154
60 96 143
61 96 143
62 97 153
61 97 147
62 97 148
61 96 152
60 95 146
60 96 151
60 95 142
61 96 143
61 96 149
61 96 150
63 98 154
61 96 146
59 94 141
62 97 151
62 97 153
61 96 149
62 97 153
61 96 152
62 97 152
61 95 143
59 94 140
60 95 141
60 95 142
60 95 143
61 96 145
61 97 151
60 95 147
61 96 148
61 97 153
61 96 151
61 96 151
60 95 139
61 96 145
60 95 146
60 95 151
59 94 139
60 95 149
61 96 155
61 96 148
61 96 158
60 95 141
61 95 148
60 95 149
61 96 147
60 95 151
60 95 146
59 92 136
60 93 138
61 96 150
60 93 148
59 93 143
60 94 147
59 93 142
59 92 142
59 92 138
59 92 141
59 92 145
58 92 139
57 89 138
59 92 146
55 87 133
57 89 138
58 90 137
58 89 126
55 86 141
54 85 133
135 152 181
216 233 255
216 233 255
216 233 255
216 233 255
216 233 255
144 148 133
105 104 67
101 100 69
104 103 70
103 104 72
104 105 73
91 94 68
104 105 75
97 99 70
95 99 71
100 103 74
105 108 77
97 100 70
111 114 79
98 102 72
111 114 78
115 117 80
126 127 88
128 128 88
125 124 84
129 129 87
127 127 88
131 131 90
129 130 88
131 131 88
131 131 88
145 144 92
132 132 86
145 144 91
136 135 86
145 143 94
147 144 91
140 140 91
141 141 87
144 143 91
151 148 92
159 155 96
161 157 98
157 153 95
144 142 87
162 158 98
161 158 101
160 157 92
155 152 94
156 154 97
159 155 93
160 156 97
161 157 98
164 160 100
161 157 100
167 162 98
166 161 102
168 163 97
166 161 98
168 163 102
174 167 104
169 164 100
169 164 100
168 164 100
167 162 95
170 164 100
168 163 100
178 170 103
174 167 104
167 163 100
174 168 104
173 167 103
167 162 99
171 165 97
171 165 99
172 166 101
172 167 95
174 168 99
168 164 95
175 168 101
176 170 105
174 167 97
170 165 99
170 164 94
171 165 95
174 168 100
170 165 96
170 164 96
174 167 98
167 161 96
166 161 98
165 160 95
169 164 96
175 169 103
171 165 97
174 167 93
172 165 97
172 166 101
169 163 95
170 165 100
174 166 95
173 166 98
174 167 101
173 167 95
170 164 95
166 160 93
168 162 95
168 163 95
168 162 95
163 157 91
175 168 99
167 161 96
171 165 101
170 164 99
165 159 89
165 159 90
163 158 93
167 161 94
172 165 94
160 155 87
169 163 95
165 160 93
167 161 97
171 165 95
167 161 93
166 161 92
163 157 90
165 159 90
170 163 95
166 160 91
166 160 96
160 154 87
163 158 94
165 159 90
160 154 90
165 158 94
161 156 93
161 156 90
166 159 92
157 152 86
162 157 90
160 155 87
154 148 83
157 152 87
155 150 84
159 154 85
163 157 90
163 157 89
159 153 87
144 139 78
159 154 87
190 206 228
190 206 228
190 206 228
189 206 228
189 206 228
189 205 228
189 206 228
189 205 228
188 205 228
188 205 228
188 205 228
189 206 228
188 205 228
188 205 228
189 205 228
187 205 228
189 206 228
187 205 228
187 205 228
188 205 228
188 205 228
188 205 228
188 205 228
188 205 228
187 205 228
187 205 228
187 204 228
188 205 228
187 205 228
187 204 228
187 205 228
186 204 228
187 204 228
187 205 228
187 205 228
187 205 228
186 204 228
187 204 228
186 204 228
187 205 228
187 205 228
186 204 228
187 204 228
186 204 228
187 204 228
185 204 228
186 204 228
187 205 228
186 204 228
186 204 228
185 204 228
185 203 228
187 205 228
185 203 228
186 204 228
186 204 228
185 204 228
185 204 228
185 204 228
185 204 228
184 203 228
185 203 228
184 203 228
185 203 228
184 203 228
183 203 228
184 203 228
184 203 228
185 204 228
183 203 228
184 203 228
183 203 228
184 203 228
184 203 228
183 203 228
183 202 228
183 202 228
183 202 228
184 203 228
183 202 228
182 202 228
183 202 228
183 202 228
183 203 228
182 202 228
182 202 228
183 202 228
183 202 228
183 202 228
182 202 228
183 202 228
182 202 228
183 203 228
182 202 228
181 201 228
182 202 228
183 202 228
183 202 228
182 202 228
182 202 228
182 202 228
182 202 228
182 202 228
182 202 228
182 202 228
181 202 228
182 202 228
181 201 228
181 202 228
181 201 228
182 202 228
180 200 227
176 196 224
170 191 220
166 187 217
164 185 217
158 179 208
152 173 205
152 174 207
147 169 202
140 161 196
132 154 192
123 146 185
124 147 181
124 146 184
90 115 161
96 120 168
90 115 164
94 119 165
86 111 163
78 105 160
77 102 155
74 100 155
77 103 156
80 105 161
74 99 153
87 109 159
95 117 164
98 120 167
115 135 176
122 142 180
144 163 199
150 169 201
171 188 214
177 192 214
159 173 193
209 225 247
216 233 255
216 233 255
216 233 255
215 232 255
61 93 157
53 86 146
58 92 150
57 91 145
58 92 142
59 94 156
61 96 156
59 94 150
59 94 143
59 94 149
61 96 158
61 96 154
61 96 149
59 94 151
60 95 149
60 96 154
59 94 142
60 95 149
60 95 152
60 94 141
60 94 142
60 95 144
61 96 152
60 96 153
61 97 154
61 96 151
61 96 145
61 96 145
60 96 145
60 95 144
62 97 153
62 97 153
60 95 149
62 97 147
62 98 160
61 96 144
61 97 148
61 97 152
61 97 152
61 96 143
61 97 151
61 97 157
61 96 153
60 95 143
60 96 141
61 96 143
61 96 150
62 97 158
60 95 147
60 95 147
61 96 150
60 95 147
61 97 149
61 96 150
62 98 152
61 96 145
60 95 147
61 96 148
61 97 153
61 96 148
61 96 148
61 96 148
61 95 146
59 93 142
61 96 142
60 95 148
61 97 156
60 94 139
61 96 150
61 95 147
61 96 145
59 93 141
58 92 139
62 96 156
61 97 152
60 95 150
61 96 146
60 94 142
61 96 152
60 94 141
59 93 142
59 92 138
61 94 145
60 93 138
61 95 154
59 93 142
59 92 143
56 88 129
60 94 150
59 92 144
58 90 138
58 91 139
59 92 140
58 90 142
58 90 141
55 84 123
55 85 126
60 89 138
211 228 251
216 233 255
216 233 255
216 233 255
207 223 243
107 106 64
104 104 67
109 108 74
102 103 72
86 89 65
80 84 61
98 102 76
101 103 73
102 105 75
96 98 71
113 116 82
107 110 78
113 115 79
109 112 78
111 114 81
112 114 80
121 122 84
110 113 79
114 117 83
130 131 89
123 124 83
128 128 84
135 134 91
127 127 83
136 135 88
131 131 86
130 130 88
143 140 89
140 138 88
144 142 91
139 139 88
147 144 91
149 147 94
136 134 87
151 148 89
155 151 94
155 152 98
155 151 92
152 149 91
157 154 98
157 154 98
151 148 91
149 147 92
158 154 93
160 157 99
165 161 99
161 157 96
164 160 98
166 162 97
168 163 98
171 165 101
167 162 101
161 157 93
170 164 103
157 153 93
168 164 98
164 160 100
170 164 100
168 162 96
165 161 101
167 162 99
174 168 97
170 164 99
168 163 98
166 161 95
169 164 97
167 162 98
171 164 96
171 165 98
168 163 96
175 168 102
173 167 99
173 167 100
173 167 98
171 165 97
172 165 102
169 163 96
171 166 98
173 167 97
173 167 99
172 166 96
169 163 94
174 167 100
173 168 99
167 161 90
170 165 97
171 164 94
172 167 99
173 166 98
172 165 98
174 168 103
163 157 90
168 162 92
169 164 95
169 163 91
168 162 90
171 165 99
170 164 96
165 160 87
174 168 101
172 165 93
166 160 93
173 165 99
174 167 101
171 165 96
169 163 94
172 167 98
164 159 93
172 166 99
164 159 92
170 165 95
171 163 97
174 167 100
167 161 96
165 159 92
167 161 93
157 152 78
166 159 95
161 155 90
162 157 92
162 157 93
163 157 94
165 159 94
168 161 90
166 159 93
158 152 85
161 154 89
162 156 88
163 157 88
164 158 83
165 159 96
165 158 90
157 152 87
154 149 86
161 154 90
159 153 82
156 150 80
163 155 90
153 148 80
156 151 84
161 155 92
160 154 85
164 158 92
161 154 90
147 142 80
155 150 84
191 207 228
191 207 228
191 207 228
191 207 228
191 207 228
189 206 228
188 205 228
190 206 228
189 206 228
190 206 228
189 206 228
188 205 228
189 205 228
188 205 228
189 206 228
189 206 228
189 206 228
189 205 228
187 205 228
188 205 228
189 206 228
189 205 228
188 205 228
188 205 228
188 205 228
188 205 228
189 206 228
188 205 228
189 205 228
189 206 228
189 205 228
188 205 228
187 204 228
188 205 228
187 205 228
188 205 228
188 205 228
188 205 228
188 205 228
187 204 228
186 204 228
187 205 228
187 204 228
187 204 228
187 205 228
186 204 228
187 204 228
187 205 228
186 204 228
186 204 228
186 204 228
186 204 228
186 204 228
186 204 228
186 204 228
185 204 228
186 204 228
186 204 228
186 204 228
186 204 228
185 204 228
186 204 228
185 204 228
185 203 228
185 204 228
185 204 228
185 203 228
186 204 228
186 204 228
185 203 228
185 204 228
186 204 228
185 204 228
185 203 228
185 204 228
185 203 228
184 203 228
184 203 228
183 203 228
184 203 228
184 203 228
184 203 228
185 203 228
184 203 228
184 203 228
183 203 228
184 203 228
183 203 228
184 203 228
184 203 228
183 202 228
183 202 228
184 203 228
183 202 228
183 202 228
182 202 228
183 202 228
184 203 228
183 202 228
183 203 228
183 202 228
183 202 228
182 202 228
182 202 228
182 202 228
182 202 228
182 202 228
183 202 228
183 202 228
183 202 228
181 201 228
178 198 225
172 192 220
169 189 218
161 182 212
166 186 215
152 172 202
149 170 203
148 169 199
137 159 196
129 151 185
132 153 192
129 150 188
114 137 178
110 133 176
108 132 175
92 117 163
96 120 162
85 110 162
65 93 145
71 97 148
59 88 150
58 86 144
67 94 152
57 86 149
67 94 152
52 82 145
69 93 144
77 101 154
103 125 172
122 142 181
128 147 184
151 168 198
167 184 211
169 185 210
173 188 208
179 193 211
217 233 255
217 233 255
217 233 255
179 196 224
54 87 144
57 90 146
58 92 152
57 90 145
57 91 150
57 91 144
60 95 150
59 94 156
60 95 155
62 97 155
60 94 152
58 92 142
61 96 153
61 96 154
60 95 150
60 95 149
59 94 142
62 97 155
60 96 149
60 95 141
60 96 146
62 97 148
61 96 157
61 96 147
60 95 145
61 97 151
60 94 142
60 95 140
61 97 152
61 96 149
61 96 147
60 96 147
60 95 143
61 96 149
61 96 143
62 97 147
61 97 148
60 96 142
60 95 149
61 96 147
60 96 140
62 97 153
61 96 147
62 97 148
61 96 150
61 96 144
60 95 141
60 94 141
61 96 144
62 97 152
61 96 147
61 96 142
62 97 151
61 97 151
59 95 139
61 96 147
60 94 134
62 97 154
61 96 149
60 94 135
59 94 135
60 94 147
60 95 139
60 95 146
60 96 150
60 95 139
60 94 139
61 96 142
61 95 147
60 93 141
61 96 150
61 96 149
59 93 143
59 92 143
60 93 138
61 96 150
61 96 159
59 93 141
59 93 139
61 95 145
60 94 144
59 93 141
61 95 147
59 94 146
60 93 140
59 92 141
59 93 142
58 90 131
59 92 146
58 92 146
58 92 149
59 92 138
58 90 138
57 88 137
56 88 136
54 84 123
53 82 117
52 80 120
183 199 225
217 233 255
217 233 255
217 233 255
174 182 179
102 101 66
106 105 72
97 98 66
91 94 67
82 85 61
101 102 73
97 99 70
91 94 66
95 97 69
101 104 76
104 108 77
96 100 73
96 98 70
118 121 85
107 109 76
117 117 79
116 117 82
116 118 80
118 120 78
121 122 82
125 126 87
131 131 88
136 135 91
128 128 84
141 140 88
142 140 93
136 135 88
139 138 88
139 138 89
136 134 88
141 139 89
144 142 92
150 148 95
151 148 92
151 148 92
153 149 95
156 153 95
143 142 90
152 148 90
153 149 93
157 153 89
157 153 93
160 156 95
160 156 94
163 159 97
162 158 96
158 154 94
157 154 89
164 159 95
159 156 95
166 161 99
170 163 102
162 158 93
168 163 100
170 166 100
170 164 99
169 164 98
169 164 96
169 163 97
167 163 100
171 166 100
169 164 97
174 168 102
171 166 98
173 167 101
173 167 102
173 167 101
171 166 97
173 167 100
173 167 99
175 168 101
174 168 100
171 166 100
171 166 100
172 166 97
171 165 96
170 165 95
170 165 100
172 166 98
173 166 98
170 163 93
171 165 96
171 164 95
173 166 96
172 166 98
169 163 90
176 170 101
171 165 95
171 166 94
176 169 100
170 163 93
170 164 96
169 163 96
169 162 98
169 163 100
169 163 97
172 165 98
169 164 93
171 164 98
167 162 92
173 167 100
171 165 96
169 163 93
174 167 99
171 165 96
164 159 90
168 162 92
167 161 93
164 158 86
168 163 93
169 162 93
172 166 98
167 161 93
168 162 93
162 156 91
162 155 87
168 162 96
162 156 87
166 160 93
160 154 90
168 162 90
170 163 96
161 154 89
163 158 89
165 159 91
164 158 91
163 157 91
167 160 93
162 155 89
159 153 88
163 157 89
158 152 85
167 161 89
164 158 90
156 151 86
163 157 90
159 153 84
158 153 89
157 151 87
158 152 87
162 156 91
151 146 79
159 154 87
155 150 78
165 158 86
159 153 86
190 206 228
191 207 228
191 207 228
191 207 228
191 207 228
190 206 228
190 206 228
190 206 228
190 206 228
191 207 228
190 206 228
190 206 228
190 206 228
190 206 228
189 206 228
189 206 228
190 206 228
189 206 228
189 206 228
188 205 228
189 206 228
190 206 228
188 205 228
189 206 228
188 205 228
189 206 228
188 205 228
189 206 228
188 205 228
189 206 228
189 206 228
189 205 228
189 205 228
188 205 228
188 205 228
188 205 228
189 205 228
188 205 228
189 206 228
189 206 228
188 205 228
189 206 228
187 205 228
187 205 228
188 205 228
187 205 228
187 205 228
188 205 228
187 204 228
188 205 228
187 205 228
188 205 228
188 205 228
186 204 228
186 204 228
187 205 228
186 204 228
187 205 228
186 204 228
187 204 228
187 205 228
186 204 228
186 204 228
186 204 228
187 204 228
186 204 228
186 204 228
185 204 228
186 204 228
186 204 228
185 204 228
185 203 228
185 204 228
184 203 228
185 203 228
185 203 228
185 204 228
186 204 228
185 204 228
185 204 228
184 203 228
185 203 228
185 203 228
184 203 228
185 203 228
184 203 228
183 203 228
185 204 228
184 203 228
184 203 228
184 203 228
185 203 228
185 203 228
184 203 228
183 203 228
184 203 228
183 202 228
184 203 228
184 203 228
184 203 228
185 203 228
185 203 228
184 203 228
183 202 228
185 203 228
185 203 228
184 203 228
184 203 228
183 202 228
184 203 228
182 201 226
178 197 223
171 191 219
170 189 217
167 187 216
153 173 206
158 178 208
156 177 207
152 172 205
135 157 193
139 161 198
121 143 180
113 135 173
103 126 169
117 140 183
85 110 157
89 114 164
77 103 154
76 102 151
57 87 148
55 86 145
51 82 142
51 81 142
50 81 144
48 77 137
50 80 143
48 78 138
51 79 142
56 83 140
79 100 150
101 122 165
109 128 170
131 149 184
148 166 196
173 189 213
179 195 217
159 173 190
216 232 254
217 233 255
217 233 255
135 155 192
53 85 147
56 90 142
59 94 144
58 92 152
58 92 149
58 93 147
60 95 159
60 95 148
58 93 143
59 93 142
59 94 151
59 93 141
60 96 155
60 94 142
60 94 142
59 93 142
60 94 147
61 96 152
61 95 152
60 95 148
59 93 138
59 93 144
61 96 147
59 94 138
61 96 154
59 93 135
60 95 143
61 96 153
61 96 151
62 97 146
60 95 145
60 94 143
60 95 144
60 95 139
61 96 149
60 95 150
60 95 139
61 96 144
60 95 139
60 94 136
60 95 140
62 98 155
60 95 145
61 95 142
61 96 145
61 97 149
62 97 151
62 97 156
61 96 145
60 95 139
61 96 144
60 94 144
61 96 152
60 94 133
62 97 151
59 94 125
61 97 153
61 96 148
60 95 137
60 95 149
59 94 134
61 96 147
61 96 142
61 96 148
61 95 146
62 97 150
61 96 147
60 95 147
61 95 149
60 95 148
60 94 138
59 94 140
60 95 146
60 94 137
61 95 151
61 96 147
60 95 146
60 95 153
60 94 140
59 93 139
59 93 145
59 93 143
59 93 139
59 92 135
59 92 140
59 93 148
59 93 148
60 93 141
57 90 136
59 91 136
58 90 136
57 90 131
59 91 131
57 89 141
58 89 128
55 86 132
57 89 148
55 85 141
138 154 184
217 233 255
217 233 255
217 233 255
128 131 117
118 115 72
105 106 73
81 84 60
92 94 67
93 96 68
96 97 68
82 87 64
85 89 63
80 84 61
84 88 63
109 112 79
103 106 76
104 106 74
114 115 80
106 109 79
105 108 76
122 122 80
120 120 82
113 115 77
122 122 80
127 127 84
125 124 78
125 126 83
130 129 83
136 135 91
132 131 87
138 137 90
143 141 92
140 139 88
141 139 91
140 138 87
143 142 88
142 141 88
153 149 94
149 148 92
149 147 95
145 142 86
151 149 92
156 152 89
151 149 93
157 153 96
156 152 92
159 156 98
157 154 97
159 155 91
155 151 88
165 159 98
164 160 99
160 157 94
167 163 96
164 160 95
166 161 98
172 165 102
163 158 93
171 165 101
167 162 94
171 165 100
169 165 99
169 165 97
169 164 100
170 165 98
169 164 98
169 164 92
172 167 103
171 166 98
170 164 98
169 164 94
175 168 100
170 164 90
171 165 95
170 165 93
172 166 98
173 166 97
170 164 94
174 167 98
169 164 95
173 168 98
172 166 92
169 163 93
173 167 99
173 167 101
171 165 93
172 166 99
170 165 95
168 163 94
176 169 99
172 165 95
170 164 94
176 168 98
168 163 90
173 166 95
172 165 93
166 161 91
172 166 95
170 164 95
172 165 97
171 164 95
171 165 93
170 163 97
176 168 98
170 164 93
172 166 99
168 163 93
167 160 92
167 161 92
169 163 98
169 163 93
160 155 90
168 161 93
162 156 90
168 162 86
168 161 90
167 161 94
170 163 95
166 160 94
167 161 90
169 163 99
163 157 88
162 156 87
163 158 93
165 158 86
166 160 94
159 153 84
168 161 94
161 155 88
165 158 86
165 159 89
164 158 93
165 158 90
162 156 82
157 151 85
160 154 85
162 156 88
158 152 84
168 162 95
163 156 87
164 158 91
160 153 91
161 154 86
158 152 88
162 156 92
161 154 84
161 155 90
161 155 86
151 147 82
161 155 86
191 207 228
190 206 228
190 206 228
192 207 228
191 207 228
191 207 228
190 206 228
192 207 228
190 206 228
190 207 228
191 207 228
190 206 228
190 206 228
190 206 228
190 206 228
189 206 228
189 206 228
190 206 228
190 206 228
190 206 228
190 206 228
190 206 228
189 206 228
190 206 228
189 206 228
188 205 228
190 206 228
189 206 228
189 206 228
190 206 228
189 206 228
188 205 228
189 206 228
189 206 228
189 205 228
189 206 228
189 206 228
190 206 228
189 205 228
188 205 228
188 205 228
189 205 228
189 206 228
188 205 228
188 205 228
188 205 228
188 205 228
188 205 228
188 205 228
188 205 228
188 205 228
187 205 228
187 205 228
188 205 228
188 205 228
188 205 228
188 205 228
188 205 228
187 205 228
187 205 228
187 204 228
187 205 228
188 205 228
188 205 228
187 205 228
186 204 228
186 204 228
186 204 228
186 204 228
187 205 228
187 205 228
186 204 228
187 205 228
186 204 228
186 204 228
185 204 228
186 204 228
185 204 228
186 204 228
186 204 228
185 204 228
186 204 228
186 204 228
186 204 228
187 204 228
185 204 228
185 203 228
186 204 228
186 204 228
186 204 228
185 204 228
185 204 228
186 204 228
185 203 228
185 203 228
185 204 228
185 203 228
185 204 228
184 203 228
185 204 228
184 203 228
185 203 228
185 204 228
186 204 228
184 203 228
185 204 228
183 203 228
185 203 228
184 203 228
186 204 228
178 197 222
175 194 219
176 194 219
167 186 214
160 179 209
154 173 205
154 174 205
148 169 200
148 168 200
123 145 182
137 157 190
118 140 180
111 133 172
102 126 169
100 124 166
87 112 155
86 111 159
59 88 141
55 85 140
51 81 141
52 82 140
51 81 141
50 80 137
49 79 140
46 75 125
48 78 139
46 74 135
47 76 136
47 75 137
53 79 136
73 95 144
100 119 162
120 139 177
122 138 171
146 163 193
166 181 206
167 181 200
205 220 242
217 233 255
217 233 255
89 112 156
56 90 143
57 91 146
59 93 155
57 90 143
59 93 143
58 92 146
59 93 145
57 91 139
59 94 145
59 94 143
58 91 133
59 94 137
59 94 141
60 94 149
61 95 148
59 93 148
60 95 144
59 94 131
60 95 142
60 95 150
60 96 145
58 92 131
60 95 143
60 95 143
61 96 151
61 96 144
60 95 148
61 96 144
61 96 144
59 94 143
59 94 140
61 96 144
60 94 135
60 95 149
60 95 144
60 95 138
61 96 144
61 96 147
60 95 137
61 96 142
61 95 145
60 94 141
61 96 145
61 96 149
60 95 147
61 96 153
61 96 147
62 97 149
61 96 150
61 95 139
61 95 146
61 96 145
61 95 149
60 94 139
60 95 141
60 94 137
60 95 141
61 96 142
60 95 141
60 95 140
62 97 151
61 96 149
61 96 136
61 96 147
59 94 140
60 95 138
61 95 152
59 93 137
61 95 139
61 96 148
60 95 143
60 95 145
60 95 144
60 94 144
60 94 140
60 94 146
61 96 143
59 93 135
59 93 136
60 94 139
60 95 152
61 95 142
59 93 146
60 93 144
60 94 141
58 91 132
57 90 137
59 92 138
59 93 143
59 91 134
57 90 134
57 89 132
57 89 131
57 88 126
58 90 143
57 88 142
57 88 140
54 82 120
88 107 140
217 233 255
217 233 255
202 216 231
106 105 64
101 100 66
100 100 67
92 92 63
101 102 72
105 106 74
85 89 65
87 91 65
90 95 70
97 100 71
95 99 70
92 97 70
100 104 74
107 110 78
93 96 69
105 108 72
115 117 81
117 118 82
111 113 78
112 115 78
128 129 84
129 129 85
127 127 83
122 123 79
122 123 84
135 133 85
131 131 82
132 131 83
124 125 80
138 137 86
142 140 86
140 139 89
146 144 91
147 146 93
149 146 90
145 143 89
141 140 89
151 148 93
151 148 91
148 145 93
156 153 93
159 156 95
156 151 93
158 154 93
159 155 93
157 153 88
153 150 88
158 154 94
159 154 88
160 158 96
162 158 94
162 157 99
162 157 97
161 157 92
164 159 99
170 164 97
163 158 93
170 164 95
169 165 97
168 163 99
165 161 94
169 164 97
171 165 94
169 163 97
168 163 91
169 164 100
172 166 99
172 167 96
171 166 98
171 166 99
170 164 94
171 165 97
172 166 91
169 163 93
170 164 94
171 165 94
172 166 101
175 169 99
173 167 96
172 166 94
169 164 91
173 166 97
171 165 90
172 166 93
172 165 97
172 167 97
171 165 95
176 169 96
168 163 92
173 167 98
174 167 95
164 158 88
171 165 94
169 164 95
170 163 93
166 160 92
168 162 91
175 168 99
174 168 95
167 161 90
173 168 95
172 166 97
170 164 89
175 168 96
164 158 84
167 162 91
164 159 93
166 159 86
170 165 95
163 157 91
168 163 93
170 164 96
171 164 91
166 160 90
167 161 92
161 156 88
166 160 92
167 160 91
171 165 95
171 164 90
170 164 91
155 149 85
171 164 98
163 156 87
166 159 92
162 155 88
161 155 87
166 160 90
165 159 84
163 157 85
163 157 86
166 158 95
160 154 90
159 153 90
151 146 78
157 153 85
162 156 82
161 154 87
160 154 90
158 152 83
158 152 83
158 152 85
153 148 77
153 147 81
164 158 89
156 149 81
154 148 84
192 207 228
192 207 228
192 208 228
192 208 228
191 207 228
190 206 228
191 207 228
191 207 228
191 207 228
192 207 228
191 207 228
190 206 228
191 207 228
192 207 228
191 207 228
190 206 228
190 206 228
190 206 228
190 206 228
189 206 228
191 207 228
191 207 228
191 207 228
192 207 228
190 206 228
190 206 228
189 206 228
190 206 228
190 206 228
190 207 228
190 206 228
190 206 228
189 206 228
189 206 228
190 206 228
189 206 228
190 206 228
190 206 228
190 206 228
190 206 228
189 205 228
189 206 228
189 206 228
188 205 228
189 205 228
188 205 228
190 206 228
188 205 228
189 206 228
189 205 228
188 205 228
189 206 228
189 206 228
190 206 228
187 205 228
187 205 228
189 206 228
187 204 228
188 205 228
188 205 228
188 205 228
187 205 228
187 205 228
188 205 228
186 204 228
187 205 228
187 205 228
188 205 228
187 205 228
187 205 228
187 205 228
187 205 228
187 205 228
187 204 228
188 205 228
187 205 228
187 205 228
187 205 228
187 205 228
186 204 228
187 204 228
186 204 228
187 205 228
186 204 228
187 205 228
186 204 228
187 205 228
186 204 228
186 204 228
186 204 228
187 205 228
185 204 228
186 204 228
187 204 228
186 204 228
186 204 228
186 204 228
187 205 228
185 204 228
186 204 228
186 204 228
186 204 228
186 204 228
186 204 228
186 204 228
185 204 228
186 204 228
185 204 228
184 203 228
182 200 224
179 197 221
178 197 223
175 193 220
162 181 212
157 176 205
160 179 209
149 168 199
149 169 201
144 164 193
130 151 183
121 143 181
117 139 175
105 128 171
87 111 153
82 108 155
84 109 158
58 86 139
52 82 137
51 82 136
52 82 141
49 79 138
51 82 141
48 77 126
47 75 130
48 76 131
47 76 134
46 74 134
45 72 126
44 71 130
44 71 127
50 73 127
61 81 130
87 106 150
111 128 166
145 161 190
163 179 205
170 186 207
188 202 218
218 234 255
203 219 243
53 85 145
56 90 152
56 89 145
55 88 139
58 92 146
58 92 149
57 91 135
58 93 145
59 94 143
60 95 152
59 93 141
59 94 139
58 92 135
59 94 144
61 95 151
60 95 144
60 95 146
60 95 147
60 95 148
59 94 143
59 93 140
60 95 145
60 94 140
59 94 139
60 95 149
60 96 147
61 95 150
61 96 149
61 96 148
60 96 147
60 95 143
61 96 145
60 95 146
59 94 127
61 96 143
61 96 145
60 95 141
60 94 132
60 95 141
62 97 147
61 96 150
59 94 137
61 96 143
62 97 152
62 97 150
60 95 141
62 97 150
60 95 136
61 96 147
61 96 149
60 95 135
61 96 145
62 97 151
60 95 144
60 95 140
60 95 144
60 95 142
61 96 149
60 95 141
62 97 154
61 96 140
62 97 152
61 96 141
61 96 147
60 94 145
62 97 152
60 94 139
60 95 145
60 94 141
60 95 134
61 95 142
61 96 157
60 95 148
61 96 149
60 94 138
60 95 146
61 96 154
58 92 132
60 94 138
59 93 141
61 95 148
60 94 141
61 95 147
59 92 132
59 94 142
60 94 136
59 93 134
57 89 123
60 93 137
57 90 133
58 90 134
58 90 133
58 90 137
59 92 140
57 89 138
56 86 125
56 87 127
54 84 126
53 82 125
50 76 112
200 216 240
218 233 255
171 181 186
100 99 61
83 84 57
97 97 66
85 86 61
81 84 60
83 86 61
81 84 61
71 75 55
86 89 64
91 95 68
81 86 63
96 98 68
96 99 69
102 105 74
111 113 79
112 114 79
116 117 78
113 115 78
114 115 76
109 111 76
125 126 85
119 119 76
121 121 78
129 130 86
141 139 89
127 126 79
135 134 84
136 135 85
134 132 86
137 136 81
143 141 89
155 152 95
140 138 85
152 149 93
152 149 91
146 144 87
154 151 88
153 150 96
154 151 95
154 151 95
151 148 84
154 150 92
153 150 88
155 151 89
156 153 93
157 152 94
157 154 90
167 162 97
168 162 96
154 151 92
161 157 93
169 163 97
156 152 92
161 157 91
162 157 93
166 161 98
164 160 90
166 160 95
160 155 89
164 159 93
173 167 99
165 161 95
168 162 98
167 162 96
171 165 97
169 163 97
168 162 93
167 161 91
166 161 92
167 162 93
174 168 98
174 167 97
171 165 95
171 165 99
175 168 98
173 167 98
170 165 93
174 168 100
172 165 95
173 166 94
173 167 98
172 166 98
173 167 95
171 165 98
177 170 97
176 168 99
171 165 94
172 165 91
170 164 93
172 165 93
174 167 95
169 162 91
173 167 92
171 164 93
166 160 92
168 162 93
165 159 91
168 162 89
174 167 97
173 167 97
168 162 94
167 161 92
173 166 93
164 158 89
169 163 90
165 159 87
167 161 89
168 162 90
166 161 92
164 158 88
160 155 85
166 160 87
171 164 91
171 164 95
171 163 97
169 162 93
163 157 85
164 158 88
167 161 92
168 162 92
163 157 88
167 161 93
162 155 86
169 162 91
156 151 84
166 159 94
168 162 93
160 156 88
160 155 86
161 156 83
164 158 87
168 162 89
160 154 84
160 155 85
156 149 80
152 147 77
153 149 82
165 159 86
153 148 84
157 151 82
157 151 80
156 151 84
160 154 84
159 153 81
159 153 84
159 153 82
149 145 75
191 207 226
191 207 227
192 207 226
191 207 226
192 207 228
191 207 228
192 207 227
192 207 228
192 207 228
190 206 227
191 206 227
192 207 228
191 207 228
190 206 228
192 207 228
190 206 228
191 207 228
191 207 228
190 206 228
191 207 228
191 207 228
191 207 228
191 207 228
191 207 228
191 207 228
192 207 228
190 206 228
191 207 228
191 207 228
191 207 228
190 206 228
190 206 228
190 206 228
190 206 228
190 206 228
191 207 228
190 206 228
190 206 228
190 206 228
189 206 228
190 206 228
190 206 228
189 206 228
189 206 228
189 206 228
189 206 228
189 206 228
189 206 228
189 206 228
190 206 228
190 206 228
190 206 228
189 206 228
190 206 228
189 205 228
189 206 228
188 205 228
190 206 228
189 206 228
188 205 228
189 206 228
188 205 228
189 206 228
189 206 228
190 206 228
189 206 228
188 205 228
188 205 228
188 205 228
189 206 228
189 206 228
188 205 228
188 205 228
187 205 228
188 205 228
188 205 228
188 205 228
188 205 228
187 205 228
188 205 228
187 205 228
187 205 228
187 205 228
189 206 228
188 205 228
187 205 228
187 205 228
188 205 228
186 204 228
187 205 228
187 205 228
187 205 228
187 205 228
187 205 228
187 205 228
187 205 228
188 205 228
186 204 228
186 204 228
187 204 228
186 204 228
187 205 228
187 205 228
185 204 228
187 204 228
187 205 228
186 204 228
186 203 226
185 203 225
182 199 220
179 196 219
171 188 212
166 183 208
163 181 204
155 173 199
160 179 205
140 159 187
136 156 186
148 168 201
128 149 183
117 138 178
114 136 176
115 136 172
91 115 155
86 111 155
67 94 139
52 83 136
51 82 136
51 81 133
51 81 138
50 80 139
50 80 135
50 80 133
49 79 141
51 81 138
45 73 127
45 73 130
46 75 128
43 70 123
44 71 127
44 71 130
43 71 132
76 96 146
98 116 153
139 156 188
152 168 195
160 174 191
173 187 204
218 234 255
174 190 216
54 86 143
56 88 143
54 86 136
58 91 139
59 94 144
59 93 154
57 91 138
59 93 149
58 92 137
59 94 143
60 95 152
59 94 148
58 91 132
60 94 144
59 93 141
59 93 138
59 94 147
60 95 146
59 93 138
59 93 133
60 95 150
60 95 143
61 96 145
60 95 140
60 96 144
60 95 141
61 96 150
60 95 148
62 97 153
59 93 135
60 95 139
61 97 149
60 95 135
60 94 141
61 96 137
61 96 145
60 95 137
61 96 150
59 93 136
59 94 144
61 96 143
62 97 150
62 97 148
61 96 144
61 96 145
59 94 138
61 95 140
62 97 148
61 96 144
59 93 133
61 96 144
59 93 135
61 96 142
61 95 142
62 97 158
62 97 147
60 95 143
60 94 147
60 94 140
59 94 131
60 95 134
60 95 140
59 94 140
61 96 146
61 96 145
60 95 143
61 96 146
60 95 139
61 97 146
60 95 143
60 94 142
60 95 136
61 95 145
59 93 136
60 95 146
61 95 148
60 95 150
61 95 146
59 93 139
61 96 145
60 95 149
60 94 144
58 92 134
60 93 138
59 92 140
58 91 132
59 93 140
60 93 147
60 94 139
57 89 135
58 91 138
59 92 139
59 92 145
58 90 144
58 90 132
57 88 133
57 88 132
54 84 120
53 80 110
55 85 123
174 190 213
218 234 255
125 127 103
95 94 58
82 83 57
92 93 64
80 83 60
92 94 66
78 83 60
90 94 69
85 88 63
85 89 67
89 93 67
89 93 69
93 97 69
90 94 67
110 112 79
96 99 69
99 104 74
115 116 79
106 108 71
118 118 79
113 113 75
113 115 76
114 115 77
115 117 76
118 119 74
128 128 81
128 129 84
137 136 88
124 123 81
137 136 82
136 135 86
140 139 86
145 143 88
134 133 85
137 136 85
141 140 85
145 143 90
153 150 92
146 143 91
148 145 88
144 142 84
150 148 94
161 157 97
157 153 94
151 148 89
155 151 85
161 156 95
157 153 92
161 157 91
161 156 95
161 157 94
163 158 93
163 157 92
158 154 90
169 164 97
164 159 98
164 159 94
165 160 93
164 159 95
167 162 98
164 160 94
170 164 97
168 163 93
168 162 100
166 162 92
166 161 87
164 159 90
168 163 96
173 165 98
166 161 87
169 163 95
169 164 94
170 165 96
171 166 97
171 166 94
174 167 100
171 165 94
171 165 98
169 164 92
171 165 92
170 164 94
168 163 90
172 166 95
173 167 96
171 164 95
169 164 91
169 164 92
171 166 93
175 169 96
166 160 91
175 168 100
170 164 90
168 163 88
176 169 100
172 165 95
169 163 93
171 165 95
170 164 91
171 164 97
170 164 92
164 159 90
164 159 84
165 159 91
165 159 88
163 156 87
165 158 88
166 161 92
165 160 93
170 164 97
169 163 90
172 165 97
168 162 90
166 160 88
171 164 90
168 162 93
170 163 94
160 155 86
165 158 87
163 157 84
168 162 90
166 160 91
163 157 87
153 148 80
169 161 94
170 163 93
166 158 85
165 159 92
161 155 85
164 158 88
160 154 87
164 158 88
162 156 81
162 156 87
159 154 90
163 156 88
164 158 93
159 154 87
161 154 84
153 147 82
155 150 86
157 151 84
161 155 82
153 149 81
156 149 86
157 151 87
155 149 85
157 151 80
158 152 82
189 205 219
192 207 228
189 205 218
191 206 223
191 207 225
190 206 224
192 208 227
191 207 225
191 206 224
191 206 225
193 208 228
191 207 228
191 207 226
192 207 227
192 207 227
192 207 227
192 207 228
191 207 227
191 207 228
192 207 228
191 207 228
192 207 228
191 207 228
192 207 228
192 207 228
192 207 228
191 207 228
191 207 228
191 207 228
192 207 228
191 207 228
191 207 228
191 207 228
190 206 228
190 206 228
190 206 228
191 207 228
192 207 228
192 207 228
191 207 228
191 207 228
190 206 228
190 206 228
189 206 228
189 206 228
190 206 228
190 206 228
190 206 228
190 206 228
189 206 228
190 206 228
190 206 228
190 206 228
190 206 228
190 206 228
190 206 228
189 206 228
189 206 228
190 206 228
189 206 228
190 206 228
190 206 228
190 206 228
189 206 228
190 206 228
189 206 228
189 206 228
189 206 228
189 206 228
190 206 228
189 206 228
189 206 228
189 206 228
189 206 228
189 206 228
189 206 228
189 206 228
189 206 228
188 205 228
190 206 228
188 205 228
189 206 228
188 205 228
189 206 228
188 205 228
188 205 228
188 205 228
189 206 228
187 205 228
189 206 228
188 205 228
187 205 228
188 205 228
188 205 228
188 205 228
188 205 228
188 205 228
188 205 228
189 205 228
187 205 228
189 206 228
187 205 228
186 204 228
187 204 228
188 205 228
188 205 228
188 205 228
186 203 224
185 202 223
179 196 220
175 191 213
178 196 220
165 182 205
162 180 208
152 170 195
149 166 192
150 169 197
140 159 189
126 146 178
112 133 169
109 130 167
110 132 174
88 112 153
93 117 164
69 96 148
55 85 139
52 83 137
52 82 137
51 81 133
51 81 141
49 78 133
51 81 136
48 77 130
47 76 131
46 74 127
47 76 130
46 74 132
44 72 126
42 68 121
43 71 129
42 68 122
43 70 124
60 80 128
90 109 153
106 122 159
127 143 176
156 171 189
160 173 186
214 229 250
155 171 199
54 87 137
54 86 139
55 88 139
58 93 147
56 89 136
59 93 142
59 93 139
59 93 138
58 92 138
59 93 139
58 93 139
60 95 145
59 93 139
61 96 155
60 95 141
60 95 145
59 93 137
60 94 141
59 94 140
60 95 142
59 94 134
61 97 147
60 94 135
61 96 146
61 97 147
60 95 147
61 96 151
61 97 154
60 95 136
61 95 146
61 96 144
61 96 140
59 94 142
60 94 144
61 95 139
61 96 148
62 97 143
62 97 151
61 95 146
60 95 143
59 94 136
60 94 135
60 95 137
61 96 149
60 94 142
61 96 149
59 94 133
61 96 149
59 93 132
62 97 149
62 97 150
60 95 143
59 94 139
60 95 143
61 96 145
61 96 150
61 96 153
61 97 144
61 95 140
61 95 143
61 96 143
61 96 145
60 94 143
61 96 142
60 95 141
59 93 134
60 94 136
60 94 138
60 94 136
60 94 135
60 95 150
60 94 137
61 96 147
59 94 139
59 94 140
59 94 136
59 93 142
60 94 137
59 92 138
61 95 144
60 93 139
59 93 139
58 91 139
60 94 137
59 92 141
60 93 130
60 94 143
58 91 139
57 89 135
58 90 128
55 85 121
57 89 131
57 89 125
56 88 130
58 90 135
53 82 120
57 89 137
57 87 130
51 80 122
51 79 116
155 171 195
215 230 251
113 112 78
88 88 57
86 86 56
77 80 59
79 80 55
77 79 54
68 73 55
67 72 53
68 73 54
80 85 60
78 83 62
84 89 64
94 99 70
91 96 70
84 88 63
89 91 62
108 108 70
104 107 74
103 106 73
112 113 72
123 124 78
128 128 85
123 123 80
126 125 80
126 126 76
118 120 75
129 130 84
122 121 81
139 137 83
131 130 83
137 136 83
131 131 85
135 134 82
142 140 83
147 144 87
145 142 87
144 142 85
149 146 89
149 147 91
142 139 84
146 144 85
154 151 91
158 154 91
159 155 90
159 155 94
160 156 94
161 156 92
154 151 90
165 160 95
162 157 87
160 155 92
166 160 93
161 156 94
159 156 84
164 160 99
167 161 93
166 161 85
166 160 94
165 160 91
166 160 94
170 165 89
171 164 94
166 161 93
169 163 96
169 164 97
166 162 94
172 166 100
169 163 91
168 162 90
167 161 89
173 166 94
172 165 95
168 163 93
175 168 99
170 164 94
175 168 99
170 165 95
170 164 93
168 163 89
170 164 97
169 163 89
175 169 98
171 165 94
172 165 95
171 165 90
168 163 94
170 164 89
171 165 93
170 164 91
173 167 95
168 162 92
172 166 92
165 160 91
170 164 93
168 162 95
167 162 92
170 164 91
164 159 87
169 164 92
169 163 87
168 162 89
171 165 94
172 165 93
166 160 84
168 161 84
164 158 93
166 160 87
169 162 88
171 164 90
166 160 84
165 159 90
169 162 90
168 162 93
169 162 88
171 164 93
162 157 86
161 156 85
163 157 88
168 162 93
166 160 93
167 161 93
167 160 89
161 155 89
161 155 81
166 159 86
163 157 83
166 160 93
167 160 86
163 158 81
166 160 86
163 157 85
159 153 87
159 152 82
160 153 89
162 156 87
169 163 92
159 152 83
161 154 86
155 150 85
161 155 89
155 150 84
156 150 77
159 153 83
158 151 82
154 148 81
164 157 88
158 153 80
158 151 84
189 205 220
191 206 223
191 206 221
190 205 221
190 206 221
191 206 221
191 206 224
191 207 224
189 205 221
192 207 225
190 206 225
191 206 224
190 206 225
192 207 228
190 206 223
190 206 224
191 206 221
191 207 225
192 207 224
191 206 223
191 207 227
192 207 226
190 206 226
192 207 227
191 207 227
190 206 226
192 207 227
192 207 226
192 207 228
192 207 226
192 207 228
191 207 225
191 207 228
191 207 227
191 207 228
191 207 228
191 206 226
191 207 227
191 207 227
192 207 228
191 207 228
191 207 228
191 207 228
191 207 228
191 207 228
191 207 228
192 208 228
191 207 228
191 207 228
192 207 228
192 207 228
192 207 228
190 206 228
190 206 228
191 207 228
189 206 228
190 206 228
191 207 228
191 207 228
191 207 228
191 207 228
190 206 228
190 206 228
190 206 228
190 206 228
190 206 228
190 206 228
190 206 228
190 206 228
190 206 228
190 206 228
190 206 228
190 206 228
189 206 228
190 206 228
190 206 228
190 206 228
189 206 228
189 206 228
190 206 228
190 206 228
189 206 228
189 206 228
190 206 228
189 205 228
190 206 228
189 206 228
190 206 228
190 206 228
189 206 228
189 206 228
188 205 228
190 206 228
190 206 228
189 206 228
190 206 228
189 206 228
188 205 228
188 205 228
189 206 228
189 206 228
188 205 228
189 206 228
190 206 228
189 206 228
189 206 228
188 205 228
187 202 223
181 196 214
181 197 220
179 195 214
167 183 205
162 179 202
157 175 204
150 168 196
153 170 192
151 168 194
140 160 191
129 148 175
125 145 178
116 137 171
109 130 168
88 111 153
74 99 143
63 92 143
53 84 139
53 84 137
48 77 122
52 82 135
50 81 132
48 77 124
49 78 129
50 79 135
49 78 134
46 75 129
46 75 125
41 67 118
42 69 120
44 71 123
40 65 113
41 67 119
37 61 111
41 63 115
76 93 136
98 113 149
128 143 172
151 167 188
163 177 187
205 220 238
118 137 176
52 84 127
56 89 137
55 89 138
57 90 140
58 92 146
59 93 148
58 91 144
58 92 140
60 95 153
59 93 140
60 95 147
59 93 138
60 94 147
59 94 141
59 93 139
60 95 142
59 94 141
60 94 136
61 96 144
60 95 133
60 94 135
59 94 131
58 92 131
58 92 139
59 93 138
61 96 144
59 94 134
61 95 141
59 94 136
61 96 147
60 95 143
60 94 132
61 96 145
60 95 142
60 96 142
61 96 142
60 95 141
61 96 144
59 93 130
61 96 141
61 97 153
61 97 147
61 96 142
60 95 146
59 94 142
61 96 148
61 97 143
59 94 136
60 95 143
61 95 136
60 95 140
60 95 140
60 95 141
61 95 143
61 95 138
60 94 136
61 97 151
60 95 143
59 94 141
61 96 148
60 95 139
61 96 145
61 96 141
58 92 134
60 95 145
60 95 135
61 96 144
61 96 145
60 95 144
60 94 141
59 93 133
59 93 140
60 94 138
60 94 136
61 95 146
60 95 148
60 94 134
59 93 139
61 96 149
60 94 138
58 91 132
59 94 144
60 94 141
59 93 133
60 94 142
59 92 132
59 93 140
58 90 133
59 91 133
59 93 136
58 90 136
59 91 136
58 90 134
58 92 145
58 90 136
54 83 113
57 88 124
55 86 132
55 85 127
52 80 112
115 132 160
183 195 209
88 86 54
81 80 52
84 84 57
82 82 55
66 70 52
63 68 51
74 79 59
67 71 51
75 81 61
85 89 63
78 82 59
92 95 65
78 82 57
85 90 65
96 100 71
102 106 72
99 101 68
93 97 69
105 107 71
112 113 77
121 121 76
106 109 70
127 127 82
119 119 78
122 122 78
120 120 78
126 126 79
121 123 74
137 135 82
133 132 80
135 134 84
137 135 82
149 146 89
143 141 86
146 143 85
154 151 94
138 137 84
150 147 87
138 136 81
150 147 87
154 151 93
149 147 88
156 153 89
149 145 90
160 155 92
155 151 88
161 156 97
165 160 93
153 149 81
157 153 92
162 157 93
162 157 88
163 158 95
162 157 92
163 159 86
164 158 92
167 162 96
166 160 93
168 162 93
168 162 90
166 161 90
169 163 92
169 164 93
169 163 97
166 161 87
168 162 96
166 161 92
170 164 93
170 164 94
169 164 90
171 165 93
172 166 90
169 162 95
171 164 97
177 169 99
169 164 93
168 163 88
168 163 90
170 164 90
175 168 96
170 164 96
171 166 90
168 163 91
169 162 87
171 165 95
171 164 89
171 165 90
169 163 89
173 167 93
171 164 90
173 166 94
170 164 92
168 163 93
171 166 87
166 161 90
170 165 93
172 165 89
171 165 92
166 160 89
165 159 81
169 163 91
166 160 86
169 162 94
170 163 93
167 161 91
170 164 95
166 161 90
171 164 93
168 163 88
160 155 80
160 154 84
165 158 92
166 160 86
168 161 90
168 161 92
174 167 98
171 164 93
164 157 90
165 158 88
163 157 87
170 162 90
163 157 84
165 159 87
170 163 93
162 156 84
161 155 81
163 157 92
167 161 87
159 153 80
168 161 88
160 153 80
163 157 83
165 159 91
157 151 79
164 159 86
166 160 89
165 160 85
157 152 84
157 151 84
163 156 85
157 151 82
165 158 85
151 146 78
156 150 81
159 152 84
164 158 88
155 149 79
157 151 81
189 204 216
190 205 217
190 205 218
189 205 214
189 205 217
189 205 218
190 205 216
190 206 220
191 206 223
191 206 220
189 205 217
190 206 225
191 206 224
190 205 219
189 204 214
191 206 224
189 205 219
189 204 217
191 206 223
190 205 219
191 206 219
191 206 223
190 206 223
189 204 217
190 205 221
189 205 223
191 206 223
192 207 224
191 207 226
192 207 227
191 206 224
191 207 224
190 206 221
191 207 226
192 207 227
192 207 227
191 206 220
191 206 225
191 206 223
191 207 225
192 207 227
192 207 227
192 207 228
191 206 225
192 207 227
190 206 226
191 207 225
191 207 228
191 207 227
190 206 226
190 206 227
191 207 227
191 207 227
192 207 228
190 206 225
191 207 226
191 207 228
191 207 228
192 207 227
191 207 228
191 207 228
191 207 228
191 207 228
190 206 228
190 206 228
191 207 228
191 207 228
190 207 228
190 206 228
191 207 228
191 207 228
191 207 228
191 207 228
191 207 228
191 207 228
191 207 228
192 207 228
190 206 228
191 207 228
189 206 228
191 207 228
192 207 228
189 206 228
190 206 228
191 207 228
191 207 228
190 206 228
189 206 228
191 207 228
190 206 228
190 206 228
190 206 228
190 206 228
191 207 228
191 207 228
189 206 228
190 206 228
190 206 228
189 206 228
191 207 228
189 206 228
190 206 228
191 207 228
190 206 228
190 206 228
187 203 224
187 204 226
182 198 219
184 198 217
186 202 223
180 196 219
174 190 211
165 182 209
162 179 200
150 167 194
156 172 194
142 159 186
118 138 170
131 150 177
113 134 166
104 125 160
92 114 152
81 106 149
64 92 141
52 83 136
52 82 132
51 81 126
50 79 123
50 79 133
49 78 125
48 77 120
47 75 120
46 74 121
46 74 122
44 70 120
44 71 121
44 71 119
43 69 118
41 67 118
42 67 119
40 65 114
39 64 116
37 61 113
49 70 119
69 87 131
126 141 171
137 152 172
157 171 176
197 211 228
81 104 145
55 87 137
55 87 130
54 86 133
59 93 147
57 91 134
58 93 142
58 92 142
57 91 133
59 93 143
59 93 142
58 92 133
59 93 138
59 94 143
60 95 149
61 95 143
61 96 151
60 94 137
61 95 140
60 96 146
59 94 140
59 93 138
61 96 147
61 96 145
60 94 146
61 95 147
61 95 144
60 96 145
61 96 150
61 95 145
62 96 150
60 95 141
61 96 145
60 95 140
62 97 151
60 94 132
59 94 142
59 94 135
61 96 149
60 95 148
60 95 135
60 94 138
60 95 134
61 96 145
61 96 149
60 94 133
60 94 145
60 95 136
59 93 131
61 97 151
61 96 143
60 95 136
60 96 151
60 94 130
59 93 129
59 94 136
59 93 136
59 93 136
60 95 134
60 95 135
61 96 144
62 97 148
61 96 141
60 95 141
60 95 135
61 96 143
58 92 129
61 96 146
59 92 129
60 94 133
60 94 139
60 94 138
59 94 140
59 93 135
60 95 140
59 92 133
59 92 129
59 93 139
59 94 143
60 94 141
60 93 142
59 93 140
60 94 138
61 95 141
57 90 127
57 89 126
59 92 134
60 94 137
58 91 142
56 88 118
57 89 130
58 90 139
56 88 129
58 89 129
55 86 123
57 89 132
56 86 125
55 85 120
54 83 123
53 82 120
52 78 106
64 85 111
178 187 192
84 83 52
80 80 49
82 83 55
63 67 47
60 64 47
84 87 61
77 80 57
65 69 50
70 75 55
61 67 49
77 83 60
83 87 61
81 85 59
88 92 66
92 96 67
96 99 65
95 99 70
100 103 71
116 116 74
111 113 73
114 116 70
113 114 75
128 128 80
125 124 78
131 130 79
122 120 75
134 133 80
137 136 86
123 123 75
141 140 87
133 132 83
128 127 74
142 140 86
137 136 82
146 143 84
152 148 91
150 147 88
145 143 83
149 146 85
152 148 87
154 150 84
155 152 91
159 154 90
158 153 88
157 152 90
150 146 85
156 152 88
156 152 88
162 157 93
165 160 97
168 162 94
166 161 92
160 156 89
164 158 90
166 160 89
167 161 90
163 159 91
165 160 87
172 166 97
164 159 87
169 163 96
167 162 91
168 163 94
165 160 89
168 163 91
166 161 95
169 162 92
171 165 94
173 167 97
171 165 98
172 165 91
167 161 83
165 160 87
172 165 94
168 162 92
171 166 90
169 163 89
169 163 92
172 165 90
175 168 95
168 163 87
170 164 90
173 167 93
173 167 94
165 160 85
176 169 96
168 163 89
168 163 86
169 164 88
170 164 89
167 161 87
169 162 90
166 160 87
171 164 92
174 167 93
166 160 85
168 161 85
171 163 95
169 163 91
171 165 90
167 160 87
171 164 90
173 167 97
167 161 92
170 164 93
168 162 85
168 161 87
167 160 87
171 164 90
169 162 92
171 164 92
167 160 91
162 157 89
174 166 94
161 155 83
164 157 89
162 157 83
172 165 93
169 162 89
164 157 84
167 161 92
166 160 90
166 160 90
162 156 84
156 151 78
159 153 84
160 153 86
165 159 84
161 155 84
160 154 86
162 155 80
163 156 86
159 152 84
162 155 85
165 158 84
161 155 86
168 162 89
155 149 83
159 153 82
158 152 83
158 152 89
158 152 85
154 149 84
160 155 84
162 155 85
168 160 93
160 154 81
163 157 84
187 203 208
189 204 214
189 205 214
189 205 216
189 205 216
189 204 214
189 205 216
189 204 213
189 205 217
190 205 217
189 205 217
188 204 213
188 204 212
189 205 216
191 206 220
189 204 216
189 205 217
188 204 212
189 205 217
189 204 216
189 204 216
190 205 216
190 206 221
189 205 216
189 205 218
190 206 220
189 205 217
191 206 221
191 206 220
191 206 221
191 206 224
189 204 214
190 206 220
188 204 214
190 206 224
191 207 226
190 206 220
191 206 225
191 206 225
189 205 218
189 205 217
190 205 218
190 205 221
190 205 220
191 206 224
191 206 223
191 206 225
191 206 223
188 204 216
190 206 224
190 206 223
190 206 223
190 205 219
190 206 223
191 207 225
191 207 227
191 207 227
192 207 227
190 206 223
190 206 223
189 205 221
191 206 224
191 206 225
191 206 221
191 206 225
191 207 227
191 206 226
192 207 226
191 207 226
190 206 225
190 206 226
190 206 228
190 206 225
192 207 228
191 207 227
191 207 227
190 206 225
191 206 224
192 207 228
192 207 228
192 207 228
191 207 228
190 206 227
192 207 228
190 206 227
192 207 228
191 207 228
190 206 227
192 207 228
192 207 228
191 207 228
191 207 228
191 207 228
191 207 227
191 207 227
191 207 228
191 207 228
190 206 228
191 207 228
191 207 227
191 207 228
190 206 228
190 206 228
191 207 228
191 207 228
189 205 227
187 202 221
185 200 219
178 192 210
180 196 217
173 188 206
166 182 205
160 176 199
153 170 195
153 170 196
144 161 188
145 162 184
140 158 187
136 154 181
110 131 161
105 126 155
95 117 158
77 101 145
65 92 133
53 83 123
51 81 125
49 78 122
49 79 121
51 81 134
49 79 129
48 76 124
48 76 124
46 74 115
45 72 122
45 73 120
42 68 116
44 71 114
43 69 116
42 69 118
38 63 109
40 64 112
36 60 109
38 62 112
32 53 105
45 63 104
100 116 150
140 154 176
156 170 184
173 187 201
53 85 132
55 88 142
57 90 146
57 90 138
56 88 128
56 89 131
58 91 138
58 93 140
59 92 141
57 91 129
58 92 132
58 93 142
59 93 141
58 92 132
59 94 138
59 94 130
60 94 139
60 95 139
61 97 154
60 95 148
60 95 144
59 93 132
60 95 140
59 93 126
60 95 144
58 91 123
59 94 131
60 95 141
60 95 146
60 95 133
59 93 132
60 94 142
62 97 147
59 94 137
59 94 138
58 93 130
60 95 148
59 94 125
60 95 131
61 96 143
61 96 145
61 96 140
60 95 148
60 94 142
60 95 140
60 95 136
60 95 138
60 95 147
60 95 139
60 94 136
61 96 142
60 96 148
59 94 142
60 95 144
60 94 136
60 95 141
60 94 135
60 95 138
61 95 144
60 94 135
60 94 139
60 94 142
60 94 142
59 94 135
59 94 139
61 95 139
60 95 145
60 95 144
59 93 131
60 95 140
59 93 133
60 94 136
59 93 129
61 96 147
58 91 135
59 93 135
59 92 136
60 93 135
58 92 134
60 94 140
60 94 142
59 92 142
58 91 135
59 93 131
59 92 132
61 95 141
58 92 133
59 93 139
58 91 129
57 90 122
57 89 124
58 90 132
58 91 128
58 89 133
55 85 123
57 89 131
55 86 125
56 86 117
55 85 120
54 83 116
52 80 113
50 75 106
161 169 170
86 86 53
72 74 48
73 74 47
59 62 43
66 69 50
71 74 52
65 70 52
62 67 49
72 77 58
69 74 52
66 72 52
88 93 66
78 83 56
86 91 66
94 98 69
82 86 58
103 105 70
95 99 67
100 102 66
117 118 78
108 109 66
121 120 79
113 113 76
118 120 77
123 123 73
126 125 77
131 130 78
136 134 81
130 130 79
131 130 75
138 136 84
140 138 86
139 137 84
141 139 83
148 144 92
146 143 82
145 143 85
150 147 89
149 145 89
153 149 87
146 143 85
154 151 88
145 142 82
165 160 98
165 158 90
155 152 86
159 154 89
161 156 89
163 158 92
152 148 87
160 155 86
150 146 81
163 158 89
162 158 92
169 163 96
161 157 89
162 157 88
163 158 85
169 163 93
168 162 93
169 163 93
169 162 92
169 163 95
164 159 84
163 158 84
167 162 91
168 162 88
166 160 86
171 165 92
169 163 88
168 162 92
170 164 89
168 162 92
171 165 95
170 164 91
172 166 92
170 164 90
174 167 94
162 158 80
168 162 84
172 167 94
173 166 96
168 162 93
173 166 90
175 168 97
172 165 87
168 161 91
171 164 90
171 165 93
169 162 87
170 164 88
169 164 90
164 158 87
168 162 84
171 165 90
171 165 91
167 160 87
172 165 93
169 162 91
172 164 94
171 164 90
171 164 90
165 159 84
169 163 88
166 160 89
171 164 92
172 165 93
167 161 90
169 164 93
167 161 88
168 162 89
165 159 88
162 157 87
165 158 84
169 163 87
164 158 87
166 160 82
159 153 84
167 161 87
169 163 93
168 162 87
163 156 87
164 158 87
166 160 88
162 156 88
157 151 75
166 160 85
163 157 84
162 156 84
162 156 80
161 155 89
157 152 84
159 154 86
161 155 82
158 152 78
161 155 86
163 157 89
162 156 84
160 155 84
161 155 84
162 156 87
159 153 85
162 156 90
151 145 76
157 151 84
162 156 86
154 147 79
149 144 73
189 204 213
189 204 214
191 206 218
188 204 209
189 204 214
187 203 208
190 205 218
189 204 212
188 204 214
189 204 212
188 204 211
191 206 217
187 202 206
186 202 207
189 204 214
186 202 206
187 203 208
187 203 213
189 204 211
188 204 211
188 204 212
188 204 211
189 205 218
189 204 213
190 205 216
190 205 218
188 204 214
189 205 217
188 204 213
190 205 218
187 203 208
189 205 218
189 205 216
190 206 220
191 206 220
188 204 214
187 203 211
189 204 213
189 205 217
190 205 218
189 205 217
190 206 221
187 203 212
187 203 211
188 204 213
190 206 220
190 205 219
191 206 221
191 206 225
188 204 214
190 205 219
190 206 223
190 206 220
189 205 218
190 206 223
188 204 216
189 204 214
189 205 218
190 206 219
190 206 223
190 206 223
191 206 220
191 206 223
190 206 221
191 206 225
189 205 220
190 205 223
191 206 224
188 204 217
190 206 226
189 205 218
188 204 217
189 205 220
190 206 221
190 206 221
191 206 224
189 205 218
190 205 220
190 206 224
189 205 220
188 204 219
190 205 219
189 205 220
190 206 221
191 206 225
190 206 223
191 206 225
190 206 223
191 207 225
191 206 226
191 206 225
192 207 226
188 205 219
190 206 225
189 205 221
190 206 225
189 205 221
189 205 220
191 206 224
189 205 224
189 206 225
192 207 227
190 206 224
191 207 228
190 206 227
188 204 221
186 202 216
184 200 217
182 196 214
178 194 206
174 189 206
178 193 211
154 170 189
160 176 192
145 162 187
148 164 187
128 146 174
142 160 186
120 139 168
124 143 172
95 116 146
94 115 146
73 98 133
58 87 134
52 82 123
52 82 124
51 81 129
51 80 125
50 79 118
49 78 124
49 78 126
49 78 128
45 73 115
46 74 119
45 72 118
46 74 120
45 73 122
43 69 121
40 64 107
38 62 106
38 63 109
36 59 103
35 57 105
33 55 100
38 57 105
89 105 141
132 147 166
141 155 155
140 155 166
46 74 120
54 86 129
54 87 136
55 87 138
57 90 137
56 90 129
56 89 132
59 94 146
58 92 138
59 93 145
58 92 142
58 91 135
60 94 145
60 94 138
60 94 144
57 91 137
60 94 142
59 93 136
61 96 146
58 92 132
60 95 141
60 95 139
59 94 133
60 95 140
60 95 141
60 94 146
60 96 147
61 95 142
61 96 149
60 95 141
59 93 131
61 95 143
60 94 135
60 94 134
61 96 143
61 97 145
59 94 132
60 94 139
60 94 135
61 96 143
60 95 135
61 95 144
61 96 142
60 95 138
60 95 141
60 95 137
60 94 139
59 94 135
60 95 140
60 94 135
61 95 139
61 96 151
60 94 142
60 95 134
60 95 143
60 95 136
60 94 137
60 94 136
60 95 144
60 95 145
60 95 140
60 94 136
61 95 141
59 93 135
59 93 135
61 95 145
60 94 133
61 95 143
60 95 141
61 96 143
60 95 142
59 93 135
59 93 134
59 94 135
59 92 133
59 93 138
60 95 140
58 92 134
59 93 142
59 93 134
59 93 136
59 93 140
57 89 122
60 93 139
59 92 136
59 94 135
57 90 130
59 92 134
59 93 133
58 91 135
59 92 134
56 88 128
55 86 126
57 89 125
54 85 122
55 86 116
58 90 131
52 81 121
51 79 114
54 84 116
55 85 122
48 74 105
92 96 76
79 78 48
74 75 49
69 70 49
54 59 42
59 62 42
70 74 52
70 74 52
61 66 48
83 88 63
68 73 54
69 76 58
78 83 57
75 80 57
86 91 63
83 87 58
79 83 57
93 97 67
97 100 63
104 106 69
104 106 69
113 114 76
114 116 71
124 123 75
122 121 76
114 115 73
126 124 77
126 125 79
128 127 78
128 127 73
128 127 74
136 135 82
131 130 79
139 137 82
145 142 84
133 132 82
145 142 77
141 139 81
146 142 84
143 141 82
153 149 87
150 147 86
158 153 91
149 147 82
151 147 83
151 148 88
156 153 86
155 150 80
150 146 83
159 154 87
161 157 83
159 154 85
163 158 87
158 155 83
162 158 88
151 148 82
161 156 85
165 160 93
167 163 91
164 159 92
166 160 88
165 159 88
163 158 85
163 157 87
170 165 93
165 161 89
166 160 88
170 164 92
170 163 93
167 162 86
171 165 86
169 163 88
169 164 88
167 161 82
168 162 83
171 164 90
166 160 88
169 163 87
166 161 85
170 164 89
166 161 88
171 166 94
170 164 88
171 164 89
170 163 92
166 159 86
170 164 93
169 163 87
169 162 90
166 161 87
170 163 90
170 164 87
168 163 82
172 165 88
167 162 87
173 167 95
168 162 85
166 160 86
168 161 87
168 162 87
166 159 88
170 164 90
167 161 88
164 158 87
169 162 89
167 160 85
169 162 83
165 159 84
173 166 93
170 163 88
171 164 87
164 158 82
165 158 87
169 163 90
165 159 81
169 162 91
163 156 85
168 162 85
166 160 89
168 160 89
164 158 85
169 162 92
168 161 87
163 158 84
164 157 85
161 154 82
160 153 80
156 150 80
160 154 81
162 156 84
156 152 75
162 156 80
158 151 80
169 162 92
162 156 82
160 153 81
163 156 80
160 155 87
163 157 84
162 156 84
157 150 83
160 155 78
155 150 70
158 153 79
161 155 80
152 146 79
156 151 80
162 155 83
155 149 84
186 202 202
188 203 207
188 203 209
190 205 214
188 204 209
188 203 208
188 203 209
188 203 207
187 203 207
188 204 214
189 204 209
187 202 203
189 204 213
188 203 209
189 205 213
184 200 195
186 202 203
187 203 208
188 204 209
189 204 211
190 205 216
187 203 207
187 203 207
185 202 203
191 206 219
184 201 198
189 204 213
188 203 209
185 202 206
188 204 211
186 202 203
188 204 211
192 207 223
189 205 217
188 204 212
188 203 209
189 204 212
188 203 209
185 201 204
189 204 213
186 202 203
187 203 208
186 201 200
188 203 209
191 206 223
190 205 219
187 203 211
188 203 208
189 204 209
190 205 217
190 206 220
187 203 208
188 203 211
189 205 216
184 201 199
190 205 218
187 203 211
190 205 218
188 204 213
190 205 218
189 204 212
188 204 211
190 206 220
189 205 218
188 204 213
189 205 217
188 204 213
189 205 218
188 204 213
188 204 217
190 205 219
191 206 219
189 205 218
191 206 224
187 203 212
189 204 211
188 204 217
191 206 223
190 205 220
188 204 214
188 204 213
190 205 218
189 205 218
187 203 211
190 206 221
188 204 216
190 205 218
189 205 219
188 204 217
187 203 211
189 204 217
190 206 220
190 206 221
187 203 212
190 206 220
188 204 216
189 205 218
189 205 216
189 205 218
188 203 213
191 206 224
190 206 218
190 206 223
190 205 220
189 203 218
186 202 216
188 203 218
184 200 215
184 198 206
180 195 206
169 185 185
171 186 202
172 187 201
156 172 187
158 174 190
157 173 192
140 157 178
145 162 185
126 144 173
119 138 171
107 126 156
93 114 146
62 89 127
52 82 121
51 82 129
51 81 128
52 82 132
49 79 114
49 79 121
49 78 124
47 75 115
43 70 104
47 75 115
45 73 117
46 74 124
43 70 114
43 69 110
45 72 119
42 67 110
40 64 112
38 62 109
35 58 102
35 58 103
34 57 108
28 47 89
61 75 105
106 119 139
135 149 160
131 147 158
50 81 131
54 85 123
55 87 135
57 91 136
56 90 133
55 87 129
58 92 139
59 93 145
56 90 129
58 92 142
59 93 131
59 93 137
60 95 143
60 94 140
60 94 142
58 92 140
58 92 130
58 92 136
61 96 145
61 96 147
60 94 144
60 94 142
58 91 121
59 94 142
59 93 134
59 94 142
59 93 131
60 95 140
61 95 142
60 94 142
60 95 139
60 94 139
60 94 138
62 97 149
61 96 145
60 94 140
60 95 137
61 97 151
59 93 131
59 93 142
61 96 149
61 96 141
62 97 148
61 96 142
62 97 153
59 93 125
59 94 133
60 95 141
60 95 137
58 92 124
61 96 140
61 95 141
59 93 137
60 95 142
60 95 141
60 95 141
61 96 143
61 96 149
59 93 140
60 94 141
61 95 144
59 93 133
60 95 132
60 95 138
59 93 134
60 95 136
60 95 134
61 95 140
60 94 138
59 94 141
59 93 137
59 93 133
59 92 134
60 93 145
60 94 140
60 93 134
60 94 138
61 95 138
60 93 139
59 92 135
60 93 142
59 93 136
60 94 143
58 91 131
58 91 128
58 91 130
59 93 134
58 92 137
58 91 130
59 92 136
56 88 127
59 92 135
57 88 123
55 86 127
57 88 126
58 88 127
56 87 123
55 86 117
52 81 113
54 83 116
54 81 118
49 74 102
77 81 67
72 71 41
71 71 46
59 61 40
70 72 50
56 61 42
60 66 49
58 63 45
54 61 45
64 70 51
66 74 54
74 79 54
72 76 56
75 80 56
79 83 58
85 89 61
90 93 59
91 94 64
99 101 63
99 101 63
100 102 64
115 116 76
115 116 72
117 118 73
110 113 69
121 120 75
128 128 78
120 120 71
122 122 76
122 121 72
138 136 81
128 126 73
130 128 76
130 129 81
131 131 76
135 133 77
141 139 76
142 140 82
146 144 84
150 146 85
146 142 83
148 144 86
144 142 77
151 148 87
152 148 82
161 156 86
160 155 88
153 149 85
157 153 87
162 157 83
156 152 92
155 152 86
159 156 81
164 158 90
163 157 92
153 150 83
164 159 90
164 159 90
161 156 90
164 158 88
163 157 88
167 160 92
170 165 93
166 161 92
169 163 89
170 164 88
167 162 91
170 164 89
169 163 89
170 164 94
166 160 85
164 159 82
166 161 86
168 162 87
172 165 96
170 164 91
168 163 85
171 165 91
172 164 90
171 165 92
171 164 91
166 161 85
173 167 95
174 167 94
171 165 90
170 164 94
170 165 91
170 164 88
170 163 87
167 161 86
174 167 93
171 166 93
170 163 87
171 165 92
171 164 90
172 165 93
169 163 86
170 164 92
169 163 89
173 166 90
167 161 89
171 164 90
166 160 83
166 161 83
171 164 90
167 160 87
172 166 92
167 161 89
172 165 90
166 159 82
171 165 84
165 159 84
165 158 84
165 159 87
164 158 85
168 162 93
164 158 78
165 159 89
157 151 76
168 162 90
162 156 79
161 155 85
167 160 87
157 151 82
168 161 87
162 156 82
166 159 82
157 152 75
157 152 76
169 162 88
160 155 83
164 158 79
164 157 85
157 150 76
162 156 80
155 149 78
159 153 83
162 156 81
158 152 83
159 153 80
158 153 75
159 154 82
152 146 79
159 153 83
163 157 82
161 154 80
159 153 84
157 151 87
160 153 84
187 203 206
186 202 202
188 203 209
187 203 207
185 201 202
188 204 209
188 203 208
187 203 206
188 204 211
186 202 202
186 202 203
187 203 206
188 204 211
187 202 204
183 200 192
186 202 200
188 204 213
188 204 211
185 201 199
186 202 203
189 204 213
190 205 217
187 203 207
188 204 208
186 202 202
186 202 207
186 202 204
189 204 212
188 204 212
188 204 213
185 201 199
187 203 208
187 203 207
185 201 198
187 203 207
188 204 211
186 202 206
186 203 208
186 202 206
187 203 208
188 204 209
190 205 216
187 203 208
190 205 216
188 203 208
187 202 204
186 202 204
186 202 207
189 204 213
186 202 207
186 202 204
190 206 219
188 204 212
191 206 220
189 204 213
187 203 208
187 202 207
190 205 213
187 203 206
187 203 209
188 203 212
188 204 212
187 203 211
187 203 207
190 206 219
186 202 207
184 200 199
187 203 207
188 204 212
187 203 208
188 204 209
187 203 212
186 202 203
188 204 211
189 204 211
190 205 218
187 203 209
187 203 209
188 204 213
189 204 214
189 204 213
186 202 206
189 204 213
187 203 211
186 202 207
186 203 209
188 204 214
188 203 209
189 205 217
190 205 217
185 201 203
188 204 216
190 206 219
191 206 219
186 202 206
188 203 212
187 203 208
189 204 214
188 203 211
190 205 216
189 204 214
187 203 207
188 204 212
188 204 212
188 203 211
186 201 207
179 193 197
182 197 203
179 195 202
176 189 196
166 181 188
173 189 201
156 172 181
147 164 176
147 163 177
140 156 174
136 153 180
136 153 169
116 135 165
118 136 165
102 122 155
80 103 141
61 89 138
51 81 128
52 82 126
52 82 124
50 80 122
51 81 126
50 79 125
47 76 118
48 76 116
47 74 119
45 71 117
44 71 107
47 75 114
42 68 108
44 70 114
43 68 111
42 68 110
39 64 107
37 60 99
37 60 107
33 54 100
31 52 96
27 46 87
64 79 113
92 105 124
125 137 149
119 134 144
53 84 130
52 83 123
55 89 133
54 87 131
57 91 140
56 89 131
56 88 132
57 91 135
58 91 139
59 93 144
58 91 132
59 93 140
57 91 124
58 92 129
59 94 136
59 93 128
58 92 133
58 92 137
60 94 138
60 94 134
58 92 134
60 94 137
60 94 133
59 93 138
59 94 137
60 94 139
60 94 136
61 96 149
59 94 135
60 94 139
60 94 143
60 95 139
60 95 136
59 93 137
59 93 131
60 94 134
60 94 136
60 95 139
60 94 135
60 94 142
60 95 142
59 94 133
58 92 122
61 95 139
60 95 145
60 95 136
60 95 138
59 93 133
60 95 140
60 95 141
62 98 153
60 95 139
60 95 137
61 95 145
61 96 145
60 95 141
60 95 138
60 95 143
60 94 139
60 94 133
59 93 129
60 94 129
59 94 137
61 96 141
60 94 137
58 92 125
60 94 137
59 92 136
60 94 143
60 94 132
61 96 145
60 94 137
60 95 147
59 92 136
60 94 140
59 92 135
58 92 129
61 95 139
61 94 138
58 91 134
60 94 136
59 93 136
60 93 128
60 94 141
59 92 128
59 92 143
58 90 130
55 87 113
59 92 141
60 93 140
57 90 132
60 94 142
58 91 137
56 87 125
57 88 128
55 85 117
53 82 118
56 86 117
56 86 117
51 79 117
53 80 105
47 71 91
79 86 80
82 80 49
60 61 40
61 63 42
59 63 44
52 57 40
49 56 38
51 57 39
55 61 43
61 66 47
67 73 53
60 69 50
81 85 59
72 77 50
78 82 53
80 86 59
87 90 57
90 95 64
105 107 72
95 96 58
110 111 69
111 113 70
103 104 60
113 113 73
112 112 67
128 127 76
119 120 69
130 129 75
122 121 69
129 128 72
121 121 76
127 126 76
131 129 77
133 131 77
140 138 73
139 137 78
144 140 81
140 138 77
135 134 74
146 143 84
151 147 83
150 147 81
143 140 77
148 145 82
155 151 86
159 154 93
157 153 85
156 152 85
148 145 81
160 155 89
163 159 92
157 152 82
165 160 91
156 153 88
153 150 81
159 155 86
153 149 77
160 155 81
164 158 87
164 158 88
163 158 90
165 160 84
163 158 92
164 159 90
163 157 85
161 156 84
164 159 90
165 159 87
162 157 77
166 162 90
167 162 88
164 158 86
164 159 82
169 163 91
172 165 92
168 163 89
168 163 88
166 160 82
170 164 88
172 165 93
168 162 87
174 167 93
170 164 91
170 164 91
170 163 92
165 159 80
168 163 87
171 164 90
168 161 87
170 163 87
175 169 93
167 161 79
171 165 87
171 165 87
165 158 81
168 162 88
171 164 90
170 163 87
165 158 85
166 161 85
171 164 90
169 163 88
168 161 87
167 161 87
170 163 90
165 159 81
168 162 85
169 162 88
169 163 87
172 165 91
164 158 80
170 163 87
165 159 90
166 160 84
158 152 75
167 160 88
166 160 84
166 159 88
165 159 84
167 160 87
165 158 86
162 156 82
166 159 80
168 160 89
163 157 87
163 157 91
165 158 88
160 154 84
160 154 83
157 151 75
162 157 86
164 158 84
161 156 83
166 159 87
163 157 86
159 152 85
162 156 83
156 151 82
162 156 81
152 147 77
162 156 85
160 153 81
158 151 78
156 150 79
152 146 80
142 138 72
160 153 84
156 149 80
164 157 87
186 202 202
184 200 194
187 202 203
186 201 200
187 203 204
187 202 204
186 201 196
185 200 196
184 200 195
186 202 203
188 203 206
186 202 206
185 201 198
187 202 206
186 202 202
186 202 203
185 201 200
185 201 195
186 202 203
187 203 209
183 199 187
188 203 206
185 201 199
182 199 192
186 202 203
185 201 199
187 202 203
188 203 206
187 203 208
187 203 206
184 200 196
185 201 203
187 203 206
189 204 212
185 201 199
184 201 198
186 201 199
184 201 198
184 200 200
186 202 202
186 202 200
185 200 199
189 204 213
184 200 195
187 202 207
184 200 198
188 203 208
185 201 198
187 203 207
184 200 196
185 201 203
190 205 214
185 201 203
188 203 209
188 203 209
183 199 188
188 203 208
185 201 200
185 201 203
188 204 209
185 201 200
186 202 206
184 201 199
186 202 204
185 202 204
186 201 202
186 202 206
187 202 204
184 200 196
186 202 203
188 204 209
187 203 209
189 204 213
189 204 216
190 205 216
184 200 195
187 203 207
188 203 211
189 204 211
189 204 208
185 201 200
186 202 204
189 204 214
186 202 206
187 203 204
182 199 191
186 202 204
187 203 208
188 203 211
187 202 209
185 201 200
186 202 207
185 201 199
186 202 204
188 203 212
186 202 203
187 203 209
188 204 211
186 202 206
186 202 204
187 202 204
186 201 200
185 201 199
185 201 204
184 200 204
184 199 198
181 195 194
178 192 193
173 188 189
175 190 195
166 180 186
167 181 189
162 178 181
152 169 177
155 171 182
151 167 178
145 161 175
139 156 174
115 132 154
96 116 142
99 120 145
88 109 142
58 86 127
51 81 118
52 82 122
51 81 126
49 77 115
49 78 115
48 76 114
46 74 111
49 77 120
45 73 110
45 73 110
48 76 124
46 73 126
44 70 111
42 67 110
44 71 110
39 64 102
39 64 105
38 61 103
35 58 96
34 55 97
30 51 89
28 48 85
47 61 96
92 103 122
125 139 148
104 121 131
49 78 113
55 87 129
55 88 136
57 90 129
56 90 128
57 90 123
57 90 133
57 91 133
58 92 131
58 92 128
58 92 128
59 93 140
59 93 139
56 89 134
56 90 129
59 94 142
60 95 141
58 92 130
59 93 137
60 94 143
60 95 139
59 93 132
60 95 133
60 94 137
59 93 128
60 94 139
60 95 143
60 94 138
60 95 145
60 94 138
59 93 126
60 94 138
60 94 139
59 92 135
59 94 136
59 94 134
58 93 127
61 95 146
60 94 131
58 92 126
59 93 128
60 94 141
60 95 142
59 93 132
61 96 140
60 94 135
61 95 143
59 93 139
61 95 140
59 93 137
59 94 139
61 95 145
60 95 142
60 94 142
60 95 145
61 96 147
61 95 141
59 92 134
60 95 140
59 94 131
60 95 137
59 93 132
60 94 140
60 94 130
60 95 135
60 95 135
60 94 132
60 94 130
61 95 143
58 92 126
59 92 125
59 94 140
59 93 133
60 95 136
59 92 128
60 95 140
58 93 130
59 92 134
59 93 139
60 94 138
60 94 137
59 93 135
59 93 136
59 92 144
58 91 136
60 93 146
58 91 131
57 90 134
58 91 121
58 91 125
57 89 120
59 92 138
55 85 114
58 89 130
57 88 129
56 88 123
56 87 125
57 88 125
55 85 119
54 84 120
49 76 101
50 76 102
60 72 71
86 85 52
64 64 41
49 51 32
49 53 36
42 47 30
49 54 40
46 52 33
48 55 41
55 61 45
64 71 51
59 65 46
72 77 48
73 77 52
87 90 60
88 93 63
82 87 60
94 97 62
94 96 63
95 98 63
92 95 60
102 103 69
112 113 72
122 121 74
122 122 73
125 126 74
126 126 75
119 120 73
122 122 71
136 133 77
134 132 82
129 128 75
129 127 72
144 140 82
143 140 80
146 142 80
138 136 80
153 149 81
145 142 83
144 141 85
142 140 77
146 142 80
148 144 76
155 151 88
152 148 79
149 145 85
153 149 83
149 146 78
149 146 82
154 150 81
155 151 82
153 148 83
166 160 92
163 157 88
161 156 84
162 157 89
158 153 84
158 153 77
160 154 86
160 155 87
164 158 87
164 158 85
163 157 85
163 158 91
164 159 87
166 160 87
168 162 87
162 158 83
169 163 90
167 161 81
168 163 89
166 161 86
172 165 93
171 164 91
168 163 82
171 164 88
168 163 87
165 159 82
172 166 89
169 163 88
169 163 91
172 165 91
169 163 85
170 163 88
169 162 85
169 163 88
171 165 90
169 163 89
172 165 91
172 165 84
171 165 90
170 163 88
170 163 87
172 166 90
168 161 87
172 165 85
169 162 88
167 161 88
168 160 85
167 160 84
167 161 83
171 164 93
173 166 95
170 163 87
163 157 79
165 158 80
167 161 86
168 161 87
168 161 87
161 156 77
165 158 82
164 158 83
167 162 87
165 159 82
158 153 81
164 157 87
166 159 85
168 161 84
164 158 85
157 151 76
158 152 79
165 158 81
164 157 81
160 154 85
166 159 81
158 152 76
157 150 81
166 159 87
164 158 82
154 149 77
162 156 80
162 156 84
158 153 76
157 151 83
158 152 83
161 156 81
166 159 81
160 154 84
158 152 77
158 152 80
165 158 85
158 151 80
156 149 80
152 146 73
153 147 81
154 148 79
156 150 81
157 151 80
163 156 86
184 200 196
186 202 200
184 200 195
186 201 198
184 200 195
184 201 196
183 199 192
183 199 192
187 202 199
185 200 192
187 203 203
184 200 191
184 200 192
186 202 200
187 202 199
184 200 194
181 198 184
183 200 192
186 202 202
186 201 198
188 203 206
187 203 208
184 200 195
185 201 200
186 202 199
186 201 196
183 199 191
186 202 203
182 198 187
186 202 202
184 201 198
186 202 202
184 200 195
185 201 196
185 201 199
185 201 200
184 200 194
185 201 200
185 201 200
185 201 195
184 200 194
185 201 198
184 200 199
186 202 200
186 202 202
185 201 196
187 202 203
187 202 204
187 203 206
186 202 200
183 199 190
189 204 212
186 201 200
186 202 203
184 199 192
186 202 200
187 202 202
183 200 196
185 201 198
186 201 200
186 201 200
184 200 195
186 202 204
182 199 188
184 200 195
184 200 192
186 202 202
187 202 203
185 201 196
185 200 195
185 201 196
188 203 209
185 201 196
185 201 202
184 200 194
187 203 204
185 201 198
184 200 195
186 202 200
182 198 187
181 197 183
185 200 195
184 201 199
185 200 194
185 201 200
186 202 199
185 201 200
187 203 207
185 201 199
184 201 198
186 202 203
185 201 200
180 197 186
184 200 194
185 201 198
184 201 200
186 202 203
185 201 199
187 202 204
184 201 200
182 198 187
184 200 195
184 200 196
185 201 200
184 199 202
182 197 197
173 188 177
179 193 187
176 189 189
175 190 182
165 180 180
152 166 164
153 167 166
154 170 177
138 155 161
139 156 164
125 144 168
123 140 162
108 127 148
106 125 153
96 117 145
89 109 135
57 85 123
52 81 120
52 82 125
50 80 122
48 76 112
50 79 119
48 77 119
48 77 113
46 74 116
47 76 117
46 74 114
45 72 114
46 73 112
45 72 113
44 70 116
43 69 107
37 60 95
40 65 105
37 61 101
31 51 93
36 59 97
26 44 81
30 50 88
43 58 95
102 113 132
121 134 134
111 129 138
51 81 123
53 84 129
54 86 121
55 88 128
56 89 132
56 89 129
57 90 132
55 89 126
57 90 127
57 90 132
58 92 128
59 93 137
57 90 127
58 92 133
59 94 145
57 91 127
57 90 127
60 94 135
60 94 139
59 93 135
60 94 130
59 93 138
58 92 128
61 95 135
60 94 137
60 94 143
60 94 140
59 93 134
59 94 128
60 95 139
61 95 138
60 95 142
60 94 144
58 92 128
60 94 144
60 95 133
60 94 148
60 95 134
60 94 137
61 96 137
61 96 143
59 93 130
60 95 137
61 95 148
60 95 135
60 96 144
60 94 139
59 93 122
59 94 135
59 93 131
62 97 150
61 96 142
60 94 137
60 94 133
61 95 142
60 94 129
60 94 128
59 93 125
61 96 143
59 94 141
60 94 140
59 93 133
60 95 145
60 94 135
60 94 139
61 95 144
59 94 133
60 95 139
59 93 128
59 92 127
60 94 140
58 92 137
60 94 133
61 95 142
59 93 135
60 94 131
59 93 139
59 93 133
59 92 125
58 91 140
58 92 133
60 95 132
58 91 128
59 93 125
60 94 138
58 91 131
57 89 129
57 90 123
57 88 129
57 90 132
58 92 136
57 89 124
57 90 131
57 90 131
55 84 117
57 89 126
56 86 122
52 81 107
52 81 112
51 78 105
55 84 124
49 75 105
69 76 74
68 67 41
62 63 35
44 47 30
54 56 38
42 45 27
46 52 36
45 52 40
42 47 30
59 66 47
67 72 49
54 61 42
82 84 54
73 77 52
75 79 53
73 79 49
76 80 50
96 98 64
96 97 56
103 104 64
107 108 67
110 110 69
108 109 66
116 116 73
122 122 73
111 112 66
122 121 74
116 116 73
121 121 73
130 128 74
128 127 74
127 126 72
132 131 78
140 138 79
143 140 84
133 131 75
133 132 76
150 146 85
150 145 81
137 134 73
145 142 80
150 146 85
146 142 80
151 148 84
158 153 87
157 152 88
159 154 86
157 153 86
158 153 84
157 152 87
161 155 91
149 145 75
156 152 87
163 157 88
160 155 87
162 157 82
161 156 84
162 157 82
165 159 86
161 157 85
163 157 84
165 159 89
166 160 85
164 159 86
168 162 91
164 159 89
165 159 80
165 161 83
168 161 83
170 164 88
169 162 88
166 160 90
170 163 93
170 164 87
168 162 89
170 163 86
165 159 85
168 162 85
173 166 93
171 164 90
168 161 87
169 162 82
170 164 91
167 161 84
171 164 86
170 163 87
169 162 85
169 163 84
168 162 83
173 166 88
167 161 84
169 162 86
168 162 87
170 163 86
167 160 82
165 159 86
169 162 86
166 160 89
170 163 88
161 156 75
175 168 94
171 164 86
167 160 83
166 160 85
171 164 90
164 159 80
164 158 80
169 163 85
168 161 84
164 158 79
163 158 80
168 161 84
168 162 85
163 157 88
168 162 88
162 156 82
162 156 80
165 158 84
163 157 86
167 160 82
169 162 90
164 158 84
160 154 77
164 157 86
159 152 83
162 156 75
159 154 79
167 159 85
160 154 78
162 156 79
157 151 77
158 152 77
163 156 84
161 155 83
162 155 79
162 155 80
154 148 81
159 153 84
156 150 81
163 156 88
156 150 74
156 150 81
156 152 76
156 149 80
155 150 84
156 151 83
156 150 80
163 157 82
159 153 84
185 200 191
185 201 194
184 200 192
181 198 183
183 199 187
184 200 191
182 198 181
185 200 195
186 202 200
187 202 203
187 202 200
183 198 181
185 200 192
182 199 186
184 199 188
183 199 187
185 201 198
186 202 203
185 201 198
187 202 203
183 199 191
182 198 183
183 199 186
183 199 188
183 199 191
183 199 190
181 197 180
184 200 194
184 200 191
185 201 194
182 198 183
185 201 194
185 201 196
183 199 188
186 202 199
183 199 190
184 200 192
186 202 202
186 202 202
188 203 206
183 199 191
184 200 194
181 198 183
186 202 199
185 201 196
184 200 192
183 199 191
184 200 192
185 200 194
184 200 191
181 198 186
183 199 188
184 199 188
185 200 194
182 198 187
186 202 202
183 199 191
185 201 196
182 199 187
185 200 194
186 202 199
181 197 181
183 199 187
182 198 188
183 199 191
183 200 192
186 201 200
183 199 191
184 200 195
182 198 183
186 202 199
183 199 187
183 199 194
183 199 194
184 200 191
179 196 180
186 201 195
183 199 194
184 200 195
184 200 195
185 201 196
183 199 190
184 200 195
184 200 191
185 201 198
185 201 196
186 202 200
187 202 203
181 197 183
182 198 192
184 200 194
179 196 178
182 198 187
183 199 188
185 200 192
183 199 188
179 196 183
185 201 196
181 197 184
184 200 196
185 201 198
183 199 191
184 200 198
181 197 189
180 196 189
178 193 186
179 194 181
176 190 176
174 188 177
166 181 170
167 183 177
161 175 171
147 162 156
155 170 164
141 157 156
133 149 152
139 157 167
121 138 154
124 142 158
111 129 148
95 116 135
77 101 125
52 82 123
50 79 106
51 81 118
49 77 112
51 81 127
49 78 118
49 78 115
49 77 116
47 75 112
47 75 114
43 69 110
44 71 106
44 71 108
43 69 111
44 71 111
41 66 104
40 65 101
39 63 96
37 60 97
35 56 86
34 55 90
29 48 77
27 45 72
51 65 92
91 102 116
124 137 131
105 123 132
50 80 114
54 86 127
55 88 128
56 88 138
55 88 133
55 87 118
55 88 124
56 89 126
57 90 129
57 90 121
59 93 135
60 93 138
59 93 138
61 96 149
59 92 142
59 93 137
59 93 135
59 93 133
58 91 126
59 94 132
61 95 144
61 95 140
59 93 135
59 93 131
59 93 133
59 94 134
58 92 127
59 93 126
60 94 126
60 95 140
59 93 128
59 94 126
57 90 126
61 96 141
60 94 135
60 95 126
59 94 136
58 92 128
59 93 132
61 96 141
60 94 130
61 95 139
59 93 130
60 94 136
61 96 141
59 93 126
60 95 136
59 94 133
60 95 137
60 95 141
61 96 147
60 94 135
59 94 134
60 94 133
60 94 139
58 92 129
61 95 141
59 93 130
60 94 129
60 95 137
59 93 136
60 94 129
58 92 131
60 94 133
61 96 143
60 95 139
59 92 127
59 92 133
58 91 115
59 92 127
58 91 128
59 92 130
59 92 135
60 94 137
59 93 140
60 94 134
60 93 142
60 94 142
60 94 139
60 95 151
58 91 127
60 93 133
58 91 129
60 94 131
59 92 135
57 88 131
58 91 132
58 90 132
59 92 134
56 88 119
57 89 133
58 91 136
57 89 131
56 88 125
56 88 121
55 84 118
56 87 124
56 86 123
55 84 122
54 84 119
52 80 109
51 77 99
69 78 67
65 65 37
49 50 27
45 48 30
45 50 33
47 51 34
41 47 31
55 60 42
49 56 42
50 58 39
54 63 46
64 69 47
76 80 51
68 74 48
66 71 46
70 78 50
77 81 52
87 90 55
85 89 54
97 98 57
103 104 56
104 105 60
106 106 63
115 116 71
106 108 64
114 115 64
121 120 72
117 117 68
111 113 65
130 129 76
136 133 76
132 131 73
132 131 74
138 136 76
128 129 72
138 136 78
140 138 77
141 138 75
135 134 74
147 143 76
145 142 79
143 140 80
147 143 74
153 149 84
140 138 82
157 152 82
153 149 81
152 149 77
153 150 83
155 151 82
158 153 84
163 158 88
154 149 82
161 156 80
161 155 83
156 151 79
159 154 86
160 155 82
155 151 74
159 154 83
165 160 81
169 162 84
167 161 87
163 158 79
163 158 84
168 161 91
165 159 82
168 162 85
170 163 91
167 162 82
166 159 90
167 162 89
172 165 90
167 161 86
169 164 86
168 161 87
170 164 87
165 159 82
166 160 81
166 160 84
168 162 86
172 165 89
169 162 83
168 162 86
168 161 87
165 160 85
170 164 85
171 164 85
173 166 92
171 165 90
169 163 83
170 164 86
165 158 81
167 161 86
170 164 87
172 165 87
165 159 85
169 163 90
167 160 84
167 160 85
167 161 87
168 162 88
169 163 86
168 162 84
164 158 83
170 163 87
164 158 80
171 164 89
166 160 84
160 154 77
167 161 85
166 159 84
163 157 82
166 159 84
167 160 84
167 160 88
166 159 84
167 160 90
164 158 86
160 153 81
160 154 78
163 156 85
165 159 80
163 158 83
168 162 87
159 153 80
163 156 84
159 154 78
159 152 76
165 157 82
163 156 90
165 159 85
160 154 80
156 150 79
163 157 84
164 157 84
159 154 74
160 154 81
155 149 75
165 159 86
159 153 83
156 149 78
156 149 77
157 150 79
152 147 71
156 151 79
153 146 75
151 145 75
156 150 80
179 196 172
180 197 178
185 200 196
185 200 195
187 202 200
183 199 187
185 200 192
183 198 187
187 202 200
181 198 186
180 197 181
185 201 199
183 199 188
184 200 190
187 202 199
182 199 186
181 198 183
186 201 196
182 198 186
186 201 195
185 200 195
182 198 186
185 201 196
181 197 181
183 199 186
181 198 181
184 200 192
186 202 203
184 200 194
182 198 183
185 201 195
184 200 192
182 199 190
182 199 190
182 198 183
184 200 191
183 199 191
181 197 183
183 199 186
183 199 188
186 202 200
183 200 191
182 198 186
184 200 190
182 198 181
181 197 181
182 199 187
184 200 194
180 197 178
184 200 194
185 201 196
183 199 186
183 199 184
181 198 183
182 198 186
180 197 186
181 197 180
182 199 188
181 197 184
184 199 188
183 199 187
179 196 175
180 196 177
185 200 192
183 199 186
181 198 181
181 197 184
182 198 184
184 200 195
178 196 174
178 195 166
183 199 187
181 197 178
182 198 181
182 198 186
185 201 196
184 200 192
182 198 184
184 200 192
183 199 188
185 200 195
180 197 183
181 197 181
180 196 178
184 200 194
180 197 180
181 197 180
182 198 184
183 199 190
180 197 177
182 198 186
181 198 186
181 197 181
183 199 190
179 196 175
180 196 180
181 197 181
181 197 183
178 195 177
187 202 198
180 196 177
182 197 188
181 197 183
182 198 186
178 195 177
179 193 181
177 191 174
178 192 180
175 190 173
167 182 169
161 177 168
162 179 166
155 169 161
143 159 153
142 159 152
141 157 158
109 127 134
129 146 143
118 136 156
101 119 145
91 113 130
79 101 127
57 85 122
51 81 123
51 81 121
48 77 106
48 76 112
49 77 116
48 76 112
47 76 110
50 79 119
47 75 115
46 72 110
46 73 109
39 62 82
45 72 108
41 66 101
38 62 96
37 61 93
35 57 90
38 61 98
30 49 83
31 52 89
29 48 77
27 45 71
43 57 85
82 93 98
118 131 135
111 128 140
48 77 117
54 86 128
56 88 128
55 88 121
56 90 136
57 90 139
58 92 134
57 90 134
57 89 133
57 91 128
58 92 136
57 89 121
58 91 128
58 92 130
58 92 127
60 94 139
59 93 137
58 92 130
59 94 131
59 93 133
58 92 135
60 95 142
59 93 131
61 96 145
60 95 136
60 94 134
60 95 140
59 93 132
58 92 129
60 95 139
61 96 140
59 94 139
61 96 135
59 93 137
59 94 133
60 95 143
60 95 139
60 94 136
60 95 142
60 94 136
60 94 134
60 94 134
59 94 131
59 93 135
61 95 140
60 94 136
61 96 143
60 94 136
59 93 133
60 95 140
59 94 130
59 94 134
59 93 127
60 94 137
61 96 146
59 93 134
60 95 140
60 94 139
59 94 132
60 95 140
59 92 130
60 94 134
60 94 133
59 94 137
59 92 141
59 93 130
60 94 133
60 94 134
60 95 141
59 93 128
60 94 135
60 94 135
59 93 135
57 90 128
60 94 134
59 93 141
59 92 135
59 92 130
58 91 130
59 93 131
58 91 130
59 92 132
58 91 127
59 93 126
59 93 130
58 91 131
58 91 122
58 91 130
58 90 130
58 90 122
56 88 124
57 89 120
55 86 114
56 88 126
57 89 125
56 88 124
55 85 119
53 80 117
52 80 105
53 82 120
50 77 98
47 72 90
73 82 81
59 59 27
63 63 37
48 50 29
37 40 22
42 46 28
56 60 38
48 54 36
56 61 40
50 58 41
55 61 39
54 60 37
75 80 51
67 72 44
78 83 50
83 86 53
85 88 56
81 84 53
91 93 59
95 97 55
99 100 62
117 117 68
100 102 63
95 98 56
111 111 63
112 112 63
119 119 68
113 113 67
126 125 72
128 127 74
121 120 64
133 131 73
129 127 70
132 129 70
139 136 76
130 129 70
132 131 72
142 139 72
153 149 81
139 137 73
146 143 76
147 144 74
153 148 85
146 142 73
153 149 82
146 142 78
146 143 74
158 153 81
156 152 81
156 152 83
148 145 73
157 152 90
162 156 87
154 149 73
154 150 83
155 151 77
153 149 81
162 156 83
162 157 82
163 158 88
160 154 80
160 155 78
163 157 79
164 158 84
169 163 90
162 157 82
164 159 83
164 159 84
162 156 81
165 159 85
169 162 87
162 157 83
172 166 89
170 163 91
165 159 82
169 163 84
169 162 86
166 160 82
166 160 77
166 160 77
168 161 85
169 162 86
171 164 91
166 160 80
169 163 86
167 161 81
169 162 84
166 160 85
168 162 86
169 163 80
168 162 85
167 162 80
172 166 90
166 160 75
168 162 86
171 165 87
170 164 87
170 164 87
168 161 81
168 161 87
168 161 84
165 159 81
169 163 87
169 161 84
166 160 90
170 163 90
166 160 83
164 156 80
162 156 78
166 160 79
167 160 83
165 159 85
160 155 80
166 159 84
164 158 85
161 156 76
165 159 84
161 154 79
163 157 81
155 150 80
173 166 94
160 155 78
166 159 83
164 158 79
157 151 78
162 155 80
165 159 81
163 157 82
167 160 85
159 153 78
159 154 80
159 153 76
158 152 79
159 152 83
159 152 83
156 150 78
157 151 80
162 156 82
159 153 80
161 154 79
154 148 73
162 155 84
157 152 76
161 155 75
159 153 84
156 149 76
159 153 81
154 148 72
152 147 76
178 194 166
188 203 202
181 197 180
182 198 187
185 200 194
182 198 184
184 199 187
179 196 177
184 200 194
181 197 178
184 200 191
181 197 178
180 196 175
185 201 198
183 199 186
183 199 190
182 198 186
183 199 187
180 196 175
181 197 180
181 197 178
183 199 190
182 198 183
183 199 188
180 196 174
178 195 172
180 197 178
183 199 183
184 200 192
183 199 188
178 195 171
183 199 191
181 197 180
184 200 190
182 198 186
185 200 191
181 197 180
179 195 171
182 198 186
179 196 171
182 198 181
178 195 175
184 199 190
183 198 188
182 198 181
180 197 181
181 197 181
179 195 178
181 198 180
182 198 184
182 198 184
184 200 192
181 198 184
183 198 183
180 197 177
179 195 172
184 200 190
181 197 180
180 196 181
182 198 186
179 196 177
177 194 166
183 199 186
178 195 169
183 199 187
182 198 183
182 198 184
181 198 184
180 197 180
181 197 183
182 198 180
180 196 175
181 197 178
183 199 187
182 198 180
179 196 174
183 199 190
179 195 175
182 198 187
175 192 163
180 196 178
180 196 177
179 196 175
183 199 190
181 198 181
176 193 165
182 198 187
181 197 178
177 194 172
183 199 187
179 195 174
180 196 175
180 196 180
180 196 183
181 197 184
181 197 181
181 197 186
182 198 183
177 193 168
183 199 192
182 198 187
182 197 191
183 199 188
180 196 180
180 196 182
168 184 155
173 188 160
175 187 174
166 180 158
167 180 171
165 179 159
155 170 154
144 161 154
149 165 156
135 150 149
132 148 138
121 138 151
115 132 131
119 135 144
109 128 140
99 119 134
73 96 117
61 88 120
51 81 123
50 79 109
48 76 102
49 78 115
50 80 118
45 72 104
47 75 109
45 71 105
44 70 104
42 68 96
43 69 101
45 72 107
44 71 99
37 60 87
42 68 98
35 58 91
36 59 95
35 57 80
34 55 84
33 54 84
25 41 70
23 40 69
23 39 65
91 101 108
123 137 134
113 129 127
47 76 108
50 80 119
55 87 119
54 86 123
55 87 122
56 88 130
55 88 122
57 90 136
56 89 127
58 91 129
57 90 123
60 94 137
58 92 132
59 93 136
59 93 137
60 94 142
59 93 136
59 92 128
59 93 124
57 90 128
59 94 135
58 92 131
58 92 130
57 90 125
59 93 131
61 95 139
60 95 144
60 94 141
59 93 142
59 93 132
60 94 134
60 94 134
58 92 135
59 93 135
60 94 137
59 94 130
59 93 127
61 96 141
60 96 136
61 96 138
60 95 130
59 94 130
60 95 136
59 94 129
59 93 129
60 94 132
58 92 134
60 95 134
58 92 130
59 94 134
59 94 137
60 94 133
59 93 134
61 95 143
60 94 134
59 94 133
58 92 128
59 94 130
61 95 142
60 94 136
60 94 135
60 94 131
58 92 130
59 93 137
59 93 126
58 93 132
60 95 142
59 93 136
60 94 133
60 93 140
58 92 134
58 91 126
58 92 132
59 93 133
58 92 119
58 92 133
60 93 142
59 92 141
58 91 127
59 92 135
60 93 131
58 91 123
60 94 133
58 91 124
57 90 125
57 89 123
59 92 132
57 89 126
57 89 125
59 92 138
57 88 121
58 90 124
54 85 117
57 89 123
55 86 124
56 87 127
56 87 120
55 85 110
52 81 108
54 83 117
52 79 114
47 72 100
46 59 59
47 48 26
62 62 36
47 48 29
42 45 22
46 50 30
35 40 23
40 48 31
37 45 30
59 65 33
53 61 35
58 65 43
73 76 43
59 66 43
67 73 43
84 88 53
67 72 45
85 88 52
79 84 55
102 102 61
109 109 64
106 108 66
112 112 60
104 105 56
116 116 66
114 115 67
116 116 69
118 117 64
116 115 65
133 130 76
139 136 74
126 125 66
128 126 67
140 137 75
138 135 71
136 134 78
133 131 66
132 129 68
147 143 75
142 139 75
143 141 71
140 137 72
146 143 77
146 142 73
152 147 77
152 147 74
146 143 80
157 152 80
149 145 72
156 151 79
149 145 80
155 151 86
162 156 88
157 151 77
155 150 80
156 152 76
160 154 79
161 156 83
153 150 78
164 158 88
164 158 80
163 158 82
161 157 79
164 158 83
164 158 83
163 158 88
166 160 79
163 157 80
168 162 86
164 158 77
166 161 83
163 158 85
167 161 87
167 161 82
166 160 82
167 162 85
171 165 87
165 159 82
170 163 86
167 161 84
166 158 78
162 157 84
169 162 85
169 162 89
170 164 84
170 164 89
168 162 83
165 159 79
170 164 85
167 161 86
166 159 80
169 163 83
170 164 87
171 164 83
165 159 78
172 165 84
168 161 87
168 161 81
164 158 79
162 156 74
162 156 75
165 159 85
171 164 84
163 157 84
168 162 87
169 162 90
167 160 81
164 157 80
168 162 86
166 159 80
165 158 74
165 158 80
164 158 78
163 156 79
163 157 74
155 150 73
165 160 84
167 161 80
167 160 85
170 162 87
169 162 79
164 158 81
166 159 82
163 157 80
165 157 79
163 157 85
163 157 81
164 157 81
159 152 83
162 156 77
163 157 77
160 155 79
154 148 72
166 159 84
155 149 75
153 147 76
162 156 75
159 153 82
157 151 82
157 150 76
156 151 74
159 152 80
155 148 79
148 142 75
148 142 69
157 152 72
157 150 80
164 158 82
155 148 77
183 199 184
182 198 183
187 202 200
180 197 177
179 195 171
185 201 196
179 196 174
181 198 183
181 197 174
184 199 186
182 198 183
181 197 180
182 198 183
182 198 183
183 199 187
181 197 178
181 197 175
181 197 180
178 195 169
182 198 181
184 200 187
180 197 175
184 200 192
183 199 183
181 197 180
179 195 174
182 198 181
180 196 174
181 197 180
182 198 181
184 199 186
183 198 186
185 200 192
178 195 168
182 198 180
181 197 184
181 197 178
179 196 171
182 198 183
183 199 184
178 195 168
182 198 183
180 197 175
182 198 184
183 199 187
182 198 180
179 196 174
179 196 166
178 194 171
178 195 169
181 197 181
178 195 172
180 196 174
182 198 178
181 197 177
181 197 172
182 198 186
180 197 177
180 196 174
181 197 177
181 197 181
180 197 175
177 194 168
181 197 183
178 195 171
183 199 187
182 198 183
177 194 166
179 196 174
176 193 165
176 193 163
178 195 172
178 195 172
177 194 165
179 196 172
184 199 191
180 197 177
177 194 163
181 197 177
183 199 188
179 195 168
181 198 180
180 196 169
177 193 165
181 196 181
178 195 168
182 197 183
180 196 172
178 195 169
176 193 168
178 195 171
181 197 177
176 193 163
176 192 165
179 196 172
179 195 178
176 193 161
181 197 181
180 195 174
180 196 181
177 194 171
173 190 158
183 198 184
181 197 181
177 193 168
174 188 172
177 192 171
176 190 172
160 175 141
164 179 160
158 172 144
145 161 131
150 165 141
144 160 147
137 153 143
129 146 128
128 144 130
120 136 132
111 129 136
93 112 125
98 118 133
87 107 115
59 86 110
52 81 120
50 80 120
47 75 105
49 78 110
47 75 105
47 74 110
46 73 104
45 71 105
47 75 108
43 68 93
46 73 110
45 72 102
39 63 90
41 65 94
40 64 96
39 63 99
36 57 81
35 57 93
33 53 82
30 48 64
27 44 66
25 42 66
50 62 80
96 108 97
121 134 128
106 122 118
51 82 123
50 80 115
54 86 123
56 89 128
55 88 123
54 85 119
55 88 126
58 92 138
58 92 135
56 88 120
59 93 136
59 94 141
58 91 131
58 91 132
57 90 128
58 91 136
58 91 129
59 93 132
58 93 127
58 92 128
59 92 135
60 94 139
59 93 130
61 95 140
59 93 132
60 94 130
60 95 135
59 93 136
58 92 128
59 94 132
60 95 135
60 95 138
60 95 131
59 93 125
59 93 132
60 95 135
59 94 134
59 94 141
61 96 142
57 91 118
59 93 133
58 92 128
60 95 137
60 95 138
59 93 135
60 94 140
60 94 133
60 95 138
60 94 135
59 94 133
60 95 136
59 93 133
59 92 129
60 94 131
59 93 128
57 90 124
59 93 141
61 96 135
60 94 138
59 93 126
59 94 134
59 93 131
60 94 142
58 92 129
59 93 134
59 92 136
60 95 139
58 92 125
57 90 126
59 93 144
56 88 117
60 95 145
58 91 124
59 92 128
59 92 130
59 93 131
59 93 137
58 92 125
58 92 129
60 94 145
58 92 123
59 93 133
58 91 132
57 89 120
58 90 125
59 93 138
58 90 126
59 93 132
56 88 108
56 88 129
56 88 112
57 88 122
56 88 123
55 86 121
54 84 121
56 88 127
54 83 104
55 85 115
54 84 116
53 81 115
51 78 105
48 73 90
54 66 62
71 71 38
62 62 34
52 54 31
39 44 27
48 51 20
52 57 34
48 53 27
52 58 37
54 60 34
60 65 37
59 65 39
70 73 44
57 62 37
63 70 43
89 90 48
79 82 43
90 93 59
87 90 57
89 90 48
86 90 55
99 101 59
102 103 58
116 115 63
125 124 69
106 106 62
123 122 67
126 125 68
119 119 66
125 124 70
132 130 74
126 125 68
133 132 75
125 124 67
140 138 71
134 132 71
134 131 69
133 131 68
142 139 73
134 131 67
143 140 79
140 137 68
150 146 83
141 137 72
144 140 70
146 142 78
156 151 81
148 144 76
149 145 72
157 153 81
156 151 73
160 155 80
148 145 77
164 158 87
159 153 81
159 154 83
157 152 76
155 150 76
164 158 83
157 153 77
167 161 88
163 158 79
159 153 79
163 158 82
160 156 79
167 161 83
166 160 85
162 156 84
167 160 78
166 159 80
162 157 82
161 156 75
169 163 89
165 159 82
161 156 82
167 160 77
165 159 80
168 161 84
169 161 87
168 161 79
163 158 74
166 160 80
164 158 78
169 163 85
168 162 79
165 158 83
167 161 83
162 156 80
169 162 84
160 155 73
168 160 87
172 165 87
170 163 85
171 164 87
171 164 87
168 161 75
168 161 84
168 161 84
169 162 87
164 158 80
166 159 84
167 160 80
165 159 79
164 159 81
170 163 83
162 156 75
163 157 81
169 161 82
163 159 86
167 162 84
160 154 78
167 162 80
164 158 80
165 159 85
163 157 76
165 159 80
163 156 83
161 155 75
161 156 74
162 156 80
164 157 83
161 156 75
166 159 81
163 156 81
162 155 80
159 153 80
161 156 75
164 158 81
157 151 82
165 158 84
161 154 81
160 154 84
165 158 90
157 151 86
161 155 79
166 160 84
159 153 78
163 155 84
156 150 79
162 155 84
159 153 80
157 151 82
157 151 80
158 151 80
158 153 71
140 134 65
154 149 79
154 148 72
154 148 76
180 197 180
177 194 163
176 193 160
180 196 171
184 200 188
182 198 181
180 196 175
177 194 168
182 198 181
178 195 169
179 195 169
178 195 166
182 198 186
178 195 163
181 197 178
178 195 166
179 196 172
181 197 178
181 198 180
178 195 169
177 194 165
182 198 183
181 198 180
181 197 175
180 197 177
181 197 175
179 195 172
181 197 177
182 197 181
182 198 183
180 196 175
182 198 184
182 198 183
179 195 171
177 194 171
179 195 169
175 192 151
175 192 160
183 199 184
179 196 172
177 194 166
178 195 169
181 197 178
181 197 175
179 195 171
179 195 171
180 197 175
177 194 163
178 194 165
181 197 178
178 194 163
182 198 181
182 198 180
182 197 184
180 196 172
183 199 184
180 196 175
176 193 158
174 191 150
177 194 165
178 195 169
178 195 168
175 192 156
173 191 150
180 196 174
183 199 184
176 193 156
174 192 155
176 193 166
180 196 177
175 192 160
180 196 174
181 197 177
178 194 168
179 195 168
177 194 166
177 194 165
174 191 153
181 197 181
174 191 155
180 196 175
178 194 169
169 187 137
180 196 175
176 193 160
179 195 168
181 196 183
175 192 156
175 192 156
175 192 160
175 192 161
174 191 158
175 192 161
179 196 169
177 192 166
174 190 151
175 191 155
179 195 178
175 192 158
177 194 169
175 192 160
171 188 148
174 191 155
175 191 163
170 187 146
170 184 153
171 185 149
168 182 146
165 179 147
161 174 155
159 172 149
144 160 123
142 157 134
146 161 145
135 150 127
133 149 131
132 149 136
109 127 133
116 133 131
90 110 111
76 97 111
63 89 108
65 89 106
51 81 116
48 76 98
47 75 101
48 76 111
48 76 101
46 74 102
48 76 110
47 75 102
46 74 105
45 71 106
42 68 94
44 70 97
43 68 98
40 64 99
39 63 96
36 58 82
36 59 85
36 58 83
30 49 63
31 51 75
28 47 72
26 43 66
62 71 80
103 116 109
114 128 111
109 125 115
48 77 113
54 85 120
54 86 121
54 86 112
54 87 119
54 86 120
56 89 128
56 89 133
57 90 123
59 92 140
56 90 131
58 91 121
58 91 127
57 90 125
58 92 122
57 91 131
58 92 133
59 93 133
58 92 131
58 91 129
59 92 134
58 92 126
59 93 132
58 91 130
60 95 144
59 93 125
60 95 131
60 94 136
57 90 121
60 95 135
59 93 128
60 95 135
58 92 124
60 94 137
58 93 132
59 93 140
59 93 134
59 92 133
59 94 131
59 93 129
59 94 136
59 93 135
59 93 127
59 94 132
59 94 134
59 93 134
60 94 131
60 94 129
59 93 133
60 95 139
58 92 129
58 92 114
60 94 141
59 93 129
60 95 134
60 94 133
60 94 131
61 96 137
59 93 134
57 91 118
58 92 135
59 93 124
60 93 124
60 95 136
59 93 133
58 91 125
59 93 129
58 91 119
59 93 134
59 94 123
60 94 131
59 92 125
58 92 129
59 93 133
58 93 122
60 93 134
58 91 130
57 90 123
57 89 122
57 90 130
59 91 133
59 92 130
58 91 127
59 91 128
58 91 131
55 87 117
58 92 127
55 88 119
59 91 128
57 89 130
57 89 123
57 88 121
57 89 120
58 90 125
54 84 116
55 86 117
53 81 104
55 85 112
51 78 106
50 77 107
50 77 104
50 76 89
58 69 69
53 53 27
64 62 34
44 48 20
35 40 23
35 42 29
36 41 21
27 35 23
48 52 27
48 54 34
52 60 35
55 62 37
62 67 42
75 79 47
70 73 47
89 92 48
85 88 53
83 86 46
86 90 55
89 92 52
101 103 59
94 96 49
112 111 62
102 102 63
105 106 61
113 113 63
113 114 65
114 114 62
127 126 69
126 124 69
116 116 66
130 128 74
136 132 70
136 133 75
125 123 64
132 130 72
134 132 68
139 136 69
141 138 71
143 140 78
138 136 72
138 135 73
146 142 74
139 137 73
145 141 75
146 142 71
154 149 78
150 145 75
153 148 76
149 146 74
152 147 78
156 151 80
154 150 83
155 150 80
150 146 69
163 158 79
157 152 75
157 153 81
162 157 84
158 152 78
161 155 80
153 149 69
161 156 74
156 151 77
164 158 84
167 160 87
167 162 82
164 159 75
163 156 80
165 158 80
162 156 75
169 162 84
165 158 79
164 158 78
163 157 79
168 162 82
171 163 81
166 160 78
167 161 80
170 163 83
168 162 85
169 162 87
170 162 79
167 161 77
168 162 87
163 155 77
171 164 89
166 160 80
168 162 83
167 161 81
171 164 87
164 160 79
165 158 79
168 162 87
164 159 81
170 162 81
163 157 77
169 163 83
165 158 77
172 165 85
167 160 84
162 156 78
163 156 81
169 162 87
160 155 72
164 158 78
164 158 81
162 157 78
164 157 82
165 159 81
167 161 84
167 161 80
160 153 79
164 158 79
163 157 74
164 158 87
159 153 72
168 161 76
162 156 80
156 151 75
160 153 79
159 154 74
163 157 85
164 157 82
158 153 75
160 154 72
165 159 80
158 153 84
163 157 81
162 156 79
165 158 80
165 159 75
163 156 84
157 151 76
160 153 77
166 159 85
160 153 79
162 156 79
159 152 76
159 152 77
155 149 75
162 155 80
157 151 75
156 151 70
163 156 81
162 155 85
155 149 73
158 152 84
146 140 69
181 197 175
181 197 175
180 196 175
178 194 165
183 199 184
180 196 171
179 195 166
175 192 156
181 197 177
178 195 168
177 194 163
177 194 166
177 194 161
181 197 178
181 197 177
180 196 174
182 198 178
182 198 181
178 195 165
180 196 174
177 193 171
177 194 163
181 197 177
177 194 165
175 192 156
183 198 181
178 195 166
180 196 169
181 197 175
176 193 161
174 191 146
181 197 174
179 196 174
174 192 151
174 192 158
179 195 171
177 194 165
179 195 171
179 195 169
178 195 168
177 194 169
180 196 175
180 196 172
183 198 181
174 191 150
176 192 156
177 193 158
180 197 175
176 193 158
177 194 158
180 196 174
176 193 161
177 194 163
175 192 156
175 192 160
176 193 155
180 196 177
180 196 169
176 193 158
176 192 156
175 192 151
174 191 146
180 196 174
177 194 161
173 190 146
178 194 165
176 192 156
178 194 161
175 192 156
177 194 166
178 194 168
175 192 155
174 191 150
172 189 148
176 193 163
177 193 166
176 193 156
177 193 163
177 194 163
174 191 155
172 190 148
173 190 155
181 196 168
175 192 158
178 195 166
175 192 150
178 194 166
174 191 155
177 193 161
174 191 148
174 191 156
177 194 161
179 195 172
176 192 160
174 191 153
168 186 139
175 191 160
176 193 160
174 190 158
172 190 151
174 191 156
171 188 148
172 189 160
177 193 161
169 185 148
168 184 148
169 185 152
165 179 141
162 175 133
155 170 138
144 160 121
147 163 138
140 155 135
143 159 128
132 148 127
136 152 126
126 142 123
120 138 124
108 125 121
95 115 102
89 109 102
74 96 92
64 89 101
51 80 107
49 78 105
47 76 99
50 79 115
45 73 88
45 72 93
46 73 101
45 72 102
46 73 102
46 73 101
43 69 94
40 64 84
43 69 99
38 61 89
37 60 90
37 59 71
37 59 83
34 55 79
34 54 81
31 51 73
28 47 63
26 43 61
31 48 70
96 110 90
126 140 131
116 132 124
51 82 116
51 82 119
54 85 122
54 86 122
55 87 127
55 87 124
56 89 127
55 87 118
58 91 130
57 90 124
57 90 122
56 90 125
58 92 123
57 90 124
58 92 125
58 92 133
60 94 140
58 91 119
57 91 121
58 93 131
58 92 135
59 94 134
60 95 138
58 91 121
59 93 122
59 93 130
58 91 123
58 92 121
60 94 130
58 92 126
61 95 142
59 94 134
58 92 121
60 94 122
59 93 123
60 95 132
59 92 129
58 92 123
61 96 137
60 94 138
60 94 142
60 95 142
59 93 126
60 94 131
59 93 126
60 95 139
60 93 136
59 92 118
59 93 134
60 94 139
60 95 129
58 92 130
58 92 128
59 93 131
59 93 130
60 95 137
59 94 135
59 93 129
60 94 136
60 94 140
59 93 133
58 91 126
59 93 129
58 92 133
58 92 123
59 94 141
59 92 130
60 94 132
59 93 133
61 96 143
58 92 131
59 93 137
58 91 128
56 88 114
59 93 130
58 91 121
58 92 125
59 93 134
58 91 129
57 89 120
58 91 128
58 91 132
57 90 127
59 93 134
59 93 142
58 91 134
58 90 123
56 89 111
57 90 130
57 88 127
56 88 125
59 92 130
57 88 115
54 85 117
55 86 112
55 85 111
55 86 115
52 80 112
52 80 109
52 79 110
52 78 109
48 73 94
65 72 60
57 57 21
59 59 31
49 51 28
47 49 20
46 48 18
42 49 26
36 41 24
49 54 26
45 52 30
61 64 30
48 53 30
59 64 34
65 69 42
73 78 41
74 78 44
87 89 54
98 100 52
82 84 46
83 86 45
97 99 55
93 96 58
114 114 65
108 107 62
101 103 59
119 118 66
111 112 61
116 116 64
134 131 71
118 116 65
127 127 65
132 128 69
122 119 63
132 130 66
137 135 72
129 127 69
133 130 66
138 135 71
146 143 73
143 140 76
148 143 78
144 141 79
147 143 78
144 141 71
147 143 74
149 144 72
148 144 70
154 150 82
143 139 69
149 145 75
153 148 76
161 154 84
156 151 79
157 152 78
155 150 74
153 148 76
165 159 84
158 153 72
162 157 78
158 153 75
156 151 80
153 149 66
159 153 79
165 159 80
166 159 82
156 151 71
162 156 76
163 157 82
160 154 74
160 155 78
161 155 80
168 161 82
162 157 77
165 159 78
160 154 79
165 159 81
165 159 78
166 159 82
163 158 74
170 164 84
165 159 82
168 161 84
170 163 85
171 164 80
165 159 75
164 158 76
169 162 85
163 158 73
167 161 80
166 159 81
167 161 79
167 161 84
165 159 76
167 161 80
163 158 79
167 161 81
166 160 83
167 161 76
167 161 84
166 159 82
171 163 85
165 158 79
167 160 85
163 157 81
160 153 74
167 160 84
167 160 82
163 157 72
164 158 81
164 158 76
165 158 79
161 155 78
166 160 84
162 156 80
166 160 82
161 155 77
166 160 79
162 156 75
164 157 79
162 156 79
158 152 70
161 154 75
167 160 83
163 156 83
161 154 79
159 152 74
163 157 80
154 148 66
158 152 73
167 161 87
156 149 73
157 151 76
156 151 73
157 149 77
165 158 80
160 154 77
162 155 83
157 151 75
157 151 79
159 154 73
160 153 77
162 155 73
150 145 66
159 153 76
157 149 77
153 148 79
148 142 69
155 149 75
158 152 80
179 195 166
178 195 166
179 196 172
178 194 168
179 195 171
175 192 153
176 193 161
179 196 171
179 195 169
175 193 158
176 193 160
178 195 168
177 194 163
174 191 144
180 196 174
178 194 163
177 194 160
176 193 160
176 193 155
176 193 161
179 196 172
182 198 177
179 195 168
175 192 158
176 193 160
180 196 169
176 193 160
175 192 150
177 194 158
178 194 168
175 192 158
178 194 165
177 194 160
180 196 174
176 193 158
179 195 168
177 193 156
174 191 158
178 195 163
176 193 158
172 190 146
177 194 163
174 191 148
174 192 148
178 195 165
178 195 166
175 192 155
171 188 141
177 194 163
178 194 166
176 193 156
174 192 156
175 192 150
170 188 133
176 193 160
174 191 155
177 193 160
177 194 163
179 195 169
179 195 168
172 190 144
171 189 139
176 193 163
178 194 168
176 193 163
178 194 161
174 192 150
175 192 151
174 191 150
173 190 148
172 190 142
175 192 155
175 192 158
174 191 150
177 193 165
172 189 142
175 192 160
173 190 151
172 188 155
176 193 156
172 188 144
173 190 150
169 188 131
171 188 142
167 186 127
172 189 142
171 188 142
177 193 160
172 189 144
172 189 141
175 191 153
167 185 131
175 191 163
169 186 137
170 187 137
171 187 150
173 190 148
175 191 156
169 187 137
166 183 127
170 186 146
171 188 144
171 188 141
171 187 144
168 185 142
168 185 126
166 180 143
163 179 122
166 180 138
154 167 138
149 164 125
140 154 123
138 151 114
136 150 120
133 148 112
126 142 122
115 132 121
108 125 114
102 120 94
95 114 109
91 111 106
81 102 96
59 86 103
50 79 102
48 76 96
48 76 94
48 77 112
49 77 116
44 71 87
44 71 91
46 73 99
45 72 94
44 70 90
39 62 85
42 68 92
41 66 92
38 62 79
35 57 83
35 58 86
36 59 69
33 54 72
29 47 66
30 50 65
28 46 66
27 46 54
58 69 59
103 116 98
128 142 118
141 157 148
49 78 109
50 80 110
53 85 121
55 87 122
56 88 123
55 87 117
55 87 122
55 88 126
57 89 126
57 90 120
58 91 132
58 92 133
59 94 129
59 92 131
58 91 126
58 91 125
56 89 124
59 93 131
59 93 129
58 92 131
60 94 138
59 93 124
59 93 139
59 93 130
60 95 144
58 93 135
59 93 141
60 94 130
59 93 133
58 92 122
60 94 134
60 94 138
59 93 133
60 94 136
58 92 124
59 93 136
59 93 125
59 93 128
59 93 121
58 91 124
59 94 130
59 93 133
59 93 128
58 91 126
60 95 129
59 94 131
59 93 122
60 94 129
61 96 143
58 92 126
60 94 133
58 91 133
58 92 122
59 93 125
60 95 130
58 91 122
60 94 126
60 93 133
59 93 131
59 93 131
60 94 129
58 92 125
60 94 130
58 91 121
58 91 120
59 92 125
59 92 133
59 94 134
61 95 147
60 93 131
59 93 136
58 91 125
59 93 130
58 91 123
58 92 120
61 96 142
57 90 128
59 92 129
59 93 129
57 89 121
57 90 127
58 92 131
57 89 128
60 94 137
57 89 123
58 91 126
59 91 127
58 91 133
56 88 126
58 90 132
56 87 111
58 90 129
55 87 124
55 86 114
55 85 119
54 85 107
55 86 121
54 83 114
54 85 113
52 80 113
49 75 100
48 73 99
79 84 56
82 81 33
42 43 10
51 53 16
42 45 22
41 45 21
41 45 19
43 48 33
29 34 17
48 54 31
43 50 30
57 62 30
56 62 33
71 75 39
63 67 39
66 69 35
77 80 45
84 87 54
73 78 41
86 88 47
86 89 52
87 90 47
103 104 59
113 113 58
108 108 54
114 113 60
110 110 54
114 113 56
118 118 61
115 115 58
122 121 63
125 123 62
121 120 57
141 137 69
133 131 67
124 123 64
133 129 63
130 128 66
137 133 67
141 137 73
137 134 69
144 141 76
142 139 72
142 137 69
143 139 70
149 145 78
153 149 82
158 153 80
151 147 77
146 141 75
153 149 77
153 149 68
156 151 79
153 149 77
161 156 82
153 149 75
158 152 76
161 155 81
155 151 74
167 159 82
159 153 76
160 154 78
162 156 81
163 156 81
159 153 74
167 161 82
161 157 75
159 154 77
164 159 80
157 153 74
162 155 77
168 161 85
165 159 75
163 158 74
164 158 85
160 156 73
163 157 78
163 157 80
168 161 84
160 155 78
168 161 85
163 157 73
165 159 74
170 162 84
168 161 86
170 163 84
165 159 77
164 158 76
169 162 81
165 157 80
167 160 77
162 155 73
168 162 80
170 163 83
168 161 75
170 163 85
162 157 77
165 158 80
166 158 76
160 154 76
162 156 68
164 158 80
162 157 74
165 158 84
162 157 77
163 157 83
164 158 80
164 158 74
165 158 77
166 160 83
162 156 78
163 156 78
158 152 76
160 154 75
160 154 77
162 156 73
160 153 66
160 155 72
159 152 75
161 155 75
159 154 74
163 156 79
162 156 80
159 153 75
163 156 80
156 151 74
163 157 78
167 160 85
157 151 76
162 155 83
159 152 76
167 160 87
156 150 77
154 148 74
164 158 84
149 144 70
164 158 79
158 152 76
157 151 73
153 146 74
156 150 74
154 149 70
152 147 73
161 155 79
144 138 73
146 141 72
156 150 81
158 151 79
160 153 80
182 197 178
175 193 156
178 194 160
176 193 160
176 193 161
179 195 166
177 194 161
176 193 158
176 193 156
178 195 165
177 194 165
173 191 148
177 194 160
174 192 153
177 193 165
177 194 163
176 193 156
176 193 160
178 194 161
176 193 160
179 195 168
175 192 158
174 191 150
172 189 139
177 194 166
175 192 158
174 191 146
176 193 160
178 194 168
176 193 155
176 193 156
178 194 166
179 195 168
173 191 153
176 192 156
179 195 171
173 191 150
176 193 156
176 193 158
176 193 160
175 191 153
177 194 158
175 192 150
171 189 141
171 188 141
174 191 151
174 191 153
174 191 148
172 188 141
173 191 146
167 185 127
173 190 146
175 192 156
173 190 144
174 191 148
174 192 156
171 189 141
171 189 146
173 191 144
174 191 150
176 193 158
172 189 144
173 191 148
174 191 153
177 193 153
176 193 156
169 186 129
173 190 142
173 190 148
174 191 148
171 188 135
171 188 131
171 188 141
177 194 158
175 192 155
171 188 139
172 190 137
168 185 137
171 189 141
170 188 135
171 188 142
175 191 153
172 189 144
174 191 150
170 187 139
173 190 142
170 187 142
169 186 127
172 188 148
171 188 133
169 187 135
171 188 137
169 187 135
169 187 142
170 186 142
170 187 142
170 187 139
173 189 146
171 187 146
171 188 142
165 182 127
170 187 139
171 187 141
171 187 151
165 182 131
159 177 114
159 174 125
159 172 123
159 175 129
151 165 111
151 166 120
151 164 121
142 158 108
133 149 111
137 153 120
124 140 104
120 137 101
114 131 88
105 123 96
101 119 112
78 100 99
68 91 93
61 85 103
47 74 101
49 78 100
48 77 104
47 74 105
46 73 94
47 75 98
44 70 90
44 70 87
44 71 87
42 67 89
42 68 96
41 66 82
40 63 85
40 64 84
37 60 81
38 62 77
33 55 78
34 55 76
33 54 64
31 50 55
28 46 56
46 60 52
66 79 73
98 110 93
126 140 114
134 148 133
47 76 101
51 81 110
54 85 116
55 87 123
55 87 118
56 89 124
56 89 119
57 90 128
57 91 130
54 87 113
56 89 118
57 91 126
57 90 121
58 91 132
59 93 131
57 90 124
58 90 125
58 93 131
58 91 127
58 92 126
57 91 132
58 92 127
58 92 128
59 93 138
59 94 131
58 92 131
60 94 139
58 92 125
60 95 145
58 92 124
58 92 131
58 92 123
59 92 130
61 96 143
59 94 130
59 93 134
58 92 120
58 92 122
61 96 141
58 92 130
60 94 131
59 94 125
58 92 125
60 94 133
58 92 122
59 93 128
59 93 123
58 91 130
59 94 129
60 94 135
59 93 134
59 93 118
60 94 135
59 92 135
60 95 131
59 92 134
59 93 135
60 94 128
58 91 125
60 94 131
58 92 121
59 93 134
59 93 131
58 92 136
58 92 129
58 91 125
58 91 124
59 93 139
58 92 132
59 93 136
59 93 128
60 94 137
57 91 122
58 92 130
57 90 120
59 93 121
59 93 137
58 90 124
59 92 129
59 92 131
57 89 122
58 91 123
57 90 113
57 89 124
59 93 125
57 89 123
57 90 119
56 88 119
54 84 115
57 90 130
55 87 118
55 87 121
53 83 108
57 89 123
55 86 115
56 86 114
53 82 117
51 78 99
50 78 103
53 81 105
51 78 110
48 73 93
83 85 55
78 76 33
76 76 41
61 60 27
56 57 23
50 53 16
45 50 26
53 57 22
38 46 23
51 57 31
58 63 30
56 62 32
68 72 31
62 67 34
69 74 43
87 88 44
75 77 48
83 85 44
89 90 38
94 96 54
90 92 48
94 96 46
103 104 57
105 107 61
96 98 53
112 112 60
112 112 56
105 104 51
110 111 54
116 116 59
132 128 68
128 126 66
117 116 60
130 128 61
131 128 66
122 120 59
144 139 73
136 133 67
135 132 67
145 142 74
135 132 66
146 142 75
142 139 66
151 147 74
144 141 77
140 138 72
143 141 64
142 139 71
152 148 72
146 142 69
151 147 71
152 147 73
150 146 72
150 146 70
151 147 70
152 148 64
160 154 80
158 152 78
155 150 72
160 154 72
162 156 79
156 150 75
158 153 81
159 154 75
164 158 82
163 158 85
157 152 70
162 156 72
159 154 76
164 158 75
165 159 87
165 158 80
165 159 79
161 156 76
164 158 75
163 157 71
161 155 78
167 160 78
170 164 86
175 167 92
164 158 78
166 160 77
167 161 81
167 161 77
169 162 83
163 157 75
169 162 84
171 163 82
166 159 80
166 160 79
168 161 75
169 162 84
165 160 78
167 161 82
166 160 81
166 159 83
159 153 74
168 162 85
166 160 77
170 162 84
164 158 76
168 161 85
169 162 85
168 161 76
169 162 80
161 156 74
160 154 72
161 156 81
159 153 79
162 156 71
157 151 72
163 156 82
161 155 77
164 157 75
168 161 82
169 161 84
165 158 80
160 154 80
165 158 82
161 154 73
158 152 72
161 154 79
163 157 80
160 153 76
155 150 75
162 156 75
154 148 68
157 151 71
159 152 75
157 151 78
166 160 85
158 152 80
168 160 86
159 153 77
148 142 63
153 147 70
159 151 75
160 153 76
161 155 81
159 153 77
161 154 81
151 147 71
163 157 79
152 146 69
149 143 74
161 154 81
154 149 74
164 158 81
152 147 73
176 193 155
178 195 163
179 195 166
178 195 166
178 194 161
179 195 169
179 195 163
176 192 155
178 194 163
171 189 141
178 194 161
180 196 169
175 191 148
175 192 150
175 192 150
174 192 150
180 196 174
176 193 155
174 191 146
178 195 166
177 194 161
172 190 142
175 192 155
174 191 146
174 191 150
176 193 158
177 194 165
176 193 158
174 191 151
175 192 150
173 190 144
174 191 146
173 190 141
178 194 166
177 193 160
173 191 144
169 187 129
176 193 155
173 189 148
170 188 137
172 189 139
172 190 142
172 189 146
172 189 141
174 192 153
172 189 141
168 186 118
171 189 141
172 190 142
173 191 141
171 189 144
172 190 142
175 192 155
174 191 150
176 193 155
171 188 139
176 192 151
172 189 142
171 188 137
175 192 155
172 189 139
165 184 116
168 186 129
167 185 121
171 189 137
173 191 146
172 190 141
170 188 135
170 188 137
172 189 133
172 189 137
168 186 127
170 187 131
170 188 135
170 188 127
170 188 133
169 187 127
170 187 123
171 188 144
168 187 127
167 184 129
166 184 125
169 187 133
171 188 139
172 190 142
170 187 125
167 185 125
165 183 116
168 186 133
170 188 139
167 184 129
167 185 123
169 186 133
166 184 123
164 182 109
165 182 129
168 185 135
171 188 141
169 186 129
159 177 104
167 184 129
164 182 114
165 182 118
162 180 125
162 179 114
160 177 116
167 183 129
160 177 123
161 176 116
149 164 113
150 165 107
140 156 98
140 154 112
134 149 100
131 146 105
127 144 97
118 134 98
112 129 93
92 110 96
93 114 90
80 100 96
79 101 76
60 85 83
54 81 98
49 77 96
49 77 98
46 74 93
47 75 100
47 74 103
46 73 95
46 73 88
44 70 99
43 69 75
43 68 92
42 68 82
41 65 88
39 63 69
37 60 70
34 55 68
32 52 62
32 52 65
28 45 61
30 49 59
24 41 48
48 62 58
96 110 89
115 129 103
132 147 119
168 182 168
48 76 110
53 83 117
53 84 112
52 83 110
55 88 126
55 88 114
56 89 127
56 89 125
57 89 118
56 89 123
57 90 122
57 90 126
58 92 132
56 89 123
59 93 120
58 92 128
58 92 126
58 92 121
58 92 124
57 91 117
60 94 139
60 94 133
58 91 127
58 92 114
59 93 126
58 92 131
58 92 121
61 96 141
59 92 127
58 92 131
57 90 120
58 92 119
58 92 135
60 94 135
59 93 129
59 93 126
59 93 129
57 91 121
60 94 131
59 93 126
59 94 130
59 92 131
58 92 128
57 91 112
59 93 135
58 91 125
60 93 131
60 95 144
60 94 135
61 96 142
59 93 130
58 92 122
61 95 137
59 93 129
59 92 122
59 93 134
59 93 134
59 93 122
58 92 124
58 91 133
59 94 128
58 92 125
58 92 117
59 92 121
58 91 123
59 93 130
59 93 128
58 91 127
59 93 132
58 91 118
58 92 127
58 92 128
59 93 130
57 90 120
59 93 132
59 93 130
57 90 122
56 89 120
59 92 129
56 89 121
55 87 113
58 90 128
57 90 124
57 89 121
58 91 123
55 87 112
56 88 115
58 91 130
56 88 125
56 87 117
56 87 113
57 88 117
56 87 103
56 87 119
56 86 112
55 85 111
54 84 114
56 86 123
54 83 106
51 78 104
49 73 84
46 70 91
135 141 137
81 79 35
75 74 36
61 62 24
54 57 24
41 45 18
46 49 21
42 47 26
47 51 20
51 55 27
48 55 28
47 54 31
63 68 29
60 65 36
66 71 36
78 82 43
68 72 31
86 89 48
78 81 41
90 92 52
98 97 54
101 100 52
102 103 56
100 99 46
101 102 56
104 105 59
112 111 54
103 103 49
122 120 59
111 110 62
121 120 57
119 118 56
123 121 62
125 123 61
129 128 60
127 125 62
134 132 71
126 125 60
138 134 65
136 132 70
146 142 77
140 137 59
145 141 67
148 144 78
141 137 65
144 140 66
150 145 72
146 143 70
148 143 72
149 145 70
159 153 76
150 146 72
148 144 74
157 152 77
149 146 67
152 147 70
153 148 68
153 148 76
161 155 76
159 154 78
158 152 78
157 152 74
163 157 78
156 151 71
155 150 70
159 154 75
160 154 71
158 153 72
158 153 69
157 151 74
166 159 79
163 159 71
160 154 68
163 157 77
162 157 74
169 162 83
161 155 75
166 159 80
165 159 80
163 156 75
166 159 75
163 157 75
163 157 74
169 162 80
168 161 75
167 161 76
168 161 80
162 156 75
162 155 82
165 159 77
167 161 72
162 156 76
166 158 80
168 162 80
166 160 80
166 160 80
159 153 74
167 160 76
162 156 74
168 161 79
166 159 82
161 155 72
171 163 85
167 161 78
161 155 72
164 157 78
158 152 73
162 156 71
168 161 78
162 156 75
158 153 75
161 155 74
160 153 80
162 155 77
161 155 79
162 157 76
163 156 75
154 149 73
164 158 80
156 150 69
165 159 78
165 158 79
158 152 75
167 160 84
157 152 70
156 150 70
154 147 73
162 154 81
164 155 86
158 152 69
162 155 70
162 155 73
158 152 74
155 148 74
159 153 76
160 153 74
160 152 75
164 158 78
165 158 81
156 150 69
148 142 68
153 147 75
146 141 69
151 144 69
151 144 71
153 147 75
158 152 78
158 152 75
156 151 79
176 193 155
177 194 158
175 192 155
175 192 150
178 195 166
173 191 146
178 194 160
177 193 160
176 193 158
177 194 163
176 193 158
175 192 151
175 192 148
181 197 174
180 196 166
175 192 151
176 193 155
175 192 151
177 194 158
174 191 151
175 192 153
174 191 148
171 189 141
173 191 148
171 189 135
176 192 150
172 189 139
177 194 160
176 192 158
172 190 142
170 188 133
175 191 148
172 189 144
175 192 148
170 188 133
171 189 137
173 190 141
174 191 150
171 188 137
171 189 142
174 191 146
175 191 150
171 189 135
170 188 135
168 187 118
172 189 141
173 190 141
174 191 146
173 190 135
170 187 123
175 192 150
172 189 139
169 187 123
169 188 129
170 188 131
171 188 141
171 189 135
169 187 121
170 188 133
167 186 127
170 187 129
172 189 137
173 190 146
167 185 118
171 188 131
173 190 141
169 186 131
166 185 109
164 182 107
168 185 121
168 186 125
163 181 102
168 186 129
171 188 131
169 187 125
167 184 125
164 183 114
168 186 137
171 189 135
166 185 112
170 187 133
168 186 125
167 186 112
168 186 123
168 186 131
167 185 123
169 187 129
167 184 121
166 184 116
162 181 99
168 185 135
164 182 114
168 185 137
164 182 118
164 182 121
164 182 116
161 179 112
159 177 97
164 182 118
156 175 104
160 178 104
163 181 118
164 182 116
161 178 107
160 176 125
159 175 117
159 176 112
150 164 103
157 173 101
149 165 110
152 168 109
131 147 80
131 146 87
126 142 70
121 137 94
120 138 94
114 131 78
103 120 84
94 112 87
99 119 98
80 97 88
89 110 85
66 91 104
62 85 92
46 73 92
48 76 93
44 70 88
46 73 92
45 72 83
46 72 96
44 70 86
44 70 86
45 72 92
46 72 97
42 67 92
40 65 84
40 64 77
36 59 75
38 61 77
34 55 70
31 51 60
32 52 59
32 52 51
36 54 55
62 76 51
93 110 72
125 139 112
149 165 120
188 201 200
78 100 114
53 84 117
51 82 103
53 84 106
51 82 111
57 90 131
55 86 121
57 90 125
56 89 127
55 88 119
56 88 118
58 91 124
56 89 117
58 91 126
58 91 128
57 90 114
57 89 121
58 92 128
57 90 113
57 91 119
59 93 136
58 91 122
60 94 126
58 92 128
58 92 129
58 91 126
59 93 130
57 91 121
61 95 136
58 92 121
58 92 124
58 93 125
58 92 124
58 91 122
59 92 129
59 93 126
59 94 125
58 92 120
60 94 134
59 93 134
59 93 127
58 92 131
60 94 134
57 91 126
59 93 135
56 90 125
59 92 126
59 94 130
58 92 129
57 91 113
58 91 120
60 94 130
60 94 131
61 95 137
57 90 121
58 91 116
58 92 114
57 90 122
58 92 124
58 91 129
60 93 126
60 95 141
59 93 131
59 94 131
58 92 131
58 91 133
57 88 108
55 88 121
58 91 127
59 93 135
60 94 129
58 92 131
59 92 125
57 90 125
59 92 128
58 91 122
58 91 125
58 91 135
58 91 130
59 92 131
58 91 126
57 90 124
58 90 128
57 89 120
57 89 116
57 90 131
55 87 117
57 90 125
56 87 111
56 88 120
54 84 111
57 89 124
55 85 115
55 85 116
53 82 111
54 83 107
53 81 108
55 85 118
52 80 103
48 73 94
48 72 85
93 108 116
182 190 189
89 86 38
68 67 26
60 60 25
57 58 21
48 50 16
38 42 17
56 60 21
46 50 19
44 50 19
46 51 27
52 57 24
55 61 35
65 69 36
65 70 35
72 74 38
74 78 40
77 82 40
89 91 43
87 90 35
86 87 41
99 98 49
93 95 47
109 108 49
110 109 54
106 106 47
98 99 48
121 118 58
119 119 61
124 122 62
127 126 63
130 129 60
136 133 60
121 121 57
121 119 61
130 128 62
125 124 68
124 122 60
143 139 73
143 139 67
147 143 72
130 128 61
140 135 64
143 139 72
144 140 61
152 148 77
147 143 72
146 143 64
148 145 60
153 149 78
138 135 66
153 148 70
155 150 72
149 145 76
152 147 72
154 149 77
152 148 69
159 153 77
157 152 76
152 147 73
160 155 72
165 159 85
152 147 68
161 155 74
157 152 70
161 156 79
162 157 81
163 157 76
159 154 65
164 158 78
160 154 74
160 154 73
164 158 71
160 155 75
173 166 90
162 156 71
164 157 71
167 161 84
164 158 77
163 156 75
160 153 74
163 157 77
158 152 75
165 160 77
166 160 78
161 155 74
160 155 68
169 162 84
163 156 71
162 155 74
163 156 76
170 163 81
166 160 75
164 157 76
165 159 75
164 158 81
160 154 69
165 158 75
165 158 75
160 153 75
166 159 75
166 160 74
164 157 75
166 160 84
164 158 79
157 150 76
161 155 80
163 157 77
165 159 80
167 160 78
159 152 75
164 157 74
166 160 75
156 149 69
160 153 71
167 160 80
164 157 84
160 154 75
161 154 77
161 155 72
161 155 71
162 156 76
162 156 79
160 154 74
163 155 75
162 156 75
157 151 74
159 153 67
162 155 76
158 151 77
156 150 74
162 156 75
159 153 77
163 156 80
158 152 75
164 157 77
153 147 71
158 152 75
160 153 75
157 150 78
157 151 75
151 144 73
160 153 81
155 150 75
154 148 73
157 150 76
150 145 63
151 144 73
154 148 75
177 194 160
174 191 144
175 192 153
175 192 155
175 192 150
174 191 148
175 192 150
170 188 133
172 190 144
172 189 137
175 192 156
171 189 133
176 193 153
169 187 127
175 192 151
171 189 139
175 192 155
171 190 141
172 190 146
168 187 118
173 191 144
174 191 148
170 188 127
174 191 148
169 188 131
173 190 148
173 190 137
172 190 144
174 191 144
175 192 144
171 189 133
173 191 148
170 188 139
175 192 151
172 189 131
167 185 121
168 187 127
172 190 139
169 187 131
171 189 135
168 186 123
163 182 88
170 188 129
167 186 118
169 187 129
169 187 127
168 186 121
170 188 127
173 190 137
173 190 144
170 188 131
170 187 133
173 191 144
170 187 125
166 184 112
166 184 116
168 186 123
169 186 129
172 189 135
166 184 123
167 185 121
170 188 131
168 186 123
168 185 125
164 183 107
169 187 129
169 186 131
169 187 127
169 187 125
164 182 116
169 186 131
169 187 129
165 184 114
167 185 114
165 183 112
169 187 125
164 182 107
166 184 107
162 181 94
166 184 109
163 182 97
163 182 107
165 183 109
165 183 118
164 181 114
164 183 114
166 184 116
156 176 82
160 179 91
162 181 99
164 182 109
163 182 99
162 181 104
162 181 109
160 179 97
162 180 112
163 181 99
161 181 97
159 177 97
159 176 112
159 176 114
155 172 94
160 178 107
159 176 99
158 177 102
150 168 91
154 171 94
153 168 89
148 161 100
146 162 88
140 155 83
135 149 89
125 141 83
126 141 87
121 137 67
116 131 84
109 128 70
108 127 76
91 113 88
89 108 82
84 103 80
76 97 74
76 96 81
62 85 78
51 77 93
48 76 100
47 74 88
45 72 82
43 69 81
45 71 100
45 72 95
43 69 80
41 66 72
40 65 84
40 65 79
40 65 80
35 57 66
37 60 71
37 59 61
35 56 77
35 56 60
32 52 50
29 47 51
46 63 37
79 95 54
107 123 84
140 156 119
138 151 121
199 212 219
103 120 138
49 78 95
52 82 120
53 84 114
54 85 108
57 90 126
54 86 116
56 89 124
55 87 121
56 89 121
58 91 113
58 91 129
56 90 120
57 90 118
58 92 131
58 92 127
56 89 122
58 91 125
56 88 121
59 92 131
55 88 123
57 90 112
58 92 119
59 93 131
60 94 135
59 92 133
56 90 120
58 92 127
58 92 131
58 91 122
59 92 132
59 93 127
59 93 121
60 95 139
58 92 125
59 93 125
60 94 137
59 93 133
57 91 125
58 92 128
59 93 129
58 92 126
58 92 124
58 92 114
59 93 124
58 92 125
58 92 124
57 90 120
59 93 130
60 95 134
60 94 126
61 96 139
57 90 129
59 93 121
57 90 118
58 92 128
57 90 117
59 93 123
61 96 142
59 93 126
59 92 128
57 90 123
58 92 127
59 93 134
58 92 116
58 92 126
58 91 126
59 92 133
59 93 125
57 91 121
60 94 142
59 92 130
59 93 133
58 91 121
58 91 130
59 93 137
59 93 130
58 91 126
59 93 122
57 90 119
58 91 125
56 88 118
59 91 126
56 88 121
55 86 102
57 90 123
58 90 126
55 85 108
56 88 116
55 87 118
55 85 105
58 90 132
55 85 110
56 87 111
56 87 106
54 83 111
55 85 113
53 82 105
52 80 102
49 75 93
47 72 86
110 124 135
200 212 225
76 74 34
58 58 27
51 52 13
51 54 20
40 44 15
53 54 16
48 53 23
46 51 22
55 57 22
49 54 21
63 66 30
56 61 30
81 82 44
64 68 29
59 64 27
78 79 40
79 82 41
85 88 40
90 90 43
95 96 47
95 96 45
93 95 46
105 106 49
100 101 47
105 103 56
112 111 54
107 109 56
120 118 55
118 116 64
120 120 66
124 122 60
117 116 57
125 123 57
129 126 70
119 118 56
125 123 64
124 122 57
131 129 66
137 133 61
144 140 66
134 131 55
148 144 67
138 134 64
151 147 74
139 135 67
145 140 68
144 141 66
142 138 65
153 148 71
152 148 70
152 147 75
147 142 72
152 147 70
151 147 70
158 152 71
155 149 72
152 147 64
149 145 62
153 148 69
156 151 77
162 157 77
157 151 75
154 150 68
162 156 72
150 146 66
160 154 81
161 155 75
163 157 78
157 151 73
168 161 78
159 153 62
161 155 71
168 160 73
167 161 81
159 152 70
158 153 72
161 154 69
165 158 79
166 158 78
165 158 74
168 161 79
169 162 80
163 157 73
168 162 80
163 156 73
161 155 74
161 155 74
165 158 69
163 156 81
165 159 77
163 156 78
166 159 77
168 160 84
165 158 84
163 156 77
162 155 69
166 160 78
163 156 80
163 156 74
161 155 70
159 153 71
168 161 84
164 157 79
160 154 74
165 159 84
169 162 76
164 158 79
164 157 79
159 153 68
166 158 79
162 156 69
164 158 79
165 159 77
160 154 72
163 156 74
160 154 79
158 152 74
164 157 77
161 154 75
160 155 77
161 154 72
157 150 75
160 153 76
165 158 80
156 150 79
157 151 74
156 151 74
158 152 75
165 157 75
153 147 69
158 151 75
157 151 74
159 152 68
159 153 78
147 142 61
157 151 71
151 146 63
164 156 76
146 141 64
159 152 79
151 146 72
157 152 70
155 150 77
152 147 64
157 151 66
152 145 69
153 147 72
155 148 76
175 192 146
177 193 153
170 187 133
170 188 137
171 189 141
174 191 146
175 192 155
173 190 148
169 187 127
175 191 150
177 193 156
175 192 151
173 190 141
171 188 139
173 190 144
168 186 127
175 192 150
172 190 144
171 189 135
172 190 141
169 187 131
172 189 133
171 189 135
171 189 133
172 189 137
167 186 118
169 187 123
171 189 131
174 191 144
171 189 141
164 184 107
168 186 123
172 189 137
168 187 125
166 185 116
169 187 131
167 185 121
167 185 118
170 187 127
171 189 139
170 187 127
168 186 127
166 184 116
170 187 131
171 188 137
167 185 118
165 184 112
173 190 133
164 183 102
169 187 123
166 184 118
164 183 99
172 189 141
170 188 127
165 184 107
166 185 112
166 185 112
164 183 99
160 179 85
166 184 114
171 188 131
166 184 116
166 185 112
167 184 116
170 188 133
162 181 88
163 182 104
163 182 102
168 186 118
165 183 97
165 183 104
164 183 112
161 180 104
161 180 91
166 184 102
162 180 102
162 181 97
166 184 114
166 184 112
162 181 94
162 180 102
164 183 97
160 179 88
159 177 94
162 180 88
165 183 102
164 182 107
162 181 99
159 178 97
163 181 99
163 182 97
160 178 94
156 175 88
159 178 91
158 178 75
156 174 82
157 176 94
155 174 82
157 175 85
154 173 72
150 169 75
160 177 99
149 168 85
150 169 75
154 173 79
152 169 85
147 164 79
154 172 85
141 158 61
139 156 80
138 155 76
126 142 83
136 151 72
122 138 77
114 130 71
111 130 69
108 127 61
114 130 64
99 120 80
87 106 80
88 108 83
66 90 87
65 87 72
62 86 82
49 76 82
50 75 83
48 76 94
45 71 86
46 73 89
46 73 84
44 70 76
43 68 76
43 68 79
41 66 79
41 66 72
38 61 70
41 66 66
36 58 68
38 61 65
33 53 45
34 55 55
34 54 49
39 60 57
75 89 36
96 112 55
115 131 81
135 151 111
149 163 138
220 233 249
148 162 178
50 80 99
51 80 105
54 85 110
54 86 100
55 87 116
54 86 116
56 88 125
56 88 119
56 89 120
58 91 121
59 92 131
57 90 125
58 92 130
58 92 133
57 91 125
58 91 117
58 92 124
58 92 131
59 93 127
57 90 116
56 89 103
58 91 119
59 92 136
57 90 124
58 92 131
59 93 122
59 93 133
58 91 134
59 93 131
60 95 130
58 91 122
58 92 124
58 92 117
56 90 117
59 94 126
60 94 136
58 92 127
57 90 121
60 94 123
60 94 132
59 92 125
59 93 121
60 94 139
59 93 124
58 92 114
59 93 124
59 94 131
60 94 140
59 93 134
58 92 125
59 92 129
58 92 126
58 92 123
60 94 134
60 94 129
58 92 133
58 91 128
58 92 125
59 93 129
58 92 122
59 93 128
59 92 133
59 93 128
57 90 128
57 91 117
58 92 117
60 94 131
58 92 128
58 92 124
59 92 130
57 90 109
60 94 135
58 91 125
59 92 132
58 91 124
56 89 117
59 93 129
58 91 123
58 91 122
58 91 126
56 88 123
56 88 118
56 87 116
57 89 123
56 88 120
55 87 111
56 89 120
55 87 109
57 88 121
56 87 115
54 83 110
55 86 113
56 87 113
56 86 114
54 84 114
53 81 99
50 77 99
51 79 97
46 69 73
45 70 83
166 178 194
222 235 252
90 88 59
76 76 24
69 69 25
52 53 20
49 51 17
40 45 17
48 51 7
45 51 18
55 58 21
55 62 25
67 71 29
67 71 28
60 64 29
54 59 29
68 72 31
77 79 37
84 86 38
90 91 44
75 79 31
93 94 43
112 111 51
90 93 39
107 107 47
110 109 54
107 107 47
104 104 48
121 119 58
120 118 58
121 119 59
120 119 57
128 125 62
123 122 55
124 122 64
131 129 64
130 127 58
123 121 63
134 132 65
131 127 60
145 141 69
134 131 66
141 137 71
142 139 68
142 137 63
147 142 65
141 137 65
147 142 60
141 138 65
144 140 69
150 145 74
157 151 70
149 145 70
152 147 70
148 143 67
156 150 67
151 146 70
156 151 73
149 144 68
156 150 72
154 148 67
152 147 70
151 147 68
156 151 70
156 151 70
158 153 74
162 156 71
160 154 77
157 152 72
156 150 71
165 158 75
155 150 67
164 158 69
162 156 75
162 156 76
159 154 70
158 153 62
160 155 70
164 158 72
165 158 78
161 155 70
162 157 77
164 157 70
166 158 80
162 155 77
163 158 78
161 154 71
163 157 73
155 149 71
165 158 78
160 154 70
164 157 76
165 159 79
165 158 76
163 156 70
162 156 72
163 155 76
171 163 84
168 162 83
168 160 75
165 158 80
162 156 75
167 160 75
157 151 71
160 154 72
161 155 70
165 158 77
170 162 86
164 158 72
161 154 77
166 160 79
163 156 75
164 159 75
165 158 80
158 151 71
165 159 76
163 156 75
154 147 72
158 152 75
160 154 71
156 150 71
155 149 69
157 151 67
166 159 80
159 153 71
156 150 73
155 149 72
163 156 74
159 152 77
165 158 84
159 152 69
158 152 69
163 156 75
155 149 64
155 149 72
159 152 79
151 145 66
164 157 80
159 152 75
159 153 75
156 150 76
152 145 72
157 149 71
152 146 65
151 145 70
152 147 68
157 149 72
155 149 77
154 148 76
152 146 73
172 190 139
175 192 155
176 192 148
171 188 131
170 188 131
166 185 112
173 190 135
171 188 139
173 190 141
171 188 139
174 191 141
169 188 131
172 189 137
173 190 139
175 192 144
164 183 104
170 188 127
169 187 121
171 188 135
169 187 123
171 188 137
171 188 135
169 187 127
173 190 141
169 186 129
169 187 123
168 186 116
169 187 127
169 187 127
172 189 133
165 184 109
166 185 114
166 185 112
168 186 123
170 188 135
172 189 141
168 186 125
166 184 109
165 183 102
168 186 121
166 185 112
164 184 99
166 185 107
168 186 127
165 185 114
165 183 99
165 184 102
164 182 112
171 188 137
165 184 109
162 181 91
165 183 99
160 180 85
165 184 112
164 182 94
164 182 107
161 180 88
167 185 116
165 183 107
162 180 91
166 185 107
160 179 97
164 182 97
160 179 88
163 182 94
160 181 82
166 184 114
163 182 97
165 184 109
161 180 99
166 184 114
164 182 97
166 184 114
163 182 107
161 181 94
159 179 85
157 176 72
164 182 91
157 177 91
157 177 82
159 179 91
157 177 85
155 174 75
156 174 85
159 178 82
158 177 82
159 178 88
157 176 75
155 175 60
153 173 60
155 173 79
152 171 68
156 176 64
156 175 79
152 171 60
158 178 75
152 171 72
153 172 79
148 168 64
153 171 82
155 172 79
153 172 68
150 168 82
153 171 72
151 170 60
153 173 68
141 159 56
146 163 64
143 159 68
140 156 44
128 144 45
133 150 49
126 143 63
124 141 42
119 136 45
112 129 67
90 108 55
103 120 57
92 111 78
89 109 70
86 105 70
83 102 80
71 90 70
71 90 81
52 76 79
49 73 73
45 71 84
44 70 73
46 73 88
45 72 83
44 71 88
43 68 84
41 66 74
43 69 86
41 65 77
38 61 71
39 63 64
36 57 52
32 52 52
35 57 65
34 56 54
37 57 61
60 79 46
78 93 59
108 123 60
128 145 98
149 165 119
163 176 152
214 229 223
173 189 174
48 76 88
51 81 108
51 81 97
54 85 122
53 84 112
53 83 108
54 86 106
52 83 108
55 88 116
55 88 111
56 88 112
57 90 127
57 90 118
57 91 120
56 89 115
60 94 133
58 91 127
58 92 129
59 92 130
58 91 124
59 93 124
59 93 128
57 90 112
58 92 121
57 91 131
58 92 126
57 91 119
58 92 118
60 94 129
58 91 115
59 93 129
58 91 121
58 92 123
55 88 108
57 90 113
60 94 133
59 93 130
59 93 130
58 92 123
59 94 131
59 93 129
58 92 127
57 90 113
58 92 130
59 93 129
59 93 131
58 93 124
58 92 120
60 94 130
58 91 128
57 91 120
59 93 124
59 92 130
58 92 124
56 89 107
57 90 118
59 93 128
58 92 123
59 93 126
59 93 131
58 91 128
59 93 130
57 90 114
59 93 128
60 94 130
57 89 110
58 92 117
59 92 129
58 91 122
57 91 123
58 91 124
58 92 126
58 92 123
57 90 116
57 90 123
57 89 118
58 90 120
59 92 120
58 90 127
58 91 132
58 91 128
57 90 120
59 92 133
59 92 129
57 89 127
58 90 122
56 89 120
55 86 109
56 88 120
52 81 103
56 87 120
55 85 109
57 89 115
53 82 100
55 84 117
54 85 106
52 81 98
49 75 89
50 76 89
50 75 79
173 187 180
217 231 230
142 148 129
79 78 33
67 65 28
67 67 18
47 49 18
57 58 14
58 58 14
45 50 20
49 52 17
64 65 19
61 64 27
59 63 25
60 64 31
78 80 29
81 81 24
67 72 32
83 86 37
88 90 40
95 96 47
89 89 44
88 89 44
97 96 43
92 94 45
90 94 43
109 109 54
107 107 51
116 115 49
119 117 55
123 122 55
123 122 56
124 122 64
117 116 53
120 118 51
124 122 61
125 122 51
134 130 62
125 122 59
136 133 60
140 137 58
141 138 66
138 135 61
139 135 68
145 139 67
132 129 56
143 139 59
138 135 59
143 139 66
141 136 52
146 142 65
146 142 66
149 145 69
151 147 68
152 146 64
149 145 66
157 151 70
154 149 65
154 149 70
156 151 68
156 152 74
161 155 73
152 147 66
155 150 66
162 155 78
154 148 65
157 151 73
157 152 69
158 152 69
159 154 74
155 149 68
159 154 66
166 158 80
161 154 77
159 153 69
166 159 76
154 148 67
158 154 67
160 155 77
166 159 74
167 161 80
162 156 74
161 155 74
159 152 71
166 159 81
165 157 77
168 161 80
162 155 73
170 162 84
168 161 80
161 155 66
167 161 80
164 157 73
157 152 67
160 154 70
163 157 73
165 159 76
164 158 74
160 153 74
168 161 79
165 159 75
162 156 76
164 157 75
164 157 75
167 158 80
165 158 76
160 155 68
167 160 80
165 158 77
156 149 74
158 152 69
164 158 74
162 156 69
157 151 67
160 154 76
157 151 70
159 153 73
165 157 76
168 161 80
168 160 75
159 154 68
155 149 75
156 150 71
159 153 74
156 150 64
158 152 66
154 149 70
167 159 82
149 143 67
164 157 77
157 150 66
162 155 77
158 151 75
160 152 73
159 152 69
151 144 68
159 152 73
157 150 75
155 148 70
153 147 75
157 151 77
151 145 69
151 145 74
156 151 72
147 142 70
155 149 75
158 151 66
148 141 67
152 146 66
152 145 69
173 191 142
172 190 142
173 191 142
175 192 151
174 191 146
171 188 129
173 190 141
168 187 127
171 188 131
165 183 104
172 190 141
168 187 121
169 187 125
167 185 118
175 192 151
167 185 116
165 184 109
170 188 127
168 186 116
167 185 123
170 188 127
170 188 129
168 186 112
165 184 109
166 185 112
166 184 109
167 185 118
164 183 107
166 185 114
166 184 107
167 185 118
167 186 118
168 186 114
167 185 118
168 186 127
168 185 121
165 184 114
166 184 104
167 186 116
167 185 118
162 181 88
166 184 109
163 182 88
167 185 116
165 183 114
165 183 107
165 183 99
164 183 99
162 180 107
163 181 104
163 182 94
163 182 99
159 178 91
160 179 82
163 182 94
162 181 85
164 182 97
161 180 94
164 183 107
164 183 94
161 180 88
162 181 82
165 183 94
161 180 82
160 180 79
163 182 99
159 179 75
160 180 88
158 176 94
161 180 91
160 180 79
158 177 75
158 178 75
157 176 79
158 177 75
155 175 60
159 178 79
158 178 82
155 174 75
157 177 72
158 178 56
158 177 60
159 178 72
154 173 64
160 179 82
155 174 82
159 178 88
153 172 64
147 167 39
152 172 56
156 175 72
154 174 60
153 174 51
150 171 45
151 171 45
155 175 39
149 169 56
150 170 39
148 167 32
149 170 32
148 167 45
146 166 45
145 165 22
150 169 45
150 166 64
141 160 0
139 157 32
140 158 32
138 156 45
133 151 0
131 149 22
131 148 35
126 143 60
122 138 44
122 139 51
121 137 51
93 112 61
103 121 71
99 118 69
90 110 57
91 110 67
72 92 69
79 99 71
68 89 76
63 85 87
55 77 82
45 71 72
47 75 79
45 71 87
44 70 69
44 70 81
42 68 74
41 66 80
39 63 69
39 63 71
39 62 74
40 63 71
39 62 68
35 56 57
35 56 50
35 54 47
49 67 38
78 96 38
89 106 41
110 127 73
131 147 93
155 172 112
162 181 75
176 199 0
158 180 29
49 78 100
50 79 104
51 81 101
52 82 113
54 85 119
55 87 119
56 88 122
57 90 123
54 86 114
58 90 126
57 89 119
55 87 114
57 90 124
58 91 125
56 89 117
56 89 112
56 89 116
57 90 115
58 91 125
56 89 110
58 92 128
56 89 116
58 91 126
59 93 135
59 93 125
58 92 126
57 91 118
56 89 106
58 92 123
57 90 120
58 92 131
58 91 120
57 90 120
59 93 130
57 90 111
59 94 123
59 93 129
58 91 114
60 94 140
60 93 126
59 93 122
58 92 122
60 94 129
58 91 117
59 93 126
59 93 129
58 91 124
60 94 134
58 92 126
59 93 126
58 92 125
60 94 130
57 90 120
57 90 123
60 93 133
60 94 136
59 92 125
58 92 134
58 91 118
59 93 124
57 90 117
59 94 136
58 92 126
59 93 118
58 91 125
59 93 130
59 93 128
57 91 111
59 92 123
57 90 111
58 91 115
58 90 121
58 91 130
57 91 116
58 90 117
58 91 130
58 91 120
57 90 126
56 88 111
58 90 116
58 90 119
57 89 115
59 92 123
57 89 121
55 86 112
58 91 130
54 85 107
55 84 110
55 84 109
55 86 113
53 82 103
56 87 122
56 86 107
52 80 108
50 77 90
51 78 92
53 82 110
51 79 98
48 72 78
44 68 79
165 188 21
175 198 0
132 144 25
90 87 35
61 62 14
71 69 23
58 58 14
60 60 27
53 57 21
61 62 11
49 53 20
49 52 16
66 68 24
69 71 26
70 73 30
51 56 22
74 77 34
75 77 35
66 69 31
82 85 45
86 88 38
79 81 39
87 89 39
89 91 40
100 101 48
106 106 51
110 110 47
108 106 46
117 116 51
118 117 52
123 121 61
121 119 51
124 122 52
107 109 56
112 111 51
125 122 51
135 132 55
126 124 56
121 119 46
131 128 60
133 129 63
132 129 57
135 131 53
135 132 59
142 137 72
144 139 70
148 144 69
138 134 62
143 139 66
147 142 67
148 144 67
143 139 59
145 141 58
145 142 66
151 147 67
152 147 60
148 144 60
149 144 59
156 150 70
149 145 59
156 150 72
160 153 74
151 147 65
159 153 74
153 148 64
156 151 57
160 153 71
157 152 70
168 161 71
155 149 66
157 151 65
159 154 70
156 151 67
152 147 64
165 159 74
159 154 69
160 153 66
157 152 70
161 155 72
159 154 72
166 159 74
166 160 73
162 155 73
165 159 77
163 157 69
164 159 76
161 155 68
159 153 70
161 155 70
159 153 65
157 152 62
163 157 69
168 161 79
159 152 74
163 157 74
164 157 74
162 156 70
160 153 71
166 159 76
162 156 78
162 156 65
162 157 75
161 155 72
157 151 67
163 157 75
164 157 73
164 156 78
158 152 66
166 158 74
163 157 72
162 156 78
162 156 76
164 157 78
166 160 78
159 153 72
153 148 65
160 154 75
163 156 80
164 157 80
163 156 70
163 156 80
159 153 69
161 155 76
156 150 66
159 153 75
157 151 70
160 153 75
157 151 71
158 152 72
155 148 69
159 153 72
162 155 73
161 155 74
157 151 74
162 155 71
151 146 68
163 156 77
147 140 68
157 152 69
157 151 75
156 150 65
152 145 70
149 144 64
154 148 74
161 153 76
153 147 69
155 149 71
153 148 74
155 149 72
143 137 65
168 187 125
171 188 129
169 187 127
170 188 123
173 190 142
170 188 133
173 190 137
167 185 114
167 185 118
169 187 129
168 186 123
174 191 144
172 190 135
166 185 107
168 186 123
171 188 127
162 181 104
165 184 118
166 185 116
171 189 127
170 188 129
169 187 125
170 187 127
163 182 107
163 183 102
165 184 114
162 182 97
169 186 121
169 187 123
165 184 112
166 184 109
164 183 109
167 185 114
164 182 97
163 182 99
163 182 99
165 184 102
168 186 118
161 181 91
163 182 102
161 180 88
162 181 97
163 182 91
166 184 104
164 183 104
161 180 88
159 179 82
159 179 82
163 182 88
161 181 85
160 179 91
160 180 88
158 178 64
160 180 79
161 180 91
160 180 79
160 179 82
162 181 88
160 179 79
159 178 72
160 180 82
156 177 60
155 176 64
159 178 79
159 180 72
155 175 56
157 177 72
158 178 82
159 178 72
157 177 60
154 175 60
158 177 56
153 174 39
153 174 51
157 177 64
154 174 51
157 176 56
153 172 51
153 173 45
152 171 39
152 173 39
152 172 22
153 174 39
154 173 60
149 169 45
150 170 0
154 174 32
148 168 22
149 170 22
149 169 22
144 165 0
148 168 0
149 170 32
150 170 22
148 168 0
147 166 0
146 166 0
147 167 0
146 166 0
147 168 0
146 166 0
141 160 0
144 164 0
145 163 0
140 160 0
145 164 0
142 160 0
142 161 0
138 156 0
133 150 0
138 156 16
121 140 22
129 147 22
122 141 38
123 141 33
112 128 52
100 119 48
99 116 58
95 114 65
90 108 57
94 113 52
76 95 59
72 93 83
74 93 75
61 81 71
57 81 87
51 75 78
45 70 74
42 67 74
44 69 82
43 68 82
41 65 74
43 68 68
40 65 75
38 61 68
39 62 61
38 61 50
36 57 53
34 55 49
33 54 47
53 72 53
69 84 29
81 98 43
100 117 73
126 143 83
139 155 106
152 169 116
163 184 32
173 197 0
174 197 0
69 92 76
49 78 90
52 83 106
53 84 111
54 86 108
56 89 117
54 86 107
56 88 115
55 87 111
55 87 118
57 89 120
55 88 120
56 89 114
58 92 126
59 93 127
58 91 123
58 92 122
58 92 120
57 90 127
56 89 118
57 90 116
58 92 127
57 90 116
57 90 119
57 90 118
57 89 118
57 91 117
58 92 117
59 93 134
58 91 124
57 90 124
57 91 122
58 91 122
59 93 124
58 91 127
60 94 126
59 92 126
57 90 112
59 93 125
56 89 108
57 90 117
60 94 139
59 94 134
58 92 126
57 91 112
58 91 125
58 91 115
59 93 129
58 91 124
59 92 121
60 95 136
60 94 135
60 94 124
57 90 108
59 93 133
57 91 120
59 93 130
57 91 117
58 92 129
58 91 124
58 91 115
57 90 114
58 92 114
57 90 112
60 95 134
59 93 126
57 90 117
57 90 121
60 94 138
57 90 120
59 92 120
57 90 118
57 90 112
57 90 120
57 91 120
57 90 108
59 92 129
57 89 117
60 94 136
56 88 104
56 88 123
55 87 110
58 90 126
59 92 129
57 88 121
54 85 103
58 91 128
57 89 121
55 86 109
54 84 103
53 83 88
52 81 98
52 81 101
53 81 104
54 83 106
52 80 102
52 79 98
53 83 104
47 71 91
78 99 78
174 198 0
174 198 0
164 185 11
100 97 44
83 81 26
68 67 26
65 65 14
61 62 9
60 62 12
53 55 18
49 53 14
51 56 23
60 64 24
48 53 22
58 63 30
60 65 25
77 79 37
79 81 27
84 85 31
96 96 38
90 90 39
91 92 38
99 98 44
89 91 46
105 104 51
94 96 45
86 88 41
98 98 43
114 111 43
107 107 49
109 109 54
112 111 40
115 113 55
118 115 59
130 128 52
122 119 41
135 131 56
134 131 67
127 124 58
136 133 66
127 125 52
136 133 61
149 143 66
134 131 57
136 133 54
139 136 63
146 141 59
138 134 67
152 147 71
137 134 58
147 143 66
149 143 61
149 144 67
151 145 73
145 141 56
151 146 68
145 140 60
157 151 68
156 150 77
149 143 64
152 147 60
153 148 67
160 154 67
158 152 70
154 149 65
157 152 67
158 152 73
157 152 62
162 156 70
159 153 67
149 144 63
153 148 64
161 154 71
156 150 69
158 152 67
162 156 72
154 149 61
159 153 65
158 151 73
162 156 71
160 154 70
158 152 67
159 154 71
165 158 76
162 155 67
164 157 70
161 156 76
159 153 74
161 155 68
166 159 75
157 151 69
161 155 72
158 153 65
159 153 64
165 158 76
158 152 71
158 152 68
165 159 75
162 157 68
154 148 58
163 156 70
163 157 71
162 155 76
165 159 75
157 151 61
159 153 71
166 159 68
161 154 71
158 151 70
163 156 71
161 154 71
163 158 69
163 156 73
156 151 73
162 156 74
154 148 60
159 153 76
152 147 67
161 154 75
165 158 71
162 155 78
155 149 64
160 153 72
159 153 69
158 152 66
155 150 69
159 152 74
158 151 66
158 152 73
159 152 75
159 154 72
159 153 65
157 150 69
155 150 71
154 149 65
151 145 65
152 147 65
154 149 71
155 149 70
151 145 66
153 148 64
155 150 68
155 150 68
151 145 64
158 151 75
161 156 78
148 142 72
148 142 66
148 143 63
150 143 71
167 185 109
166 185 114
169 187 127
171 189 131
169 187 125
169 186 127
167 186 116
167 186 114
166 184 112
169 187 123
171 189 131
168 185 123
167 185 118
166 184 112
167 186 118
159 179 82
164 183 107
164 183 104
162 181 99
165 184 104
164 183 102
165 184 104
163 182 99
165 183 109
165 183 104
164 183 102
163 181 97
163 182 94
162 181 99
164 183 104
159 179 79
163 182 104
162 182 102
162 181 85
167 185 116
164 183 99
158 178 64
164 184 104
162 182 97
161 181 82
160 179 88
162 181 79
161 180 94
161 180 85
156 177 72
159 178 79
159 179 64
161 180 85
158 178 68
159 179 82
159 178 82
157 176 75
158 177 60
157 178 60
159 179 68
160 180 72
157 177 64
159 178 75
155 176 68
158 178 60
158 177 75
154 175 51
161 180 75
160 180 68
152 173 32
156 176 51
153 173 22
154 174 39
152 173 45
154 176 22
155 175 56
154 175 22
151 171 22
153 174 32
152 173 32
150 171 32
149 170 0
152 172 22
149 169 22
154 174 22
149 170 22
152 172 0
154 175 0
152 172 0
147 168 0
149 169 0
150 171 0
151 171 0
148 169 0
146 166 0
151 171 0
146 165 0
143 163 0
144 165 0
149 169 0
146 167 0
144 165 0
143 162 0
145 165 0
140 159 0
145 166 0
143 163 0
142 162 0
144 161 0
135 153 0
140 158 0
140 160 0
134 152 0
132 151 0
132 150 0
131 149 16
121 140 22
128 145 40
113 131 31
120 138 38
111 128 39
107 124 34
98 115 35
105 124 54
92 108 56
90 108 50
66 85 57
59 81 63
84 104 71
58 79 85
62 84 67
51 72 65
46 69 62
51 74 75
46 69 55
42 68 70
41 66 75
40 64 61
41 66 74
38 61 63
38 61 58
37 59 67
40 60 45
49 67 51
58 78 62
69 87 41
86 103 35
103 121 44
114 131 60
137 155 78
157 173 125
148 164 107
173 197 0
174 197 0
175 198 0
108 131 72
49 78 101
50 79 87
52 82 104
50 80 101
54 86 103
55 87 120
53 84 117
54 86 102
55 88 110
59 93 130
57 89 118
57 90 122
57 90 120
55 87 103
55 88 115
56 89 121
57 90 120
57 90 124
56 89 116
56 89 112
58 92 127
57 90 124
59 93 128
57 91 119
59 93 134
59 93 134
57 90 113
58 91 125
58 91 113
59 93 127
59 93 137
60 94 139
59 93 119
59 93 128
57 90 115
58 92 122
59 93 131
59 94 131
57 91 115
58 92 112
58 92 124
58 91 121
58 92 122
58 91 122
58 92 122
59 93 126
58 92 122
58 92 123
58 92 122
60 94 129
58 92 128
56 89 108
58 91 117
58 91 114
60 95 141
58 92 120
58 91 117
59 92 129
57 90 111
59 92 122
59 93 125
57 90 114
57 90 118
56 89 108
58 92 134
58 92 122
58 91 123
57 90 120
60 94 133
56 88 103
59 92 125
57 89 119
58 91 127
57 90 129
57 89 129
59 92 124
57 89 128
57 88 123
56 89 120
58 90 121
56 88 109
58 90 123
55 87 100
57 89 120
58 89 128
55 87 115
53 83 112
54 84 118
55 86 115
54 84 102
55 85 105
54 84 106
52 81 98
54 84 103
52 80 99
53 82 108
47 72 77
44 66 72
111 132 50
175 198 0
174 197 0
175 198 0
110 112 36
78 77 32
68 68 23
72 71 27
66 66 23
60 61 9
59 61 20
59 61 22
69 72 20
51 54 13
58 58 16
67 70 22
61 65 18
76 78 13
79 80 26
71 73 21
75 79 30
89 90 40
93 94 37
78 79 31
92 93 36
93 93 36
103 102 43
107 106 45
110 109 43
116 114 47
114 112 43
110 108 47
113 113 50
105 105 49
124 121 55
130 127 54
121 119 53
113 112 49
122 120 50
126 124 49
136 133 56
129 126 55
140 136 59
130 127 57
137 134 63
141 137 61
135 131 50
151 146 70
139 136 59
147 142 67
143 138 61
143 139 61
149 144 66
147 143 56
145 140 60
149 145 69
146 142 57
151 148 64
146 142 60
150 146 64
157 152 68
160 153 68
155 150 67
153 147 68
157 150 64
159 153 70
152 148 64
159 153 68
157 152 68
158 151 74
151 146 63
157 150 64
153 148 61
161 155 68
159 154 66
160 154 69
162 155 72
162 156 72
161 155 68
158 153 67
163 156 73
164 157 75
156 151 55
157 149 65
161 156 74
162 157 74
165 159 73
164 157 72
162 156 75
162 155 71
160 154 72
165 159 74
157 152 59
157 152 63
160 153 65
168 161 78
161 156 72
164 158 71
163 156 69
163 156 71
159 152 68
160 154 75
162 155 74
165 158 70
156 150 67
164 157 75
151 145 63
160 155 68
164 157 77
165 160 75
164 158 75
159 152 67
159 152 71
161 155 76
158 151 70
156 150 68
156 150 65
159 153 71
155 149 65
158 152 70
151 146 58
158 151 66
159 153 69
160 153 75
157 151 70
161 155 71
161 155 75
160 154 66
152 147 64
160 153 74
157 151 69
155 148 63
151 145 64
154 148 67
151 146 63
155 149 62
159 151 70
154 148 66
161 154 76
149 142 75
159 152 77
155 148 73
157 151 74
162 156 79
151 144 64
155 149 64
152 146 71
155 150 63
152 146 65
150 144 61
152 146 69
171 188 125
167 186 114
168 186 121
165 184 107
168 185 114
166 184 109
169 187 127
165 184 104
166 184 104
166 185 109
165 184 97
167 186 114
166 185 102
166 184 109
162 180 91
166 185 114
162 181 94
160 180 75
167 185 112
164 183 94
165 184 104
163 182 97
162 181 94
165 183 94
164 183 102
165 183 102
160 180 88
164 183 99
159 179 75
160 179 79
159 179 64
161 180 85
164 183 99
160 179 91
161 180 91
163 182 88
160 180 79
157 177 56
164 183 99
161 181 79
159 178 88
160 179 56
156 176 56
156 176 72
158 177 72
156 175 51
160 180 75
157 178 60
157 178 64
155 176 60
160 179 75
157 177 60
156 175 60
156 177 51
156 176 45
155 175 45
154 175 22
157 177 45
153 173 22
154 174 39
153 173 51
154 174 45
151 172 0
152 173 32
155 174 32
151 172 32
154 175 22
150 171 0
152 172 0
154 173 0
150 171 0
150 171 0
152 173 0
151 171 0
152 171 0
151 171 0
149 170 0
149 170 0
149 170 0
147 168 0
148 168 0
147 168 0
149 170 0
151 172 0
144 164 0
147 168 0
150 170 0
150 170 0
146 167 0
150 171 0
143 163 0
148 168 0
148 167 0
145 166 0
144 164 0
143 162 0
146 167 0
148 167 0
140 161 0
144 164 0
146 165 0
141 161 0
145 165 0
141 159 0
143 162 0
137 156 0
138 156 0
138 155 0
127 144 0
134 151 0
125 144 0
130 147 22
126 145 22
123 141 32
111 128 37
114 131 42
110 127 42
93 111 51
92 110 48
94 112 44
86 104 57
81 99 58
65 86 70
81 101 69
71 92 51
66 87 69
55 75 70
48 72 83
49 72 62
46 68 59
45 67 65
45 71 87
40 65 49
38 60 55
37 59 55
41 63 56
40 60 44
44 65 48
55 72 51
74 90 32
85 102 32
82 99 43
113 131 58
130 147 76
147 165 101
149 165 121
151 172 60
175 198 0
175 198 0
174 197 0
142 165 59
44 71 83
50 80 105
51 82 100
51 82 100
54 85 105
53 84 105
56 88 125
53 84 108
54 86 112
55 87 107
59 92 125
56 89 118
55 87 101
55 88 115
57 91 124
56 89 116
58 91 129
59 93 123
57 90 121
56 89 116
57 91 123
57 90 115
56 89 111
58 92 130
59 92 111
57 90 113
58 91 122
58 92 123
58 92 125
56 89 113
57 91 125
58 92 123
59 93 125
58 91 122
59 92 124
57 91 118
59 93 119
59 92 128
58 91 125
58 91 122
58 91 126
57 90 118
59 92 121
61 95 138
60 94 134
57 90 115
59 93 122
60 94 133
58 91 120
57 91 121
58 92 116
58 92 124
57 91 123
59 92 122
57 90 124
59 93 128
58 92 129
58 92 122
59 92 126
58 92 115
59 93 130
57 89 120
56 89 114
58 91 115
57 90 114
58 92 122
58 91 117
57 90 117
57 90 117
58 92 116
57 89 118
57 89 121
57 90 120
57 90 125
58 91 132
57 89 117
58 91 121
57 89 116
58 91 119
56 88 113
57 90 126
56 88 117
58 91 120
56 87 114
55 86 114
55 87 117
55 86 104
54 84 108
55 85 113
54 85 112
55 86 109
51 79 97
52 82 107
53 81 103
52 80 98
50 77 104
50 76 89
50 75 84
148 169 49
175 198 0
173 197 0
174 197 0
140 154 23
84 81 32
74 75 18
79 79 20
75 75 17
72 71 20
56 57 19
69 69 21
62 62 15
67 69 15
67 68 22
65 66 16
72 74 23
78 79 25
62 67 30
83 84 31
79 80 35
80 81 36
89 90 38
89 89 35
93 94 40
79 81 25
88 90 28
102 102 36
97 97 39
111 111 46
110 109 46
113 111 41
102 102 38
118 116 47
120 118 57
123 121 56
115 114 43
116 114 50
123 122 45
128 125 52
123 121 46
133 129 52
129 126 56
133 130 55
136 132 57
135 131 58
135 132 64
147 142 65
143 138 64
138 134 56
140 137 56
134 130 58
151 147 67
140 137 60
149 144 70
142 138 60
150 144 64
150 145 67
145 140 59
151 146 55
154 148 62
144 140 68
145 140 60
162 155 70
156 150 63
154 148 61
157 152 65
157 152 72
152 147 58
156 150 67
156 150 67
147 142 53
163 156 74
154 149 57
156 149 62
161 155 72
156 150 69
161 154 68
162 156 75
154 149 64
156 151 64
159 152 64
157 152 67
159 152 72
159 151 71
159 153 63
163 156 73
157 150 70
155 149 67
157 151 65
161 154 75
157 151 66
154 149 60
157 150 67
164 156 75
158 152 71
160 154 67
156 150 61
160 153 65
160 154 74
161 154 74
159 153 61
159 152 63
161 155 70
160 154 71
159 153 64
157 151 66
153 149 67
156 150 66
160 154 68
159 152 69
164 157 73
163 157 71
161 155 70
157 151 67
158 152 68
157 150 69
149 144 60
158 152 68
160 153 65
155 149 69
160 153 72
160 154 73
156 150 71
160 154 70
156 150 65
167 160 78
164 157 73
153 148 63
158 152 66
151 145 66
154 148 66
156 150 73
159 152 74
153 147 70
149 143 54
156 148 75
156 150 70
153 147 68
158 151 71
148 141 69
153 148 69
163 156 75
158 152 64
152 146 71
153 145 74
149 143 67
149 142 66
160 153 75
151 144 67
153 147 69
168 186 127
167 185 116
169 186 127
169 187 125
168 186 116
169 187 118
164 183 107
163 182 85
166 184 116
162 181 88
163 182 102
161 180 88
164 183 104
165 184 109
165 184 104
161 181 82
163 182 91
162 182 91
163 182 94
165 183 102
164 183 104
159 179 68
163 182 79
163 182 88
164 183 91
160 180 79
160 180 75
163 182 94
158 179 72
157 177 56
159 178 79
163 182 91
156 175 51
160 180 75
158 178 72
158 178 68
161 181 79
159 179 68
158 178 45
157 178 60
157 178 64
157 178 56
156 176 45
156 176 60
159 179 64
159 178 68
157 177 51
157 178 56
156 176 45
156 176 51
156 176 39
156 177 39
153 174 22
155 175 39
150 171 22
153 173 0
154 174 32
153 174 0
150 171 0
154 175 0
152 173 0
152 173 0
151 172 0
154 175 0
153 175 0
151 172 0
151 172 0
151 173 0
151 172 0
151 171 0
152 173 0
150 171 0
150 170 0
151 173 0
148 169 0
152 172 0
149 169 0
151 171 0
151 172 0
149 170 0
151 172 0
151 172 0
150 170 0
151 172 0
150 169 0
145 166 0
151 172 0
149 169 0
146 167 0
148 168 0
145 165 0
149 168 0
146 166 0
140 160 0
143 163 0
139 159 0
141 160 0
141 161 0
138 158 0
141 160 0
140 158 0
140 160 0
137 157 0
141 160 0
134 151 0
134 153 0
138 157 0
134 151 0
139 157 0
137 156 0
126 143 0
127 143 0
117 134 32
116 135 36
110 126 35
113 129 45
104 120 40
110 127 39
97 115 42
91 109 50
91 106 48
82 100 62
82 101 45
63 83 57
68 87 66
62 81 64
63 82 59
59 78 55
50 71 63
50 71 52
45 67 54
44 64 57
52 73 54
44 66 40
47 67 55
50 71 40
51 71 62
60 78 35
65 83 44
79 96 31
99 117 21
96 114 38
111 128 51
136 154 65
150 167 101
140 155 104
165 187 22
174 197 0
173 197 0
173 197 0
169 191 26
58 86 100
51 81 97
50 80 93
51 81 96
52 83 112
56 88 119
55 88 119
53 85 109
55 87 115
56 88 113
55 86 101
54 86 103
55 88 111
54 85 107
53 85 104
57 90 111
57 90 119
56 89 108
58 91 126
58 92 125
58 91 130
56 89 121
55 88 115
57 91 118
58 91 125
59 93 126
59 93 122
57 91 105
58 92 119
59 92 125
57 90 117
59 93 115
57 89 115
58 91 123
56 90 110
57 91 115
58 92 124
58 92 115
59 93 117
58 91 120
58 92 130
58 91 115
58 92 117
60 95 137
56 88 111
58 91 130
58 91 123
57 90 117
57 90 120
56 90 113
58 92 122
59 94 134
59 92 122
59 92 126
57 90 118
58 91 115
56 89 110
60 94 126
58 91 126
59 93 121
58 92 121
57 90 110
56 89 103
59 93 135
56 89 110
58 91 120
57 90 113
58 91 129
58 91 129
57 89 122
58 92 116
57 90 116
57 90 120
55 86 101
56 89 116
57 90 117
56 88 107
57 89 116
57 90 120
57 89 122
55 87 117
55 87 107
55 87 112
55 85 110
55 86 116
56 86 114
56 88 112
55 85 114
55 85 110
53 83 102
52 82 96
51 79 96
53 81 104
49 77 93
52 80 97
49 75 93
50 77 93
55 77 78
173 196 0
172 196 0
174 197 0
172 196 0
161 180 16
96 93 35
90 88 21
71 71 21
58 58 12
73 72 12
70 70 20
46 51 12
59 61 25
60 62 18
57 61 12
70 72 22
66 69 20
69 71 25
84 85 27
74 74 22
73 75 30
95 95 34
84 85 35
83 84 27
81 82 29
93 93 35
96 96 38
90 93 35
104 105 44
103 102 42
110 110 42
94 94 39
118 115 47
109 108 53
112 111 43
120 118 55
111 109 46
124 121 54
127 124 54
132 128 50
124 121 53
130 126 50
135 131 55
133 130 59
133 131 49
134 129 54
139 135 57
137 133 55
138 133 54
141 136 51
145 140 59
140 136 57
146 140 65
143 139 63
149 145 63
144 139 59
147 142 66
148 143 64
147 141 61
148 144 56
150 144 60
157 152 65
147 142 61
152 147 57
154 148 63
155 149 64
156 150 59
155 150 59
152 146 53
154 149 61
157 151 66
159 153 67
151 145 60
153 147 62
155 150 63
152 147 63
155 149 61
160 154 72
157 151 61
159 153 69
160 154 66
164 157 73
155 149 59
164 158 70
161 155 70
158 151 64
156 150 58
162 155 68
160 153 70
161 154 67
160 153 72
149 143 53
159 153 59
162 155 62
161 155 67
165 158 74
160 153 65
162 155 68
153 147 64
156 150 69
151 145 56
157 152 60
158 152 70
164 157 73
160 153 70
148 143 57
167 160 78
159 153 62
158 152 65
156 150 67
154 148 62
163 156 71
159 153 71
159 153 65
151 145 66
166 159 74
157 152 62
150 145 67
156 151 64
159 151 66
159 153 70
164 157 80
153 147 66
159 153 68
155 148 64
160 154 75
162 155 73
154 147 72
165 158 76
153 147 66
160 153 76
158 152 71
156 150 68
159 151 71
162 154 77
160 153 75
155 149 68
156 149 69
154 148 65
162 155 76
158 150 69
146 140 63
150 144 62
152 147 63
148 143 65
150 144 66
153 147 67
160 154 72
154 148 64
155 149 65
159 153 70
162 181 94
164 183 97
164 183 97
163 182 97
164 183 97
166 185 109
164 183 97
167 185 109
164 183 104
160 179 75
162 181 94
162 182 91
158 178 72
162 181 91
162 181 85
161 180 85
161 180 79
161 180 82
158 179 60
163 181 91
162 181 82
164 183 102
160 180 79
160 179 72
161 180 82
159 178 72
160 179 64
159 179 64
159 178 68
162 181 82
163 182 82
160 179 72
158 179 64
159 178 68
161 180 79
157 176 56
156 176 32
159 179 60
157 177 68
157 177 51
153 174 32
156 176 32
155 175 56
151 172 22
153 173 32
153 174 22
152 173 0
154 175 0
152 173 22
152 173 0
153 174 0
152 173 0
151 171 0
152 173 0
153 174 0
150 171 0
152 173 0
153 173 0
151 171 0
154 174 0
151 171 0
152 173 0
151 171 0
151 172 0
150 171 0
151 170 0
149 170 0
151 172 0
151 171 0
150 171 0
149 170 0
152 173 0
152 173 0
150 171 0
148 168 0
150 170 0
152 171 0
148 169 0
150 171 0
146 166 0
148 170 0
147 168 0
147 167 0
146 167 0
149 169 0
150 170 0
147 167 0
148 169 0
148 168 0
148 167 0
145 165 0
142 161 0
146 166 0
144 165 0
143 163 0
142 161 0
145 166 0
139 159 0
141 160 0
134 154 0
140 159 0
140 158 0
144 163 0
142 161 0
137 157 0
125 144 0
136 154 0
127 145 0
128 146 0
127 145 0
131 148 0
130 146 0
119 135 0
117 132 14
113 131 28
108 123 32
104 121 35
101 118 28
87 104 34
89 104 33
94 111 44
85 104 48
71 91 62
64 82 55
68 87 52
52 72 48
63 80 55
59 80 70
47 69 65
53 72 52
49 69 53
49 69 36
44 66 44
43 63 42
56 76 39
55 74 49
57 76 41
75 94 59
70 87 38
82 100 30
98 116 28
111 129 18
127 145 55
137 154 89
145 162 85
146 163 91
174 197 0
174 198 0
173 197 0
174 198 0
173 197 0
111 133 68
50 80 87
52 83 106
53 84 102
55 86 108
52 82 96
55 87 116
54 86 106
54 86 109
55 86 115
56 88 112
55 87 122
56 89 112
57 90 118
56 89 113
56 89 123
56 88 111
56 89 108
57 89 115
57 90 124
59 93 135
58 92 121
58 91 129
57 90 111
58 91 119
58 92 116
58 92 113
57 90 117
58 91 117
57 91 117
60 93 124
57 90 114
59 93 130
58 91 121
57 91 120
58 91 122
56 89 116
59 93 126
57 91 106
60 94 123
58 92 120
57 90 111
60 94 135
57 91 113
59 92 118
57 90 111
58 92 124
58 92 117
58 92 120
58 91 120
58 92 118
57 90 105
57 90 121
58 91 120
57 90 117
58 92 124
59 93 125
57 89 118
59 92 129
58 91 107
58 91 126
57 91 129
59 92 127
59 92 124
59 92 130
56 87 107
58 91 128
57 90 117
59 92 127
56 88 114
56 88 105
56 89 118
57 90 124
57 89 118
57 88 110
55 87 113
55 87 108
56 88 113
55 87 116
58 91 116
56 87 117
58 91 121
55 86 107
56 89 123
56 88 115
55 85 110
55 86 112
54 84 105
53 83 101
54 84 108
54 85 100
54 84 112
51 78 85
51 78 101
51 79 90
50 78 101
48 74 88
102 122 60
172 196 0
174 197 0
174 197 0
174 197 0
173 196 0
116 124 27
88 87 32
85 83 32
67 66 19
69 70 20
66 66 6
65 65 18
63 64 18
79 80 12
65 67 12
82 83 22
72 74 26
72 74 25
73 74 25
75 76 28
72 75 28
74 76 21
85 87 31
83 83 28
85 86 28
90 91 38
94 93 28
103 104 26
100 99 35
96 96 43
106 106 39
95 95 37
110 108 42
112 111 50
117 116 51
127 124 45
123 120 55
131 127 57
112 111 38
120 118 52
129 127 50
128 126 53
127 124 52
128 125 51
136 133 58
137 133 54
135 131 54
134 130 49
135 131 57
134 130 52
136 132 57
143 139 53
148 143 66
151 145 60
149 144 53
144 139 58
144 140 54
141 137 58
146 142 56
149 144 59
151 145 58
154 149 63
155 149 59
145 140 56
151 145 59
151 146 61
159 154 66
153 147 66
155 150 68
156 150 57
151 146 61
154 149 65
155 148 68
158 152 54
158 152 66
158 152 65
152 147 66
155 148 69
160 154 69
157 150 67
165 158 70
156 149 66
152 146 62
152 146 60
158 152 65
154 149 61
153 148 60
158 152 69
159 153 70
162 155 67
158 152 62
161 155 72
155 149 60
152 146 60
165 157 71
163 156 69
158 152 64
158 152 61
153 146 64
155 149 58
159 153 64
163 157 75
154 149 60
167 159 72
160 154 62
157 151 61
155 150 65
159 154 69
156 151 60
160 154 67
155 149 64
156 149 69
162 155 70
161 155 65
156 150 66
158 152 63
152 146 69
162 156 73
157 151 70
153 146 67
159 152 72
152 146 65
156 150 64
153 148 63
153 147 64
160 154 68
155 148 67
160 152 72
154 149 64
154 148 68
150 144 65
153 147 62
158 153 60
154 148 64
159 152 75
155 149 66
148 143 60
153 147 59
154 148 71
151 146 64
154 149 65
161 155 73
151 144 72
145 139 64
153 146 65
152 144 70
148 142 63
154 148 66
148 141 67
148 142 67
153 147 66
165 184 107
166 185 107
166 184 104
165 184 107
160 179 88
163 182 88
166 184 104
163 182 94
158 179 72
164 183 91
163 183 99
164 183 94
160 180 82
160 180 75
160 179 75
157 178 56
157 176 68
159 178 68
160 180 72
157 177 60
162 182 85
155 176 39
160 180 72
158 178 60
162 181 82
153 174 39
159 179 72
156 177 60
159 179 68
158 178 51
158 178 64
155 176 22
154 175 22
158 178 60
155 176 39
157 177 45
157 178 51
155 176 22
155 176 0
153 174 0
154 175 0
154 176 0
150 171 0
153 174 0
152 172 0
151 172 0
153 174 0
154 175 0
154 174 0
153 173 0
154 175 0
152 172 0
151 172 0
153 175 0
151 172 0
153 173 0
153 173 0
152 173 0
153 174 0
152 173 0
148 168 0
153 174 0
153 174 0
150 171 0
152 172 0
151 171 0
156 176 0
150 170 0
150 170 0
151 171 0
150 171 0
149 169 0
155 176 0
148 169 0
145 165 0
150 171 0
150 171 0
152 172 0
147 167 0
147 168 0
144 165 0
150 170 0
150 171 0
148 169 0
144 165 0
151 171 0
144 165 0
146 166 0
143 164 0
142 162 0
148 167 0
142 163 0
143 163 0
135 155 0
143 163 0
138 158 0
145 166 0
139 159 0
143 162 0
146 165 0
132 150 0
140 160 0
140 160 0
133 153 0
129 148 0
135 154 0
141 160 0
135 153 0
134 151 0
125 143 0
122 139 0
119 135 0
134 150 22
115 132 36
120 137 16
107 123 27
113 131 28
109 126 16
92 109 48
96 113 27
92 109 42
93 112 55
81 98 43
82 100 69
69 88 51
64 81 49
72 90 58
69 87 57
56 74 57
61 79 52
50 71 59
65 81 27
59 78 49
55 75 56
65 83 44
55 73 44
72 90 47
77 94 30
83 100 0
95 112 30
109 127 28
125 143 32
137 157 51
146 163 85
147 162 109
161 182 56
175 198 0
174 197 0
172 195 0
174 198 0
170 193 0
140 162 43
50 79 96
50 80 103
51 81 101
55 87 105
52 82 108
53 84 109
54 86 111
53 84 107
55 87 111
54 86 104
56 88 107
55 88 109
56 88 110
54 85 105
56 88 117
57 89 115
56 89 110
55 88 111
58 91 122
56 89 116
56 88 119
57 90 122
58 91 125
56 88 109
56 89 123
57 91 111
57 90 122
58 92 117
58 92 122
58 91 119
58 91 123
57 91 119
57 90 115
57 89 105
58 93 124
59 93 126
58 90 122
57 91 111
58 92 117
59 93 117
58 92 118
58 91 120
59 92 124
58 91 125
58 92 122
58 92 121
59 93 126
58 92 117
58 91 125
59 93 133
57 89 114
57 89 124
56 88 105
58 92 113
56 89 111
58 91 126
59 93 124
56 89 108
60 94 124
56 89 110
58 90 115
58 92 130
57 90 120
57 90 118
57 90 121
57 90 114
56 87 121
56 89 121
56 88 110
57 89 114
57 90 123
57 88 112
55 87 103
56 89 108
56 88 114
55 86 105
57 89 118
54 85 101
58 91 119
57 89 117
53 83 104
55 87 107
55 86 106
56 87 119
54 85 108
53 83 105
58 90 117
53 83 100
55 84 115
53 82 97
53 81 106
51 78 86
53 82 103
52 79 82
49 77 83
45 69 58
149 171 40
173 196 0
172 196 0
173 197 0
172 196 0
174 197 0
151 168 32
90 89 16
94 90 33
72 72 18
62 63 17
66 66 14
57 58 16
70 71 16
73 74 14
70 70 11
65 68 15
65 67 18
74 76 22
63 64 16
67 70 21
80 82 25
82 82 31
92 91 26
96 93 38
78 79 30
82 83 31
103 102 40
106 105 48
106 105 39
105 104 38
104 103 36
119 117 46
111 109 43
113 112 49
119 115 51
109 109 46
114 113 39
125 122 54
117 115 40
127 124 48
123 120 53
126 123 46
125 122 48
132 130 54
134 130 55
134 130 52
141 137 51
132 128 51
130 128 45
137 133 54
138 136 49
138 134 53
145 140 60
142 136 54
143 138 56
147 142 62
149 144 61
141 136 52
139 134 54
141 136 50
148 142 65
152 147 61
148 143 50
150 145 62
152 147 64
149 145 56
147 142 51
158 151 72
156 150 62
156 150 57
150 145 59
155 149 61
149 143 66
154 147 60
158 151 64
152 146 59
151 146 56
157 151 65
160 153 68
159 153 67
156 151 60
155 149 64
160 153 69
156 150 61
164 157 71
157 152 62
158 152 68
154 149 61
159 153 65
156 150 62
157 151 65
160 153 65
163 156 65
156 150 63
156 150 66
153 147 57
158 152 68
158 152 68
157 152 60
160 154 70
159 153 65
162 156 67
152 146 60
158 152 71
151 146 53
156 150 65
154 149 58
159 153 67
160 154 68
161 154 67
162 156 68
155 149 66
158 151 60
159 153 65
159 153 72
155 149 64
152 147 67
157 150 67
156 149 68
161 155 69
159 153 65
159 152 66
155 149 66
155 148 62
160 153 72
160 154 66
154 149 67
151 146 63
151 145 61
149 143 64
155 150 61
151 144 60
155 147 67
151 146 58
153 148 67
154 148 59
142 137 54
154 147 62
153 147 70
151 144 68
149 144 62
147 140 60
159 152 71
156 150 66
153 147 73
154 146 71
154 147 71
160 153 73
158 151 73
144 137 65
158 151 69
163 182 102
164 183 94
162 181 88
165 184 97
161 180 91
165 183 99
162 181 91
161 181 82
160 180 64
164 183 97
158 179 64
160 180 72
158 178 64
160 179 85
158 178 60
160 180 75
155 175 45
159 179 72
157 177 45
157 176 64
156 176 39
156 176 39
158 178 72
155 175 51
156 176 56
155 175 45
156 176 45
154 174 22
155 176 45
152 173 22
154 175 0
154 174 0
151 172 0
155 175 22
156 177 22
155 176 0
154 175 0
155 175 0
155 176 0
151 172 0
153 174 0
152 173 0
155 176 0
152 173 0
154 174 0
151 172 0
153 174 0
153 174 0
153 174 0
152 173 0
149 169 0
155 176 0
152 173 0
150 171 0
147 168 0
150 171 0
151 171 0
154 174 0
153 174 0
152 172 0
150 171 0
152 174 0
146 166 0
147 167 0
147 167 0
151 172 0
150 170 0
151 172 0
150 171 0
150 171 0
148 168 0
150 170 0
149 170 0
148 168 0
151 171 0
147 167 0
148 168 0
149 169 0
151 171 0
145 166 0
145 166 0
147 167 0
146 167 0
147 167 0
143 164 0
149 169 0
141 162 0
147 167 0
147 168 0
148 168 0
141 161 0
144 164 0
143 162 0
141 161 0
146 165 0
139 158 0
140 159 0
141 161 0
143 162 0
137 156 0
137 155 0
140 160 0
134 155 0
138 157 0
131 150 0
134 153 0
132 151 0
128 148 0
121 140 0
120 137 0
126 145 0
122 140 0
124 141 0
119 136 0
103 121 28
109 126 28
104 122 28
93 110 36
94 111 27
103 119 28
101 118 52
77 95 60
82 98 32
73 91 45
76 95 49
78 94 53
74 92 55
59 78 42
63 79 41
64 82 38
49 68 50
58 76 57
57 75 31
64 81 34
67 83 45
67 85 48
83 100 37
86 103 36
96 113 18
103 122 24
110 129 28
127 146 27
141 160 39
141 159 82
136 153 72
174 197 0
175 198 0
175 198 0
173 196 0
172 196 0
173 197 0
171 195 0
73 97 70
52 82 97
50 80 97
50 80 100
53 84 103
54 85 114
54 86 104
54 85 107
55 87 106
55 88 110
55 87 102
56 88 121
56 88 108
53 84 108
58 92 124
58 92 108
58 91 119
56 89 113
57 90 112
55 87 116
57 90 118
56 88 112
54 86 105
58 92 116
56 89 109
56 90 109
57 90 111
56 89 112
57 90 108
57 89 113
57 89 119
58 92 119
58 91 124
58 92 124
58 91 119
58 92 124
59 92 133
58 91 117
56 89 124
56 89 122
58 91 115
56 88 109
58 92 118
58 91 135
57 91 122
58 91 121
59 94 126
58 92 121
59 92 125
58 91 121
56 90 111
58 91 113
58 92 120
55 87 102
57 91 122
59 94 124
57 90 118
58 90 122
58 91 115
58 91 120
58 91 122
55 87 107
57 90 118
56 89 110
58 91 118
56 89 114
58 91 123
54 86 104
57 90 114
57 90 117
58 90 121
55 87 96
58 91 114
57 90 117
56 88 115
55 88 102
56 88 119
57 90 127
57 90 129
55 88 107
55 86 107
54 85 98
56 87 113
54 84 101
56 86 121
55 86 115
52 80 94
53 83 101
54 83 106
52 80 99
55 85 109
52 80 97
51 78 91
50 75 78
49 76 86
75 95 66
171 194 8
176 199 0
170 194 0
174 198 0
171 194 0
173 196 0
173 196 11
126 128 42
87 84 37
94 91 35
68 67 2
72 72 22
60 61 10
69 69 18
60 63 12
63 65 14
65 69 25
86 85 15
61 65 27
88 87 14
72 74 11
75 78 24
89 88 23
99 98 30
95 97 34
92 91 31
85 86 31
96 96 33
104 103 33
101 101 33
98 98 24
110 108 38
103 101 27
112 111 42
117 115 46
110 108 32
120 117 48
115 113 45
114 112 45
128 125 49
129 125 48
126 122 45
135 132 53
127 124 51
126 123 48
130 127 47
133 129 56
134 129 44
141 137 53
135 131 47
135 131 42
138 134 54
136 131 49
138 134 48
143 139 60
142 138 54
143 139 52
155 149 65
147 141 59
141 136 53
140 136 58
146 141 52
141 137 54
143 140 51
147 142 58
151 145 53
150 145 63
151 147 58
154 148 63
156 150 57
147 141 56
147 141 60
154 148 65
148 143 53
158 151 68
165 158 70
159 153 66
152 147 58
157 152 59
158 152 62
163 156 75
146 141 54
153 148 59
154 148 64
161 154 68
159 152 69
159 153 61
157 151 66
153 147 57
158 152 59
155 149 62
151 146 54
154 147 60
152 146 57
160 153 67
155 148 66
161 155 66
155 150 59
163 157 75
158 152 63
157 152 63
162 155 66
159 153 61
159 153 65
155 149 61
152 147 59
164 157 72
151 146 58
156 150 62
154 149 65
161 154 66
151 146 54
157 151 71
150 144 59
162 156 71
155 148 64
156 150 61
160 154 64
157 151 72
155 149 59
158 151 71
157 150 69
155 148 67
158 151 68
156 150 62
156 151 70
157 151 69
152 147 61
157 151 61
162 155 74
155 148 64
154 148 66
158 151 69
155 149 68
146 141 61
146 141 59
152 146 61
153 147 65
152 146 66
146 141 59
144 137 62
158 152 69
148 142 65
145 138 61
150 145 54
142 137 58
154 147 66
147 141 62
147 142 58
149 143 53
147 141 67
148 142 67
161 181 88
160 180 75
159 178 79
163 182 85
161 180 82
159 178 60
158 178 72
163 181 91
155 176 56
159 178 64
162 181 85
158 179 64
158 178 64
159 179 72
157 178 56
156 176 39
156 176 56
156 177 45
157 177 56
156 176 32
154 175 39
155 175 22
157 178 39
155 175 32
157 178 39
154 175 22
152 174 22
155 176 22
153 174 0
154 175 0
153 173 0
152 172 0
155 175 0
153 174 0
154 174 0
155 176 0
153 175 0
151 172 0
151 172 0
154 174 0
154 176 0
154 175 0
153 174 0
153 175 0
150 171 0
151 172 0
155 176 0
150 172 0
151 172 0
150 171 0
150 171 0
152 172 0
154 175 0
151 172 0
151 172 0
152 172 0
151 171 0
148 169 0
149 170 0
148 169 0
148 169 0
152 172 0
153 173 0
147 168 0
152 172 0
149 170 0
153 174 0
148 168 0
146 166 0
149 170 0
149 170 0
148 168 0
150 170 0
146 167 0
145 166 0
147 168 0
147 167 0
146 166 0
149 169 0
149 169 0
148 168 0
150 170 0
146 167 0
147 168 0
145 165 0
145 165 0
144 165 0
145 164 0
147 168 0
143 163 0
147 168 0
136 156 0
142 161 0
144 165 0
138 158 0
142 162 0
138 159 0
138 158 0
135 155 0
136 155 0
140 159 0
130 149 0
133 152 0
131 150 0
135 154 0
136 156 0
133 151 0
123 141 0
129 147 0
131 150 0
126 144 0
121 138 0
118 136 0
125 142 16
109 127 16
107 123 0
92 109 27
93 111 36
104 122 28
94 112 39
86 103 28
92 108 16
88 104 48
81 98 31
77 93 22
85 101 49
58 76 45
59 76 32
64 80 41
74 91 48
56 73 32
66 82 30
68 86 37
69 86 27
71 88 31
66 84 34
78 95 24
92 110 14
92 108 26
111 128 26
123 142 21
144 164 0
144 163 45
132 149 72
158 179 51
175 198 0
172 196 0
170 193 0
170 194 0
173 197 0
173 197 0
172 195 0
115 137 53
49 77 85
52 83 102
53 84 91
49 78 94
53 84 103
53 84 106
54 85 108
55 87 115
55 87 111
56 88 113
55 86 115
56 88 115
56 89 121
57 90 109
57 90 118
56 88 109
58 91 116
56 88 108
54 86 98
54 86 106
57 91 117
56 88 117
55 88 99
56 89 110
55 87 115
55 87 105
58 91 123
58 92 123
56 89 113
56 88 119
58 91 125
56 89 117
57 90 122
57 90 118
58 92 119
59 92 118
57 91 120
59 92 121
55 87 107
57 91 124
61 95 132
57 91 117
58 92 121
56 89 107
57 90 103
57 89 108
58 91 114
56 88 103
58 92 124
58 91 120
59 93 133
57 91 126
55 87 103
57 90 120
57 90 117
56 88 103
58 91 120
57 90 108
58 91 121
56 89 114
57 90 120
58 91 120
57 90 121
55 87 114
57 90 114
56 88 110
58 91 117
57 90 113
53 84 104
57 90 111
57 90 107
55 87 115
56 88 112
56 88 110
58 90 121
55 86 110
55 86 117
55 87 107
54 86 108
53 82 101
56 87 113
54 85 112
55 85 105
55 86 106
50 78 95
54 84 114
53 82 96
50 78 94
51 80 73
51 78 94
51 78 90
53 82 102
49 76 93
47 72 94
125 146 61
172 195 0
170 193 0
173 196 0
173 196 0
173 195 0
175 197 0
172 196 0
151 169 16
85 82 32
87 84 22
82 80 25
64 65 18
66 65 21
71 71 16
67 69 14
73 73 14
80 79 14
72 72 19
76 78 23
69 71 16
74 74 23
80 80 18
92 91 26
92 91 26
90 90 28
87 87 34
91 91 34
98 98 28
104 103 45
93 91 24
96 96 33
94 94 34
99 98 33
101 101 36
102 102 37
106 105 35
117 115 39
112 111 41
121 117 42
112 111 37
124 121 45
126 123 44
120 119 40
125 122 48
132 128 44
129 125 48
132 127 46
125 123 45
130 126 56
136 133 51
134 130 48
136 132 52
139 134 50
142 138 54
147 142 58
143 139 46
135 131 48
138 134 53
143 137 53
143 138 54
144 139 58
143 138 61
143 139 54
146 141 47
158 151 73
147 142 52
139 135 48
148 144 53
147 142 66
149 143 60
150 145 61
145 141 52
156 150 61
152 146 61
155 149 64
152 147 55
153 146 66
161 154 67
151 146 59
158 151 64
154 148 61
154 147 61
152 147 58
163 157 72
151 146 62
162 155 68
161 154 74
159 153 62
159 153 67
154 148 62
157 151 64
154 148 56
156 149 60
151 145 59
153 148 63
161 155 66
158 151 67
154 148 56
158 151 62
166 158 75
157 150 64
159 153 67
152 147 61
159 152 65
160 152 64
160 154 63
151 144 62
153 146 64
159 153 63
156 150 66
151 146 54
161 155 69
159 152 66
153 147 60
156 150 60
157 151 64
150 144 56
152 144 65
152 146 64
157 149 67
158 152 69
154 148 60
159 153 68
151 145 59
160 153 70
159 152 76
152 146 64
155 150 58
149 143 62
148 143 59
160 154 65
144 139 57
156 149 63
149 144 59
149 143 66
159 152 67
156 150 67
153 147 70
157 150 67
151 145 65
155 149 68
150 144 66
152 145 63
153 147 67
153 146 67
154 148 61
155 148 75
153 146 69
145 139 62
153 146 64
154 148 70
154 146 67
160 179 72
160 179 79
159 178 85
161 181 79
162 182 85
159 178 72
158 179 45
159 179 60
157 178 60
161 180 75
159 179 64
158 178 51
155 176 32
156 176 60
154 174 22
155 176 32
155 176 51
154 175 22
154 175 22
156 177 22
152 173 22
154 174 0
155 175 0
154 175 0
156 176 0
152 172 0
152 173 0
153 175 0
153 174 0
156 176 0
153 174 0
154 175 0
154 175 0
153 174 0
152 173 0
152 173 0
153 174 0
149 170 0
149 170 0
152 173 0
152 173 0
152 173 0
150 171 0
152 172 0
150 171 0
152 173 0
148 168 0
152 173 0
152 173 0
153 174 0
150 171 0
153 174 0
150 171 0
152 173 0
152 173 0
148 169 0
152 172 0
148 169 0
151 172 0
149 170 0
152 173 0
150 172 0
150 170 0
149 171 0
148 169 0
147 168 0
148 168 0
149 170 0
150 171 0
149 169 0
148 168 0
146 167 0
151 171 0
144 165 0
152 173 0
150 170 0
146 167 0
147 167 0
143 164 0
151 171 0
152 173 0
147 167 0
146 166 0
137 158 0
145 165 0
149 170 0
146 166 0
145 166 0
146 166 0
143 164 0
143 164 0
143 164 0
140 161 0
139 158 0
143 164 0
139 160 0
139 159 0
135 155 0
139 159 0
133 152 0
132 151 0
139 157 0
135 155 0
124 143 0
134 153 0
127 146 0
126 143 0
126 145 0
127 146 0
128 146 0
120 137 0
137 155 0
117 135 0
123 142 0
121 138 0
112 130 0
102 119 22
108 126 27
109 125 14
98 113 22
96 113 32
93 111 50
76 94 39
76 93 31
83 99 42
73 89 28
70 86 36
64 81 31
65 81 42
68 84 32
67 84 32
76 91 24
69 86 38
77 94 28
75 90 39
77 93 16
88 106 20
103 120 14
116 135 0
131 150 21
132 151 26
133 152 22
137 155 56
147 165 85
172 195 0
171 194 0
174 197 0
170 194 0
173 196 0
173 196 0
169 193 0
172 195 0
166 189 22
56 83 76
49 77 72
53 84 95
51 81 80
52 83 98
53 84 96
55 86 111
52 84 101
56 89 109
54 86 104
55 88 107
56 88 112
57 89 118
56 89 120
55 86 106
55 86 106
55 87 108
57 91 114
59 92 124
56 88 111
56 89 109
56 89 110
56 89 111
55 88 103
56 88 118
58 91 121
56 89 112
58 92 126
56 89 108
57 90 118
58 91 121
58 92 122
57 90 107
58 91 118
56 89 103
57 90 118
58 91 118
56 89 103
56 88 110
56 89 113
56 89 105
57 90 122
56 89 117
59 92 121
55 86 108
60 95 126
57 90 117
58 92 117
59 93 129
55 88 111
58 91 119
58 91 121
57 90 114
57 89 115
58 91 113
53 84 86
56 89 115
56 89 107
55 88 113
58 91 121
57 89 113
57 90 117
56 88 111
57 90 114
57 89 111
57 89 112
56 89 114
58 91 121
59 92 128
56 88 108
56 87 117
56 88 114
56 88 115
54 85 100
57 88 109
55 87 109
56 88 114
55 86 108
54 85 104
54 84 99
54 85 104
54 85 110
53 83 89
55 85 103
52 82 104
54 84 107
53 82 101
54 83 101
52 81 96
52 81 87
54 82 104
47 73 67
46 71 78
51 74 67
161 183 19
173 197 0
171 195 0
169 193 0
171 194 0
172 196 0
172 196 0
174 196 0
171 195 0
112 115 38
84 82 22
79 77 29
77 77 19
70 69 8
76 76 16
53 55 16
72 71 20
58 61 14
69 71 20
72 74 18
66 66 12
80 79 21
77 77 18
85 84 20
82 82 23
85 84 21
97 96 30
93 91 12
97 96 32
93 93 24
102 100 29
101 100 34
102 100 22
105 103 39
106 106 37
117 114 31
123 120 34
113 110 42
119 115 35
125 123 48
116 113 40
124 121 49
120 118 42
119 117 38
126 123 45
121 118 42
131 128 48
136 132 44
129 126 46
130 126 47
126 121 38
130 127 49
137 132 55
136 132 37
125 122 35
134 130 42
145 139 51
147 140 61
146 140 55
140 136 48
144 139 54
144 137 58
153 147 56
140 135 49
149 143 59
151 145 55
143 139 53
148 142 56
150 144 63
146 141 53
152 147 57
151 146 57
151 147 52
152 146 58
149 145 54
153 148 65
155 150 60
157 151 62
152 146 52
155 149 57
151 145 51
151 144 58
154 148 60
153 148 57
151 147 58
158 151 64
153 147 60
158 150 65
149 143 54
157 151 53
154 148 61
160 152 66
148 142 51
159 152 67
159 152 62
155 148 65
159 151 59
155 149 64
156 149 61
156 150 64
164 157 71
154 148 61
157 151 62
161 154 62
152 147 54
158 151 59
160 153 63
154 148 61
158 152 60
156 149 66
157 150 63
155 150 58
155 149 56
161 154 67
159 152 64
159 153 65
157 151 67
151 145 56
152 146 62
149 143 62
154 147 68
150 144 63
155 149 61
155 149 66
152 146 58
149 143 61
160 153 67
147 141 56
157 149 62
152 147 62
152 146 66
148 143 59
155 148 61
149 143 61
148 142 57
154 148 69
155 149 65
152 146 64
151 144 61
149 143 57
151 145 67
158 151 73
147 141 62
150 144 61
152 145 62
145 139 60
155 148 68
146 141 59
148 142 62
150 145 58
154 147 65
151 145 66
150 145 64
159 179 64
156 176 64
165 184 99
159 179 68
156 177 45
158 178 56
155 175 32
157 177 45
158 178 56
158 178 39
152 173 0
154 175 22
154 175 22
154 176 22
154 175 22
156 177 22
156 176 32
155 176 0
154 174 0
154 174 0
154 175 0
152 173 0
153 173 0
154 175 0
151 171 0
154 174 0
156 176 0
154 175 0
151 172 0
151 173 0
152 173 0
152 173 0
155 176 0
155 176 0
153 173 0
153 174 0
155 175 0
154 174 0
153 174 0
152 173 0
150 172 0
153 174 0
152 173 0
152 172 0
151 172 0
151 171 0
151 172 0
153 173 0
151 172 0
149 170 0
152 172 0
150 171 0
151 172 0
152 172 0
150 172 0
146 167 0
150 171 0
152 173 0
149 170 0
150 171 0
148 168 0
148 168 0
146 167 0
145 166 0
150 170 0
148 169 0
148 169 0
147 167 0
144 164 0
146 166 0
142 162 0
147 168 0
147 168 0
151 172 0
144 165 0
150 171 0
146 166 0
146 167 0
145 166 0
144 163 0
147 169 0
143 164 0
146 165 0
147 167 0
141 161 0
143 162 0
145 165 0
140 160 0
142 161 0
143 163 0
140 161 0
140 160 0
141 160 0
141 161 0
139 158 0
141 161 0
141 161 0
136 157 0
141 160 0
129 148 0
144 163 0
131 149 0
137 156 0
132 151 0
133 152 0
134 154 0
126 144 0
125 145 0
125 144 0
120 137 0
117 136 0
126 145 0
117 135 0
120 139 0
113 130 0
119 137 0
111 128 0
105 122 0
108 125 14
97 113 28
97 113 21
95 112 22
83 100 39
86 103 28
92 107 16
72 89 36
83 99 41
71 87 34
80 95 22
71 88 47
71 86 22
75 92 35
78 94 44
65 81 0
83 100 14
110 128 28
85 101 10
104 121 31
111 129 22
134 152 10
139 158 0
125 144 22
127 144 45
155 176 32
173 196 0
171 195 0
173 196 0
172 195 0
169 193 0
173 196 0
172 195 0
169 192 0
172 195 0
112 133 63
49 78 90
51 82 89
54 86 104
54 85 107
54 86 98
51 81 91
56 88 114
56 88 112
57 89 121
55 87 97
56 89 113
55 87 100
55 88 106
53 85 93
55 87 102
56 89 112
53 84 107
57 89 115
58 91 125
55 86 106
57 90 109
56 89 104
57 90 118
57 90 116
56 89 112
56 89 109
55 88 106
55 87 105
56 88 119
57 90 105
56 89 115
55 87 106
56 89 125
56 88 106
55 88 97
56 90 113
56 89 102
58 92 120
56 88 113
57 91 106
58 92 118
56 89 106
57 90 118
57 89 117
59 93 125
57 89 117
58 90 125
59 92 122
59 93 124
56 89 105
55 88 105
57 90 111
58 91 117
55 88 108
56 88 110
58 91 116
57 90 115
57 90 114
57 89 111
56 88 113
55 87 102
57 89 113
54 86 104
57 91 120
57 90 118
57 89 114
58 92 124
56 88 109
57 89 110
57 89 108
55 85 113
56 87 115
58 90 117
53 83 93
56 89 114
56 88 108
57 89 101
53 83 108
54 84 105
55 85 112
55 86 110
54 84 104
53 83 108
55 86 111
49 77 81
51 78 87
53 82 99
51 77 90
50 78 96
49 74 80
48 75 88
49 74 81
110 132 59
171 194 0
170 193 0
172 195 0
173 196 0
171 194 0
170 193 0
172 195 0
170 193 0
169 191 0
148 165 19
82 78 36
89 87 28
81 79 19
78 78 18
70 69 16
78 78 18
80 80 16
79 78 14
65 64 8
69 71 9
69 70 12
69 71 19
82 81 18
82 83 15
93 91 15
90 90 20
91 90 21
94 92 29
96 93 33
91 91 25
90 89 16
107 106 33
104 102 26
110 107 45
101 100 25
97 96 28
120 118 35
114 112 42
116 112 38
108 106 32
121 119 34
125 122 45
123 121 42
124 121 46
123 119 31
126 122 37
123 120 37
127 122 42
130 126 48
132 129 50
135 130 43
138 134 46
129 125 37
137 132 48
143 138 48
141 136 51
136 132 49
142 138 51
144 138 60
145 140 56
145 140 54
134 130 50
146 140 56
140 135 40
138 132 50
153 147 58
140 136 48
149 143 51
149 143 61
155 149 55
149 144 59
155 149 62
151 146 54
152 146 49
153 147 51
149 143 58
148 143 53
150 145 54
150 143 53
152 145 58
155 150 62
149 143 54
158 151 65
153 147 56
157 150 60
155 149 57
155 149 70
154 148 61
156 149 58
149 142 61
160 153 61
156 149 63
152 145 61
158 151 59
156 150 63
156 149 61
155 149 65
156 150 62
156 150 64
151 146 57
158 152 66
149 143 52
153 148 59
154 149 52
147 143 58
157 151 64
157 151 57
155 148 61
157 151 57
160 153 63
157 151 60
158 151 69
154 149 61
152 146 60
158 151 69
147 142 54
154 148 63
150 146 52
157 150 63
161 154 68
154 147 66
152 146 62
161 155 64
151 144 60
160 153 70
150 145 58
158 151 68
148 142 61
156 148 72
146 140 60
149 143 63
158 153 65
153 146 64
152 147 67
155 149 60
147 141 63
151 144 58
159 152 68
147 141 60
149 143 62
152 145 62
157 150 65
158 151 70
152 146 68
159 152 74
150 144 67
146 140 62
156 149 67
155 148 66
150 144 65
146 140 64
146 140 61
153 146 67
157 178 45
158 178 45
156 177 51
156 176 51
159 179 64
159 179 68
157 177 45
157 177 32
154 174 45
155 175 39
154 175 22
156 177 22
157 177 0
155 176 0
152 174 0
154 175 0
153 175 0
152 173 0
154 175 0
154 175 0
153 173 0
152 173 0
153 174 0
152 173 0
153 173 0
154 175 0
152 172 0
153 174 0
154 174 0
149 169 0
153 174 0
151 172 0
152 172 0
151 173 0
151 172 0
155 175 0
154 175 0
151 172 0
153 174 0
150 172 0
155 176 0
153 174 0
152 173 0
154 174 0
152 173 0
152 173 0
150 171 0
151 172 0
154 174 0
149 170 0
151 172 0
152 172 0
150 171 0
150 171 0
150 172 0
152 173 0
148 168 0
145 165 0
150 171 0
148 169 0
148 169 0
147 169 0
149 169 0
150 170 0
149 171 0
151 171 0
151 171 0
149 170 0
149 169 0
146 166 0
147 168 0
146 166 0
149 170 0
146 167 0
143 163 0
147 167 0
149 169 0
144 165 0
143 163 0
143 163 0
144 164 0
145 166 0
144 164 0
144 164 0
144 163 0
148 169 0
143 163 0
143 163 0
134 154 0
141 161 0
140 160 0
145 165 0
139 159 0
139 158 0
137 156 0
136 156 0
137 156 0
141 159 0
136 156 0
133 152 0
138 158 0
129 148 0
134 153 0
131 150 0
129 148 0
129 147 0
132 150 0
133 152 0
127 146 0
124 142 0
127 145 0
118 136 0
115 133 0
117 135 0
119 135 0
118 135 0
117 134 0
105 122 0
110 127 22
100 115 0
101 117 16
84 100 28
89 104 22
81 97 28
89 105 22
69 85 32
90 104 22
80 96 28
88 103 23
81 96 22
81 97 30
86 101 27
81 97 36
84 100 21
89 105 32
102 118 16
102 120 27
119 138 0
132 151 0
133 152 0
140 159 0
136 155 39
134 152 32
173 196 22
175 197 0
172 196 0
172 195 0
172 196 0
167 191 0
170 194 0
173 197 0
172 196 0
174 197 0
160 183 29
49 77 83
50 79 84
49 79 86
52 83 98
52 83 96
52 83 105
52 82 87
55 87 103
53 84 101
53 85 103
55 86 112
55 87 104
57 90 117
55 88 95
54 86 111
56 88 117
56 89 102
56 88 119
57 89 120
54 86 100
56 88 120
55 88 112
54 86 95
55 87 106
56 89 109
54 87 98
57 90 117
57 91 115
55 87 114
55 88 106
58 91 121
59 92 119
56 88 110
56 89 109
59 93 118
58 91 110
56 89 115
55 88 103
58 92 119
59 92 111
56 89 110
59 92 122
56 88 105
57 90 118
58 91 121
57 90 107
56 89 114
57 90 115
56 89 114
58 90 114
57 89 103
57 89 117
57 90 113
57 90 121
57 89 114
56 89 110
56 88 111
58 91 117
57 89 114
58 91 113
56 89 111
56 89 110
58 91 120
53 85 82
56 88 114
57 89 119
56 89 108
57 89 120
57 89 115
57 89 113
56 87 116
55 87 116
58 91 119
55 87 113
57 90 113
55 86 104
54 85 106
56 88 111
53 83 97
54 85 95
53 84 94
53 83 104
53 83 103
53 84 103
52 81 96
53 83 100
52 80 98
51 79 93
52 81 90
51 78 95
49 76 77
51 74 65
160 182 19
173 195 0
164 187 0
171 193 0
173 196 0
171 194 0
166 190 0
172 194 0
170 194 0
171 195 0
174 197 0
119 123 37
84 83 23
86 84 23
92 88 26
80 80 14
73 72 14
87 86 23
72 71 14
76 74 18
85 85 24
83 83 16
75 76 20
84 84 16
72 75 18
80 79 8
83 83 21
85 85 19
82 83 18
99 97 27
85 85 24
90 89 27
102 101 29
101 100 28
106 104 36
107 106 37
110 108 33
114 111 38
118 115 34
111 107 39
109 108 31
123 120 37
123 119 42
114 112 39
131 125 50
123 120 34
126 121 46
127 123 41
127 124 42
131 127 42
133 129 45
129 127 38
130 127 37
128 126 43
127 123 50
142 137 56
128 125 42
145 139 54
141 137 52
139 133 46
138 133 50
137 131 45
141 137 42
144 139 52
149 142 56
134 129 45
139 135 48
146 141 53
143 138 48
154 148 62
151 145 51
148 142 61
149 144 57
145 140 56
150 144 48
150 144 53
147 142 49
152 146 55
147 142 55
151 145 58
146 142 52
154 149 56
160 152 68
149 143 59
153 147 54
150 144 56
153 147 57
154 149 62
155 148 51
152 147 58
154 148 53
154 149 49
154 147 61
152 147 57
155 149 59
154 147 53
158 151 67
160 153 64
155 150 61
159 152 60
157 151 62
154 148 62
154 147 60
162 155 70
154 148 56
160 152 69
157 152 63
158 151 67
159 151 64
149 143 54
155 148 61
146 141 53
156 150 60
157 151 62
160 153 65
156 148 62
159 153 63
155 149 64
150 145 56
153 147 64
143 137 51
148 143 54
153 147 66
146 141 53
149 142 57
149 143 60
157 150 66
148 142 57
159 152 64
159 151 71
143 138 56
155 150 62
149 142 58
144 139 56
158 150 69
155 149 62
157 150 68
152 145 66
156 149 64
147 141 54
146 141 53
149 144 63
155 149 68
150 144 59
152 145 59
141 136 53
150 144 62
148 141 62
150 144 68
148 143 53
150 145 59
144 138 59
142 135 58
142 136 58
160 180 79
160 179 68
159 178 64
159 179 51
157 177 45
154 176 45
152 173 0
152 173 0
153 174 0
152 173 0
152 174 0
156 176 0
152 173 0
153 174 0
153 173 0
153 175 0
153 174 0
153 174 0
154 174 0
154 174 0
151 172 0
153 174 0
152 172 0
154 175 0
154 175 0
154 175 0
153 173 0
154 175 0
151 172 0
154 175 0
152 173 0
149 171 0
151 172 0
152 173 0
151 172 0
152 173 0
151 172 0
151 172 0
154 175 0
153 174 0
151 171 0
150 171 0
151 172 0
151 172 0
153 174 0
152 173 0
154 174 0
147 168 0
152 173 0
147 168 0
147 168 0
150 171 0
151 171 0
148 169 0
150 171 0
150 171 0
146 166 0
149 170 0
148 168 0
149 170 0
147 168 0
151 172 0
146 166 0
147 167 0
142 161 0
142 162 0
147 167 0
149 169 0
148 170 0
144 165 0
151 172 0
150 171 0
146 166 0
145 165 0
142 163 0
145 166 0
142 163 0
147 167 0
141 161 0
142 163 0
147 167 0
141 160 0
144 164 0
137 157 0
141 161 0
144 165 0
143 163 0
143 162 0
144 164 0
144 164 0
140 161 0
140 159 0
148 169 0
135 155 0
137 158 0
139 158 0
128 147 0
137 157 0
134 153 0
139 158 0
133 151 0
137 156 0
133 153 0
128 148 0
127 146 0
133 153 0
125 144 0
128 147 0
117 136 0
127 147 0
121 138 0
118 136 0
125 144 0
119 136 0
112 129 0
107 123 0
104 120 0
105 122 0
98 114 0
104 121 0
99 115 16
92 109 31
90 106 16
89 103 0
90 106 16
84 99 16
86 102 31
83 98 38
82 97 16
87 102 14
75 89 27
95 111 21
95 111 21
84 99 16
107 123 16
108 124 0
117 135 14
124 142 0
118 136 0
129 148 0
125 143 0
129 144 45
162 184 39
174 197 0
168 192 0
172 196 0
172 196 0
173 195 0
169 192 0
171 194 0
169 193 0
169 192 0
172 196 0
171 195 0
107 129 64
51 80 87
51 80 94
51 82 90
54 85 102
51 81 87
52 83 99
51 81 84
54 86 104
51 81 92
57 90 112
55 86 110
53 84 100
55 87 113
57 89 107
56 89 117
58 91 124
56 88 112
56 88 99
57 89 115
56 88 106
55 87 111
57 90 122
56 89 118
55 87 108
57 90 115
55 87 102
56 88 108
58 92 121
55 87 110
58 92 117
58 92 118
58 91 110
57 90 114
57 90 114
54 87 109
56 88 117
58 92 121
56 89 106
56 89 111
54 86 110
58 91 126
55 88 103
56 89 108
56 89 108
58 91 122
54 86 105
56 88 105
58 91 118
57 89 114
55 87 95
58 91 122
56 88 114
55 88 110
54 86 102
56 87 107
56 88 100
57 90 111
57 90 118
55 87 113
56 88 114
55 87 111
54 86 117
56 89 115
56 89 94
54 86 107
54 86 110
55 87 116
56 87 111
58 90 122
55 87 107
53 84 100
55 86 96
57 90 115
54 85 103
55 86 107
55 86 111
55 86 111
54 86 101
55 87 103
55 87 99
52 81 94
54 85 106
54 83 99
52 80 88
51 77 84
50 77 93
51 80 76
50 76 81
51 79 89
42 65 53
111 131 53
171 194 0
170 193 0
173 197 0
171 193 0
170 194 0
171 194 0
173 196 0
169 192 0
171 194 0
171 194 0
171 194 0
160 180 24
99 95 36
82 80 33
90 87 25
86 83 24
79 77 21
79 77 20
66 66 12
81 80 18
73 73 12
71 70 15
72 73 15
78 77 12
79 79 16
84 84 20
88 86 20
88 87 23
81 83 17
85 84 18
91 91 26
102 100 31
103 100 32
107 107 34
96 96 25
104 102 35
104 103 23
114 114 27
100 98 27
101 101 28
116 113 34
126 122 37
117 114 36
122 119 44
125 122 40
119 116 32
120 119 37
124 120 38
124 121 39
130 127 46
138 134 39
130 126 37
134 131 42
138 134 44
132 129 41
135 132 40
130 125 49
136 131 42
136 132 45
130 125 49
135 131 37
142 137 50
142 138 54
142 137 46
145 139 57
143 138 50
151 145 53
149 144 51
141 137 42
147 142 47
145 140 42
146 140 58
156 150 58
144 139 47
153 147 54
151 146 55
146 140 52
148 142 54
146 141 50
144 139 51
151 146 46
153 147 60
152 145 60
147 141 48
150 144 57
151 146 57
161 154 61
153 147 51
150 145 51
157 149 62
156 151 59
153 146 54
152 146 62
157 149 62
153 147 48
156 149 53
149 143 51
162 156 63
151 145 56
152 147 57
153 147 54
152 145 58
150 145 57
157 150 68
155 149 65
153 147 60
155 148 57
151 144 53
146 141 52
153 147 64
155 149 56
154 148 58
160 153 69
159 153 66
150 144 59
151 145 49
161 153 65
155 147 66
149 143 57
150 145 57
154 148 62
154 148 66
162 154 74
147 142 53
149 143 61
154 147 62
151 145 60
154 148 60
158 153 57
154 147 63
148 142 61
150 144 60
153 147 61
143 138 49
153 148 57
138 134 45
150 144 52
144 138 52
154 148 65
138 132 56
153 147 64
153 146 62
148 142 54
151 145 57
149 142 57
142 136 54
156 150 63
147 140 58
146 140 60
141 136 52
141 135 56
145 139 63
145 139 54
146 140 57
156 176 51
155 176 32
154 175 0
155 176 0
153 174 0
154 175 0
154 175 0
155 176 0
151 173 0
151 172 0
154 175 0
154 175 0
154 176 0
154 175 0
155 175 0
152 173 0
153 174 0
155 175 0
152 173 0
154 175 0
155 175 0
153 174 0
154 176 0
153 174 0
153 174 0
153 175 0
152 173 0
152 172 0
151 172 0
153 175 0
152 173 0
153 174 0
151 172 0
151 172 0
150 172 0
154 175 0
153 174 0
151 172 0
154 174 0
152 173 0
152 172 0
152 172 0
155 175 0
149 170 0
152 173 0
150 171 0
149 169 0
153 174 0
151 172 0
148 170 0
149 169 0
151 173 0
151 171 0
147 167 0
151 171 0
148 169 0
148 168 0
147 168 0
149 170 0
149 169 0
151 171 0
147 167 0
146 167 0
146 167 0
148 169 0
146 165 0
148 167 0
147 167 0
150 171 0
148 169 0
148 168 0
143 162 0
148 169 0
144 164 0
143 163 0
151 172 0
147 167 0
145 165 0
144 164 0
140 160 0
144 164 0
144 165 0
144 165 0
144 164 0
141 160 0
142 162 0
143 162 0
143 163 0
141 161 0
141 161 0
137 156 0
134 153 0
134 154 0
137 157 0
137 156 0
132 151 0
129 149 0
135 154 0
143 164 0
136 155 0
138 158 0
135 155 0
136 155 0
135 155 0
125 144 0
130 149 0
122 141 0
127 146 0
128 147 0
118 137 0
124 141 0
126 143 0
111 128 0
117 134 0
113 130 0
116 134 0
109 125 0
111 128 0
108 123 0
106 122 0
93 109 0
90 106 22
95 111 16
99 115 16
99 115 16
93 107 16
90 104 16
82 98 0
80 95 16
83 98 16
86 101 22
85 99 22
95 110 0
105 123 0
104 121 0
114 131 0
118 134 0
121 139 0
137 157 0
134 153 0
121 138 0
137 155 32
172 195 0
171 193 0
168 192 0
173 196 0
171 194 0
170 194 0
169 192 0
169 193 0
170 194 0
172 194 0
168 191 0
167 190 0
159 182 24
55 82 82
50 79 83
50 79 97
53 84 95
53 84 100
53 84 93
53 83 99
54 85 99
55 87 98
54 86 102
54 86 100
55 87 93
56 89 104
55 88 102
54 85 102
53 85 90
56 89 115
56 88 108
57 90 117
55 87 99
54 85 102
56 89 115
55 88 108
58 92 117
57 90 119
56 89 107
56 89 110
55 87 107
55 87 109
56 89 110
55 87 108
59 93 124
56 89 108
57 91 112
58 91 115
58 91 118
59 93 117
54 86 111
58 92 121
54 86 100
56 89 111
58 92 114
57 90 112
58 91 124
56 89 111
57 89 115
58 91 121
56 89 100
57 90 107
57 90 118
57 90 105
58 90 111
57 89 115
57 90 113
56 88 103
58 92 113
54 86 107
54 85 90
56 89 108
57 90 118
56 89 114
58 91 122
56 88 110
57 89 113
56 89 103
57 90 114
55 86 101
55 87 111
54 85 104
55 86 101
56 88 111
54 85 108
55 86 101
55 86 110
55 86 104
55 87 115
54 85 115
56 87 107
54 84 103
57 88 107
54 85 96
52 81 89
55 86 113
54 84 93
52 80 91
52 80 95
53 82 102
48 74 84
49 76 76
50 74 84
158 179 26
168 191 0
170 193 0
167 189 0
167 190 0
167 190 0
172 196 0
170 193 0
171 195 0
174 196 0
170 193 0
167 190 0
172 195 0
127 140 24
92 88 33
86 83 26
75 73 22
86 84 22
82 80 19
62 62 14
70 69 12
84 85 12
70 70 12
67 67 8
86 85 12
83 83 25
85 84 24
88 89 24
106 104 29
92 93 26
96 93 37
93 92 26
98 97 29
97 95 23
104 103 18
106 104 27
105 104 31
106 105 25
111 108 25
110 106 31
121 118 36
109 106 33
107 105 37
119 115 37
123 120 39
126 121 41
124 122 34
120 117 41
119 118 36
127 124 43
123 119 39
128 124 47
135 128 43
129 125 46
134 130 51
128 124 34
131 127 37
127 124 29
139 136 46
137 132 45
139 135 49
139 135 51
131 126 49
144 138 56
135 130 51
137 132 39
149 143 55
143 138 47
141 136 46
144 138 50
142 137 44
143 136 49
146 142 50
150 144 55
141 136 47
146 140 53
151 145 54
149 143 48
140 135 47
150 145 53
151 146 53
146 141 51
153 148 56
151 146 56
146 139 53
151 145 56
153 147 54
154 148 62
152 146 56
145 140 52
152 145 57
156 151 60
151 145 53
159 153 62
157 151 57
158 151 62
149 144 47
160 153 52
148 142 54
147 141 57
152 147 52
144 139 44
157 151 56
149 143 59
152 145 57
155 149 57
152 146 54
152 147 61
156 150 59
154 147 57
156 150 60
157 151 59
147 141 57
154 146 63
150 144 66
156 149 60
153 147 59
153 146 60
154 147 59
147 141 52
154 148 63
157 150 66
152 145 54
141 136 57
148 141 60
157 151 67
155 148 65
153 149 57
157 150 64
156 149 59
148 141 52
151 145 63
149 143 56
141 135 52
149 143 60
151 146 60
140 135 51
150 144 58
143 137 52
155 148 67
155 148 64
144 138 56
148 142 59
143 139 52
145 139 57
155 148 63
148 142 53
139 133 58
136 130 52
147 141 63
149 142 61
139 135 39
149 144 64
151 147 52
148 141 60
154 175 0
156 177 0
154 175 0
152 174 0
155 175 0
155 175 0
152 173 0
155 175 0
155 175 0
153 173 0
153 175 0
155 176 0
153 174 0
153 174 0
154 175 0
152 174 0
154 174 0
153 175 0
150 172 0
154 175 0
152 173 0
153 174 0
151 172 0
152 172 0
153 174 0
153 173 0
152 173 0
153 173 0
154 174 0
154 173 0
151 173 0
149 170 0
150 171 0
151 172 0
151 171 0
149 169 0
152 173 0
152 173 0
152 172 0
151 172 0
149 170 0
149 170 0
151 172 0
151 171 0
151 171 0
150 171 0
151 171 0
149 169 0
150 171 0
152 173 0
154 174 0
148 169 0
146 166 0
152 172 0
150 170 0
148 169 0
149 170 0
148 169 0
149 170 0
146 167 0
145 166 0
149 169 0
144 164 0
147 167 0
150 171 0
149 170 0
149 169 0
149 169 0
145 165 0
147 167 0
144 164 0
147 168 0
149 170 0
147 167 0
140 160 0
146 166 0
145 164 0
147 168 0
143 163 0
142 162 0
140 159 0
146 166 0
141 161 0
142 162 0
144 164 0
140 158 0
141 161 0
134 153 0
137 157 0
139 159 0
143 162 0
138 159 0
141 160 0
141 161 0
134 154 0
132 151 0
131 151 0
129 148 0
133 152 0
133 153 0
131 149 0
129 149 0
133 152 0
131 151 0
131 151 0
123 141 0
128 146 0
128 146 0
126 143 0
129 149 0
122 140 0
123 140 0
123 141 0
114 132 0
109 127 0
104 120 0
115 133 0
111 128 0
110 127 0
103 119 0
105 121 0
94 109 0
93 108 16
94 108 0
102 117 0
93 108 16
93 108 0
93 107 0
84 98 0
99 116 0
92 106 16
90 106 16
90 105 0
98 114 0
112 129 0
114 131 0
119 136 0
129 147 0
128 147 0
124 142 0
119 136 0
169 192 0
168 192 0
169 192 0
169 192 0
167 190 0
167 190 0
171 195 0
167 190 0
169 192 0
171 194 0
169 193 0
169 193 0
171 194 0
170 193 0
111 133 58
47 75 84
46 74 65
50 80 87
51 81 86
54 86 104
52 82 102
53 84 91
54 85 105
55 86 115
53 85 95
54 85 100
56 89 113
55 87 100
54 86 103
54 87 99
54 85 106
55 87 103
54 86 103
54 86 106
56 88 107
54 86 102
56 88 104
55 86 105
55 87 103
56 89 98
55 87 103
57 89 121
55 87 112
57 90 126
56 89 109
55 87 104
57 90 113
57 91 111
57 90 117
58 91 111
56 90 114
57 91 121
58 92 112
57 90 118
56 89 106
57 90 115
54 87 90
57 90 113
56 89 111
58 91 121
56 88 105
56 89 113
57 91 114
55 88 100
57 89 114
55 86 107
56 88 101
56 88 110
56 89 122
55 87 102
56 89 108
55 87 118
55 88 105
55 87 107
58 90 124
55 87 102
56 88 107
55 87 110
57 89 116
56 89 111
56 87 114
52 82 94
54 84 104
55 87 110
54 85 101
55 87 112
54 86 113
53 83 102
53 84 97
53 84 98
52 81 94
53 83 92
51 81 93
55 85 103
51 80 84
52 81 94
51 80 94
51 79 100
52 81 104
50 77 83
49 74 75
48 75 77
46 71 69
122 143 52
169 192 0
171 194 0
166 190 0
167 190 0
171 193 0
162 184 0
172 195 0
170 192 0
167 189 0
170 191 0
165 188 0
172 195 0
169 192 0
169 192 11
115 114 40
83 80 24
83 80 21
71 70 16
78 75 11
81 80 15
86 86 18
88 87 11
80 78 8
71 71 15
87 85 11
96 95 3
85 86 26
87 88 25
86 85 26
90 90 19
92 91 17
88 88 16
92 90 16
101 98 28
104 101 20
97 97 16
93 94 24
92 90 26
110 108 24
107 106 33
104 103 29
113 112 29
103 100 30
114 111 29
114 112 31
118 112 45
119 115 38
119 117 35
125 121 37
126 123 40
126 122 46
128 125 39
128 124 46
129 126 38
135 131 37
130 126 42
137 132 45
140 136 45
131 129 37
138 135 43
139 135 46
136 132 48
134 129 43
134 128 44
140 136 47
140 134 45
133 130 47
146 142 43
144 139 42
145 138 44
143 138 42
144 139 50
146 141 48
144 139 46
146 141 49
145 140 49
148 142 49
145 139 45
143 137 48
150 143 50
151 145 42
151 143 54
151 145 49
150 144 50
148 143 58
145 141 48
141 136 47
148 142 53
158 151 63
147 142 48
150 145 51
146 140 52
151 145 54
153 146 54
155 149 59
148 142 51
154 147 57
147 141 48
145 139 51
152 147 48
158 152 60
156 150 58
157 150 60
146 141 52
158 152 62
150 144 59
151 145 56
153 146 59
153 147 57
152 145 54
152 147 52
147 142 56
150 144 53
152 145 54
151 145 51
143 138 51
154 148 52
150 145 52
154 147 66
154 148 59
148 141 62
156 149 63
152 145 63
145 139 49
151 145 59
149 143 59
157 150 69
151 144 57
152 145 58
148 143 54
154 148 57
142 136 56
142 136 49
152 147 62
141 135 53
152 145 59
147 141 48
151 146 61
151 144 57
152 145 63
156 149 69
159 153 69
143 137 52
150 144 62
145 139 57
148 141 53
152 145 65
154 147 63
148 142 59
148 142 60
149 143 64
148 141 59
152 145 64
147 142 61
147 140 59
154 175 0
154 174 0
154 175 0
153 174 0
153 174 0
154 175 0
153 174 0
155 175 0
154 175 0
154 174 0
153 173 0
153 174 0
154 175 0
153 174 0
155 176 0
152 173 0
154 174 0
152 173 0
150 171 0
154 174 0
154 174 0
149 170 0
150 170 0
155 175 0
151 172 0
151 172 0
153 173 0
151 172 0
149 170 0
152 172 0
151 172 0
153 174 0
153 173 0
153 174 0
150 170 0
151 172 0
153 174 0
150 171 0
152 173 0
148 168 0
151 171 0
152 173 0
148 168 0
151 172 0
149 169 0
152 172 0
149 170 0
153 173 0
148 169 0
147 168 0
150 171 0
151 171 0
146 166 0
149 170 0
150 170 0
148 169 0
149 170 0
148 169 0
148 168 0
145 166 0
145 165 0
151 170 0
143 163 0
148 168 0
151 171 0
146 167 0
145 167 0
147 168 0
146 166 0
151 171 0
143 164 0
147 167 0
142 162 0
147 167 0
148 168 0
143 163 0
143 163 0
144 165 0
142 163 0
142 163 0
140 159 0
141 160 0
145 166 0
141 163 0
143 162 0
140 159 0
141 160 0
143 162 0
136 156 0
144 163 0
138 157 0
137 156 0
143 163 0
143 162 0
141 160 0
139 159 0
138 157 0
138 157 0
130 149 0
126 145 0
132 151 0
138 157 0
137 156 0
125 144 0
124 142 0
125 144 0
125 144 0
116 134 0
115 133 0
125 143 0
124 142 0
111 129 0
115 132 0
120 137 0
114 130 0
118 135 0
108 126 0
113 130 0
110 126 0
112 129 0
98 114 0
100 115 0
119 135 0
95 110 0
105 121 0
93 108 0
98 114 0
94 109 0
101 115 0
95 109 0
106 121 0
106 121 0
106 123 0
118 135 0
114 131 0
112 130 0
128 146 0
128 147 0
126 143 0
114 130 0
157 180 0
170 193 0
170 193 0
171 194 0
169 192 0
169 192 0
173 196 0
166 189 0
169 193 0
170 193 0
167 191 0
167 191 0
168 193 0
170 193 0
167 191 0
166 188 18
85 107 64
50 79 97
50 80 84
54 85 106
49 77 80
51 81 88
53 84 89
54 86 105
53 83 94
55 86 115
55 87 115
54 86 103
54 86 95
54 85 98
52 83 102
55 87 110
55 88 106
55 87 103
57 90 116
56 89 99
56 88 115
54 86 99
53 84 107
58 92 119
56 88 108
56 89 113
56 88 102
57 91 111
56 89 116
56 88 101
58 92 120
57 91 118
54 85 100
56 88 108
57 90 114
56 88 108
55 86 102
56 89 110
57 89 105
55 86 105
57 90 117
55 88 97
56 89 103
56 88 118
58 91 124
57 90 113
56 89 107
56 88 100
57 90 117
56 89 110
56 89 114
55 87 103
56 89 103
56 88 114
56 88 113
54 86 115
57 90 114
56 88 113
57 90 110
54 85 97
56 88 114
54 86 102
56 89 110
53 84 108
54 85 96
55 87 102
55 87 110
55 86 108
56 88 108
55 87 104
55 86 114
53 83 101
53 84 104
52 81 82
52 82 94
52 81 89
53 83 89
51 81 93
50 78 89
56 88 104
50 78 91
52 81 89
53 81 94
52 81 96
52 81 92
51 78 91
47 72 74
72 92 53
166 188 0
169 192 0
168 190 0
168 191 0
162 185 0
166 189 0
166 188 0
165 186 0
167 189 0
169 192 0
171 193 0
167 188 0
170 193 0
167 191 0
170 193 0
152 171 11
93 90 29
81 77 22
84 81 23
89 85 18
84 81 18
79 77 20
84 81 5
84 83 12
81 79 11
89 88 18
87 86 15
90 89 18
87 86 14
95 92 18
97 94 24
92 90 18
102 100 24
104 101 24
82 81 18
101 99 26
102 101 21
101 98 30
123 120 27
93 92 19
107 105 30
120 116 32
104 102 18
118 114 34
110 109 28
114 112 33
108 107 22
114 111 24
119 114 30
111 108 25
131 126 30
120 117 26
128 126 38
128 123 40
127 122 39
125 121 35
137 133 45
139 134 47
138 134 36
132 128 44
133 130 45
140 134 43
135 130 37
137 130 35
141 136 42
136 131 38
139 135 43
140 135 38
133 129 37
145 140 47
149 142 51
153 146 60
151 145 59
137 132 37
151 146 45
143 137 49
148 142 45
149 143 45
151 143 51
141 135 52
141 136 45
148 142 49
154 148 61
150 144 51
147 142 54
149 142 54
145 140 39
154 147 49
153 148 59
149 143 48
150 145 49
149 144 58
149 143 52
153 147 58
152 147 52
150 145 54
147 141 52
153 147 56
152 146 54
150 145 49
151 145 56
153 146 56
153 147 56
146 141 49
148 143 44
152 146 57
153 145 61
155 148 64
155 150 49
149 143 52
157 150 61
154 148 60
149 144 53
155 150 52
157 151 59
152 146 59
144 139 48
155 149 56
145 140 51
147 141 51
146 139 61
154 148 56
154 147 64
150 145 57
155 149 60
154 147 63
149 142 59
151 145 52
148 141 58
145 141 48
152 146 59
146 140 60
146 140 57
155 148 65
150 144 59
148 143 58
142 137 44
149 143 59
152 145 61
145 138 60
145 140 57
151 144 60
144 138 53
154 148 59
147 141 57
142 136 51
147 140 59
150 144 56
147 141 56
146 140 58
137 132 42
152 146 54
143 138 56
151 144 64
154 148 61
139 132 49
154 174 0
155 175 0
152 172 0
153 174 0
155 176 0
153 175 0
152 174 0
155 175 0
153 173 0
151 171 0
153 174 0
154 174 0
152 172 0
152 173 0
154 174 0
153 173 0
154 174 0
151 172 0
150 171 0
154 174 0
152 173 0
154 174 0
154 175 0
154 174 0
153 174 0
153 173 0
153 174 0
153 173 0
151 172 0
150 170 0
150 170 0
151 171 0
151 171 0
150 171 0
152 173 0
150 171 0
153 174 0
146 165 0
148 169 0
151 171 0
149 169 0
150 170 0
151 172 0
149 169 0
148 169 0
149 170 0
151 171 0
149 170 0
149 170 0
147 167 0
147 168 0
150 170 0
151 171 0
148 168 0
146 167 0
150 171 0
152 172 0
144 164 0
148 169 0
147 167 0
148 169 0
147 168 0
148 169 0
150 171 0
148 168 0
151 172 0
141 161 0
147 167 0
144 164 0
143 162 0
145 165 0
146 166 0
143 163 0
141 161 0
142 162 0
141 161 0
145 165 0
140 161 0
138 158 0
143 163 0
138 158 0
133 153 0
137 157 0
145 164 0
145 165 0
138 158 0
136 157 0
140 160 0
141 160 0
138 158 0
134 153 0
140 159 0
133 152 0
128 148 0
138 158 0
139 159 0
135 154 0
130 150 0
140 159 0
129 148 0
139 157 0
136 155 0
129 148 0
128 147 0
134 151 0
126 145 0
126 145 0
118 135 0
120 138 0
119 137 0
120 139 0
111 129 0
121 139 0
110 127 0
111 128 0
124 142 0
112 129 0
116 132 0
111 127 0
115 131 0
110 126 0
104 121 0
94 109 0
85 99 0
103 118 0
101 116 0
85 100 0
103 118 0
98 112 0
101 116 0
103 119 0
99 113 0
110 126 0
108 125 0
119 136 0
119 136 0
122 139 0
129 148 0
120 139 0
149 169 45
168 191 0
167 189 0
169 193 0
166 189 0
168 191 0
171 194 0
169 193 0
172 195 0
165 188 0
171 194 0
167 190 0
169 193 0
167 190 0
166 188 0
165 188 0
163 186 0
143 165 32
49 78 71
50 80 92
53 83 96
51 80 89
53 84 99
54 86 100
55 87 105
53 84 99
50 80 99
53 85 98
53 83 86
53 84 96
51 82 102
56 88 108
55 87 106
57 90 118
54 86 95
54 86 96
55 86 109
53 84 91
56 88 109
55 87 106
53 84 97
55 87 110
55 88 103
57 89 105
55 88 105
56 89 122
56 88 111
55 87 100
54 85 105
55 87 113
57 90 110
55 86 110
58 91 111
55 87 102
57 89 108
56 89 102
57 90 113
54 86 103
58 91 118
55 87 110
53 84 95
57 90 103
57 90 117
57 90 114
54 87 97
55 88 97
57 90 111
57 89 113
55 86 110
57 90 116
58 92 111
55 88 103
55 87 104
57 90 121
56 89 108
56 89 115
56 89 102
55 88 107
54 85 108
56 88 113
54 85 107
57 90 111
52 82 94
54 84 102
52 82 100
57 88 121
56 88 114
55 87 98
52 82 93
55 86 89
54 85 99
54 84 95
52 83 90
56 87 104
50 80 99
53 82 89
53 82 100
49 76 74
51 79 91
48 74 78
51 80 82
50 77 69
50 78 83
45 68 61
142 163 32
166 188 0
166 188 0
165 186 0
165 186 0
168 189 0
164 184 0
165 187 0
168 191 0
167 190 0
163 184 0
165 188 0
167 188 0
170 191 0
168 190 0
168 189 0
169 192 0
134 149 12
82 80 24
90 87 32
84 82 19
84 80 16
81 80 12
83 83 18
85 83 8
83 83 16
86 84 14
69 71 5
80 79 16
94 91 14
83 83 9
86 85 18
93 92 20
88 86 23
87 87 29
89 89 16
97 95 20
102 100 16
109 106 24
106 104 19
103 101 26
100 99 24
108 105 18
105 104 24
108 106 26
112 108 32
117 115 30
115 111 30
117 115 37
125 121 34
118 113 34
111 109 28
126 122 28
128 124 44
122 119 31
133 128 33
132 128 35
122 119 39
126 122 40
128 124 35
134 130 34
140 135 45
127 123 37
132 128 35
140 133 45
146 140 47
144 137 54
136 131 40
137 133 39
145 139 48
144 139 43
138 134 38
137 133 39
145 140 47
143 137 44
145 140 47
144 138 47
146 141 42
143 137 37
148 142 51
146 141 52
150 143 53
141 136 41
141 136 45
140 136 45
148 143 57
148 141 52
144 141 42
148 142 45
150 144 48
148 141 51
141 137 44
147 142 53
152 145 47
149 143 39
145 139 51
151 145 51
153 147 54
144 140 45
151 146 47
146 141 47
144 139 44
149 143 54
149 143 53
155 148 59
149 143 54
154 147 59
150 144 51
145 139 47
145 139 54
149 142 58
143 138 44
147 141 56
145 141 42
148 141 59
152 146 59
149 143 57
145 140 54
149 143 62
149 143 48
161 153 70
153 146 57
148 142 59
148 142 60
146 140 52
153 146 58
149 143 59
150 145 60
146 139 59
151 144 54
143 137 47
145 139 51
154 147 59
155 148 62
136 131 47
156 149 57
142 136 56
152 146 57
148 143 52
149 144 59
146 140 59
154 148 67
149 144 57
149 144 56
151 143 62
142 136 52
151 146 60
149 141 59
148 142 60
137 131 45
157 150 71
137 132 52
147 141 56
140 135 51
144 139 56
142 136 53
147 141 56
154 175 0
154 175 0
154 175 0
152 173 0
154 174 0
154 174 0
153 174 0
151 173 0
153 174 0
154 175 0
152 174 0
153 174 0
155 176 0
153 174 0
151 173 0
150 170 0
150 171 0
154 174 0
152 173 0
151 172 0
152 173 0
150 172 0
153 174 0
154 174 0
154 174 0
152 173 0
152 173 0
151 172 0
148 168 0
154 175 0
152 172 0
152 173 0
150 170 0
152 172 0
147 168 0
150 170 0
156 176 0
150 171 0
152 172 0
151 171 0
154 174 0
150 170 0
150 170 0
151 172 0
151 171 0
144 164 0
151 171 0
152 172 0
148 169 0
149 170 0
146 165 0
146 165 0
151 171 0
146 166 0
148 170 0
151 171 0
147 167 0
149 169 0
145 165 0
148 168 0
146 165 0
148 168 0
150 171 0
148 167 0
142 162 0
143 162 0
149 169 0
141 162 0
142 162 0
142 161 0
143 163 0
144 165 0
142 162 0
146 166 0
145 165 0
144 164 0
141 161 0
140 160 0
146 165 0
142 161 0
142 161 0
139 159 0
135 156 0
140 159 0
138 158 0
138 158 0
135 154 0
138 158 0
142 162 0
138 157 0
141 161 0
134 154 0
133 154 0
137 157 0
123 142 0
135 154 0
136 155 0
137 157 0
129 148 0
129 148 0
127 145 0
123 140 0
129 148 0
127 146 0
129 148 0
124 143 0
124 142 0
128 147 0
126 145 0
123 141 0
116 134 0
128 145 0
120 138 0
126 145 0
112 130 0
115 133 0
111 128 0
116 133 0
106 122 0
98 115 0
109 125 0
105 120 0
106 122 0
104 120 0
108 123 0
105 120 0
107 123 0
99 115 0
104 119 0
108 124 0
95 110 0
110 125 0
109 124 0
117 133 0
118 136 0
122 140 0
119 137 0
116 133 0
128 146 32
162 185 0
169 192 0
166 190 0
166 189 0
165 188 0
163 186 0
167 190 0
165 189 0
166 188 0
167 190 0
165 189 0
165 187 0
170 193 0
167 190 0
166 189 0
164 186 0
164 187 0
168 192 0
93 116 77
51 80 91
48 76 79
53 84 94
51 81 91
52 83 94
51 81 85
54 85 96
51 81 95
54 86 102
55 86 109
53 84 95
55 86 109
55 87 103
56 88 112
54 86 104
55 87 97
56 88 106
54 85 98
55 87 108
55 87 97
56 88 110
54 85 100
52 83 82
54 86 97
56 89 114
56 88 110
57 90 111
57 90 109
55 87 110
56 88 112
55 87 108
56 88 108
57 90 103
55 88 100
55 87 111
55 87 108
57 89 120
53 85 86
59 93 125
55 87 103
55 87 102
55 88 113
56 88 109
55 87 104
57 89 111
55 87 108
56 88 103
56 88 114
55 87 105
55 87 97
57 90 113
53 85 99
55 87 94
55 87 107
53 84 108
56 89 126
57 90 117
55 87 108
55 86 98
55 87 105
56 88 105
55 87 105
55 86 110
53 84 108
54 86 107
55 87 99
51 79 85
53 83 92
54 84 104
55 87 105
55 86 108
54 84 105
53 83 89
53 84 90
51 80 89
54 83 98
51 80 92
53 83 104
52 80 98
50 77 85
50 78 90
49 77 86
48 74 75
48 74 79
104 126 60
162 184 0
164 187 0
163 185 0
168 191 0
159 181 0
158 181 0
163 185 0
161 183 0
161 183 0
163 185 0
166 188 0
164 186 0
165 187 0
167 188 0
166 186 0
169 190 0
166 189 0
166 186 0
124 128 36
92 87 32
77 75 25
83 81 25
82 78 19
85 84 11
78 76 16
76 74 16
93 90 21
75 75 12
85 83 14
85 84 8
98 96 16
80 77 16
88 86 16
85 84 14
84 83 24
98 96 20
97 95 29
106 103 24
117 113 36
100 98 29
119 115 21
104 100 28
109 106 25
107 105 22
98 97 18
119 116 28
113 108 31
112 109 25
119 116 36
124 120 25
116 113 18
114 111 26
109 108 33
119 116 31
125 119 35
126 123 24
133 129 42
128 124 35
129 126 32
136 131 34
131 126 41
130 126 43
131 127 47
129 125 39
138 133 37
136 131 42
127 122 42
142 136 47
135 130 33
139 134 44
136 133 40
132 127 32
144 139 41
143 138 43
137 133 44
141 136 45
147 141 51
140 135 33
141 134 45
155 149 53
140 136 41
149 143 49
152 145 48
156 150 52
145 140 47
145 140 37
147 142 52
146 141 54
146 140 48
146 141 51
139 133 49
152 146 54
147 142 45
149 143 48
153 147 52
150 143 48
150 145 51
150 144 48
142 136 48
150 144 52
151 144 57
154 147 53
144 139 45
156 149 53
143 137 48
151 144 48
151 144 54
152 146 54
151 145 58
157 151 56
150 144 47
151 145 54
152 145 61
149 143 51
142 138 47
146 141 51
152 146 49
148 142 47
146 141 56
141 135 45
149 143 58
145 140 52
151 145 53
144 139 57
149 143 54
152 145 57
148 141 59
149 142 53
151 144 58
144 137 49
148 142 54
155 148 66
153 147 59
146 140 45
148 141 56
145 140 48
143 137 54
146 140 57
148 143 59
147 141 54
156 150 60
146 140 54
143 138 52
147 141 53
147 141 59
150 144 59
150 144 61
144 138 59
135 130 47
146 141 59
147 140 57
145 139 52
146 139 51
140 135 57
141 135 60
139 134 51
147 140 58
154 175 0
154 175 0
154 174 0
153 174 0
154 175 0
153 174 0
152 173 0
155 175 0
148 169 0
155 175 0
154 174 0
154 175 0
151 173 0
151 172 0
152 173 0
151 173 0
154 175 0
150 171 0
152 172 0
150 171 0
151 171 0
149 170 0
151 172 0
151 172 0
150 170 0
152 172 0
152 173 0
149 169 0
152 172 0
153 172 0
151 172 0
151 172 0
153 174 0
151 172 0
149 170 0
152 173 0
149 170 0
150 169 0
148 169 0
146 167 0
150 171 0
148 168 0
150 170 0
148 169 0
148 169 0
150 171 0
149 168 0
150 171 0
151 172 0
150 170 0
147 167 0
148 168 0
147 167 0
147 167 0
148 168 0
145 166 0
148 167 0
143 163 0
145 165 0
148 168 0
147 169 0
148 168 0
144 166 0
145 165 0
147 168 0
149 169 0
144 165 0
145 166 0
142 162 0
144 165 0
147 168 0
142 162 0
143 162 0
146 165 0
142 162 0
146 165 0
141 161 0
139 159 0
141 160 0
142 161 0
143 162 0
144 164 0
141 161 0
144 165 0
142 161 0
140 159 0
136 156 0
144 164 0
141 161 0
133 153 0
135 154 0
133 152 0
134 153 0
126 146 0
138 156 0
138 155 0
133 152 0
128 146 0
134 152 0
133 152 0
131 149 0
123 141 0
133 151 0
134 153 0
129 149 0
130 148 0
133 152 0
120 137 0
113 131 0
123 140 0
115 132 0
126 143 0
120 138 0
117 134 0
119 135 0
121 138 0
119 136 0
113 130 0
111 129 0
116 132 0
112 129 0
94 110 0
102 117 0
108 124 0
92 108 0
102 117 0
104 121 0
97 112 0
104 119 0
103 119 0
97 113 0
113 129 0
111 126 0
114 131 0
115 131 0
110 128 0
117 133 0
118 135 0
162 184 0
165 188 0
163 186 0
166 190 0
164 187 0
161 184 0
163 186 0
165 188 0
165 188 0
168 191 0
160 184 0
164 188 0
169 191 0
164 186 0
162 186 0
167 191 0
165 187 0
158 180 0
164 188 0
159 182 0
75 99 67
48 76 75
49 78 81
51 82 89
50 80 82
52 83 93
53 83 92
52 82 97
54 86 102
55 87 106
54 86 106
54 86 107
54 87 96
52 83 96
53 85 91
54 86 104
54 86 97
52 83 95
56 88 107
54 85 109
55 87 98
55 86 102
55 87 106
55 87 111
54 86 98
55 87 108
55 87 103
57 90 117
56 89 113
54 86 92
57 91 109
57 90 108
56 89 111
56 89 114
56 88 108
58 91 117
55 87 107
55 88 99
54 86 92
55 87 102
56 89 102
55 88 105
57 90 110
53 85 102
55 87 95
55 86 114
58 91 120
53 84 103
56 88 113
55 86 105
56 88 108
56 88 110
55 87 102
57 89 102
55 87 108
55 87 102
53 83 88
51 81 90
55 88 110
53 84 101
57 90 115
55 87 104
55 86 109
54 85 104
54 85 101
54 85 105
54 85 102
54 85 103
54 84 103
55 87 107
54 85 104
52 81 85
52 81 91
52 81 94
51 81 89
56 87 117
51 79 87
49 77 87
49 78 84
50 77 87
46 72 73
49 76 76
49 76 67
63 85 69
153 173 0
163 184 0
160 182 0
160 181 0
162 183 0
163 183 0
168 189 0
165 186 0
168 190 0
162 183 0
165 186 0
167 188 0
163 184 0
163 185 0
164 184 0
166 188 0
165 187 0
162 182 0
166 188 0
163 182 11
95 95 25
80 78 20
96 91 24
87 85 16
91 87 26
76 75 12
91 88 16
89 87 21
86 84 16
95 92 17
101 97 16
97 95 14
90 87 16
84 83 11
88 88 16
87 84 22
86 86 8
100 97 14
103 101 22
99 96 24
105 102 22
111 108 16
110 108 17
108 105 14
107 104 22
105 104 23
117 114 28
118 114 29
114 110 21
122 118 36
120 116 16
116 113 36
129 125 32
116 113 31
121 118 29
119 115 40
121 117 29
125 122 34
133 128 39
131 127 37
132 127 37
134 127 38
124 119 36
126 122 34
133 129 32
135 131 37
127 124 33
140 136 35
135 131 37
132 128 34
145 139 41
138 133 49
142 137 42
143 138 44
147 141 45
138 131 47
148 142 46
142 136 47
138 134 49
135 131 32
146 140 45
144 138 44
143 137 42
143 138 41
145 139 48
148 142 39
141 136 40
148 143 54
142 136 34
142 137 44
143 138 41
149 144 45
152 145 57
144 139 48
146 140 51
143 138 44
143 138 44
150 143 52
151 145 48
149 144 45
147 142 49
144 138 49
153 148 57
150 144 53
148 141 58
154 147 56
139 135 44
149 145 48
148 143 49
152 145 56
153 147 57
151 144 56
143 137 49
153 147 58
148 143 52
151 145 53
146 141 52
141 137 39
153 146 49
152 145 57
148 143 56
149 144 52
147 141 59
150 144 56
148 143 52
152 146 62
145 138 56
146 141 57
155 149 61
151 144 54
148 140 59
151 144 53
145 140 47
147 141 52
150 142 54
146 140 53
144 138 48
158 151 61
150 143 52
150 144 58
146 140 53
146 140 61
144 138 57
143 136 54
151 145 56
149 142 56
149 143 53
149 143 56
143 138 52
145 140 54
138 134 45
151 145 63
140 135 53
141 136 47
141 136 52
141 137 47
142 136 52
149 143 62
152 174 0
156 176 0
153 174 0
154 174 0
154 175 0
154 175 0
151 172 0
152 172 0
156 175 0
149 170 0
152 172 0
153 175 0
152 173 0
154 175 0
152 173 0
153 174 0
151 171 0
152 173 0
151 172 0
152 172 0
151 172 0
151 172 0
152 173 0
149 170 0
152 173 0
152 173 0
153 174 0
153 173 0
150 171 0
151 171 0
148 168 0
149 169 0
152 172 0
152 172 0
148 169 0
149 169 0
150 170 0
149 169 0
149 169 0
147 167 0
151 172 0
151 171 0
147 168 0
146 166 0
150 170 0
151 171 0
146 167 0
150 171 0
149 168 0
149 169 0
148 169 0
147 168 0
149 169 0
150 170 0
146 167 0
150 171 0
144 165 0
146 166 0
144 163 0
146 166 0
149 169 0
145 165 0
145 165 0
145 166 0
145 165 0
146 165 0
146 166 0
142 163 0
146 166 0
142 162 0
141 161 0
145 165 0
147 167 0
147 166 0
140 161 0
141 161 0
140 161 0
139 159 0
142 162 0
146 166 0
141 162 0
140 159 0
141 160 0
136 155 0
142 161 0
139 159 0
140 160 0
132 151 0
136 156 0
129 148 0
136 155 0
140 159 0
138 157 0
134 153 0
141 160 0
134 153 0
136 156 0
133 151 0
133 151 0
133 152 0
129 147 0
129 147 0
122 139 0
126 144 0
123 140 0
118 137 0
124 143 0
130 148 0
125 143 0
122 139 0
124 142 0
124 141 0
115 132 0
120 137 0
119 137 0
106 123 0
110 127 0
106 122 0
118 134 0
107 123 0
102 117 0
109 125 0
109 123 0
111 126 0
109 124 0
99 114 0
111 127 0
102 118 0
107 122 0
104 121 0
113 129 0
109 125 0
120 137 0
117 134 0
127 145 0
112 129 0
112 128 0
146 168 0
163 186 0
165 188 0
168 191 0
162 185 0
167 190 0
165 188 0
159 182 0
165 187 0
163 187 0
162 184 0
166 188 0
161 184 0
161 185 0
166 189 0
160 183 0
160 182 0
159 183 0
162 185 0
161 185 0
158 181 0
143 166 30
58 82 72
47 75 70
51 81 89
52 82 86
49 79 87
52 82 80
52 82 90
54 85 106
52 83 87
53 84 109
52 82 87
55 87 100
55 87 110
54 86 98
52 82 91
55 88 101
54 85 99
53 85 108
56 89 97
55 86 106
57 89 111
55 88 100
56 88 102
54 86 97
55 86 116
54 85 92
54 86 95
55 86 102
55 86 99
55 87 112
54 86 92
55 87 102
55 86 112
57 90 108
54 86 95
54 85 99
54 86 94
54 86 100
55 87 107
55 87 105
57 90 105
52 83 99
56 88 111
54 84 100
55 87 105
54 85 94
55 87 107
53 85 94
54 85 102
54 85 102
56 90 108
56 88 118
54 85 100
54 85 88
54 86 98
56 88 113
55 87 107
54 86 100
54 86 104
53 83 97
56 88 105
53 83 99
54 85 114
55 86 104
52 82 94
53 83 97
53 84 106
54 84 92
52 82 90
55 86 104
53 83 101
54 84 102
53 82 85
52 80 99
53 82 99
52 82 90
51 79 82
51 78 90
48 74 76
48 75 89
49 75 79
47 72 59
146 166 36
160 181 0
158 180 0
158 179 0
159 178 0
162 184 0
158 179 0
159 181 0
155 176 0
162 183 0
160 182 0
165 186 0
157 178 0
163 185 0
164 183 0
157 178 0
158 180 0
160 181 0
165 188 0
165 187 0
159 180 0
152 170 0
95 90 31
90 86 25
88 85 29
78 76 25
68 66 11
93 88 14
81 80 8
79 77 11
87 85 0
91 88 9
83 81 11
81 80 11
94 91 8
89 87 12
86 83 0
98 95 14
94 92 16
97 96 14
99 97 10
104 99 24
103 99 21
106 104 21
107 104 16
107 104 31
100 98 23
112 107 22
110 108 24
103 99 20
114 111 24
115 111 29
117 115 25
118 115 34
124 120 22
118 113 32
119 116 33
117 114 37
124 121 32
129 123 32
124 120 33
133 128 30
136 130 32
127 123 39
117 114 24
135 130 32
137 133 39
138 133 40
134 128 30
138 132 39
130 126 31
139 134 51
130 125 37
133 128 29
127 123 33
133 128 38
133 128 32
131 124 37
134 129 35
138 133 43
145 139 44
145 139 45
142 137 48
146 141 40
143 137 47
145 139 48
142 136 37
145 140 45
142 137 39
143 137 47
151 144 54
139 134 41
150 145 52
151 145 51
148 142 49
141 135 44
145 140 41
147 142 52
143 138 44
142 136 48
142 135 47
151 147 39
149 142 47
149 143 52
142 137 45
151 144 47
149 144 47
141 135 42
159 151 60
150 144 59
153 147 56
149 143 57
143 137 44
139 133 45
145 139 49
143 138 47
144 139 37
148 141 57
145 140 42
150 144 57
147 141 52
154 148 58
143 137 57
145 140 48
153 147 57
153 146 53
153 147 56
148 142 52
148 142 56
152 145 58
152 146 58
137 133 44
150 144 52
147 141 54
154 147 60
151 144 58
144 139 47
143 137 45
141 135 48
155 149 62
145 139 49
145 139 54
143 136 51
145 139 54
144 138 53
148 143 54
142 136 49
145 139 62
151 145 63
149 142 57
147 141 63
142 136 56
141 136 51
144 139 49
143 137 58
140 135 49
143 137 59
143 137 54
146 140 57
151 172 0
152 173 0
152 173 0
151 172 0
152 173 0
155 175 0
154 175 0
152 173 0
154 174 0
152 173 0
150 171 0
151 172 0
152 173 0
151 172 0
153 174 0
150 170 0
153 173 0
152 173 0
150 170 0
150 171 0
153 173 0
150 171 0
150 172 0
153 173 0
150 170 0
153 174 0
151 172 0
147 168 0
151 172 0
151 171 0
152 172 0
151 171 0
150 171 0
149 170 0
152 173 0
152 172 0
146 167 0
149 170 0
150 171 0
151 171 0
148 167 0
148 168 0
148 168 0
148 169 0
148 168 0
147 168 0
148 168 0
149 169 0
146 167 0
147 167 0
150 170 0
148 169 0
146 166 0
148 168 0
148 169 0
147 168 0
147 167 0
148 169 0
150 171 0
147 167 0
145 165 0
147 167 0
144 164 0
149 170 0
141 161 0
145 165 0
142 162 0
144 163 0
145 165 0
147 167 0
143 163 0
144 165 0
141 161 0
146 167 0
145 165 0
146 165 0
142 161 0
142 161 0
144 164 0
142 161 0
148 168 0
140 160 0
139 158 0
136 156 0
140 160 0
134 152 0
134 153 0
140 159 0
134 153 0
136 156 0
137 157 0
134 152 0
135 153 0
131 150 0
126 145 0
127 146 0
132 150 0
132 150 0
128 146 0
125 144 0
132 151 0
132 152 0
131 149 0
123 142 0
128 146 0
128 147 0
118 135 0
121 138 0
122 139 0
121 139 0
126 143 0
126 143 0
119 136 0
125 142 0
114 130 0
121 137 0
108 125 0
100 115 0
113 129 0
109 125 0
107 124 0
104 119 0
113 130 0
113 128 0
102 117 0
116 131 0
100 115 0
107 122 0
99 114 0
106 121 0
103 119 0
108 123 0
110 125 0
109 125 0
117 134 0
111 127 0
151 172 0
166 188 0
160 182 0
162 184 0
163 185 0
164 186 0
161 184 0
164 187 0
166 189 0
163 186 0
161 183 0
160 183 0
157 179 0
162 184 0
161 184 0
164 186 0
158 180 0
163 186 0
162 185 0
160 182 0
159 182 0
161 183 0
159 181 0
118 138 37
48 76 83
47 75 71
52 81 89
49 79 78
49 78 79
50 80 76
53 83 94
54 85 93
54 85 101
53 84 90
52 82 89
54 85 106
52 83 98
53 85 96
53 85 99
53 83 91
56 88 111
55 88 110
53 84 95
52 83 90
50 81 98
55 87 105
56 88 105
54 85 103
53 85 95
53 85 94
55 87 105
54 86 106
54 86 88
56 88 113
55 87 109
56 89 110
55 86 98
55 87 92
54 86 102
54 86 102
56 89 106
56 88 107
54 85 107
57 90 117
54 85 90
56 88 113
55 87 113
55 87 108
54 86 99
54 86 103
53 85 88
56 88 111
55 88 105
56 88 107
52 82 90
57 89 118
54 86 100
55 87 105
55 87 107
54 85 96
53 84 102
55 86 99
57 89 108
53 84 105
52 82 97
53 83 89
55 86 103
55 86 99
54 85 83
53 83 98
52 81 99
50 79 87
53 83 102
49 77 94
54 84 101
53 84 98
53 82 96
51 79 93
51 80 94
48 75 74
48 75 74
49 76 79
50 79 77
45 68 69
124 146 20
159 182 0
154 174 0
158 179 0
150 171 0
157 177 0
161 182 0
152 174 0
156 176 0
164 185 0
157 177 0
163 184 0
166 188 0
159 178 0
162 183 0
161 181 0
151 170 0
163 183 0
158 180 0
159 179 0
166 184 0
162 181 0
164 185 0
142 155 25
85 81 26
92 88 28
81 79 22
89 87 19
93 89 22
87 84 16
88 84 23
79 77 8
74 73 3
94 91 14
86 85 3
99 97 8
80 79 0
92 88 14
87 86 14
98 95 14
82 80 14
95 94 14
97 95 8
95 93 18
108 104 20
101 99 18
104 100 20
110 106 24
113 110 18
103 99 20
112 107 24
110 108 24
115 109 24
113 108 26
114 111 19
119 115 26
124 121 32
112 107 21
118 116 18
113 110 22
124 119 24
122 117 30
128 124 31
119 115 26
134 130 35
125 122 24
122 119 31
132 126 38
128 124 24
126 122 37
132 128 35
134 131 31
129 125 34
144 138 42
136 132 32
135 129 32
138 133 36
138 133 37
136 132 45
134 129 37
142 136 44
145 139 48
136 131 45
141 135 49
141 137 32
139 135 40
143 138 44
146 139 51
143 137 46
145 140 41
139 133 41
148 142 42
144 139 44
142 136 47
148 143 44
144 139 36
148 142 42
136 130 37
144 138 49
143 137 42
141 135 37
141 136 44
140 134 39
148 142 49
140 134 45
139 134 49
142 136 44
147 140 53
143 137 51
142 135 45
140 135 41
147 141 48
150 143 53
153 147 58
145 139 48
145 139 54
148 142 47
146 141 52
146 140 47
144 139 45
148 142 56
144 139 49
145 140 53
147 141 45
155 148 56
153 146 53
146 141 49
147 141 54
136 131 49
142 136 42
142 138 52
142 136 48
152 146 59
147 141 61
140 133 47
145 140 48
146 140 49
148 142 59
146 139 57
144 137 52
146 140 57
146 140 56
147 140 60
144 137 52
143 137 56
141 135 49
156 148 63
148 142 58
147 141 61
144 139 41
141 135 53
148 142 53
148 142 61
134 128 53
146 140 66
146 139 63
144 138 58
141 137 49
141 134 53
141 135 54
152 173 0
152 173 0
152 173 0
152 174 0
154 174 0
151 172 0
152 172 0
152 173 0
150 170 0
152 172 0
152 171 0
153 174 0
151 172 0
151 172 0
150 170 0
154 174 0
150 170 0
152 173 0
152 173 0
152 172 0
149 169 0
151 171 0
151 172 0
151 172 0
152 173 0
150 170 0
152 172 0
150 170 0
151 171 0
151 172 0
150 171 0
149 169 0
150 170 0
149 169 0
150 170 0
148 168 0
150 170 0
148 169 0
148 167 0
147 167 0
152 172 0
149 168 0
148 169 0
149 170 0
147 167 0
149 169 0
149 170 0
151 171 0
150 170 0
146 167 0
147 168 0
148 168 0
144 165 0
145 164 0
149 168 0
148 168 0
146 164 0
144 164 0
145 165 0
144 163 0
144 163 0
143 163 0
148 167 0
144 164 0
144 164 0
144 165 0
141 160 0
145 166 0
145 164 0
140 158 0
140 160 0
146 166 0
142 160 0
144 162 0
142 162 0
145 165 0
145 166 0
143 162 0
146 166 0
143 161 0
141 160 0
144 163 0
140 159 0
142 163 0
139 158 0
140 159 0
135 154 0
139 158 0
135 154 0
136 156 0
137 156 0
137 157 0
138 158 0
134 153 0
138 156 0
135 153 0
138 156 0
135 155 0
130 148 0
133 152 0
132 152 0
127 145 0
127 145 0
125 143 0
126 144 0
126 144 0
119 136 0
122 140 0
112 130 0
127 145 0
120 138 0
114 132 0
119 137 0
118 135 0
117 134 0
116 133 0
113 130 0
102 117 0
114 130 0
105 121 0
105 120 0
107 124 0
97 114 0
103 118 0
106 122 0
104 120 0
109 124 0
103 118 0
114 129 0
111 127 0
110 126 0
122 139 0
122 139 0
113 129 0
113 129 0
136 155 0
161 184 0
162 186 0
162 185 0
162 184 0
167 189 0
160 182 0
161 183 0
161 184 0
157 179 0
158 180 0
163 185 0
159 181 0
158 180 0
155 178 0
159 182 0
161 183 0
154 175 0
163 185 0
156 177 0
157 180 0
156 179 0
162 185 0
157 180 0
154 177 0
110 132 54
47 74 73
48 76 75
50 80 87
46 73 74
49 78 87
53 83 94
52 83 89
52 82 100
50 80 86
53 84 103
52 82 91
54 85 97
52 84 88
50 80 89
54 86 102
54 85 108
53 84 101
54 85 91
54 85 99
55 86 109
56 88 108
54 85 103
55 87 98
55 87 102
54 86 98
53 84 80
57 89 107
52 82 88
56 88 101
54 86 88
55 87 107
54 86 100
53 85 94
53 85 99
55 86 99
55 87 99
57 90 114
53 84 95
56 89 108
55 87 115
56 87 103
56 88 110
54 85 94
54 85 107
53 84 97
52 83 99
54 86 97
54 86 95
56 89 111
56 88 107
54 85 99
55 87 103
55 87 102
54 86 104
55 87 107
55 87 104
54 85 95
53 84 103
54 84 105
52 82 92
54 85 113
56 87 117
52 82 92
54 84 95
52 83 86
52 82 81
53 84 90
52 82 97
51 80 90
51 80 89
52 82 78
52 82 102
48 75 70
49 77 71
52 81 93
51 79 86
49 76 78
47 72 76
102 121 45
154 174 0
157 178 0
157 177 0
159 181 0
155 174 0
157 179 0
154 174 0
155 177 0
151 171 0
157 177 0
151 170 0
160 180 0
152 172 0
161 182 0
160 178 0
165 184 0
160 179 0
154 176 0
163 182 0
156 177 0
157 176 0
163 183 0
161 181 0
163 184 0
135 145 24
96 91 30
91 88 24
87 85 16
83 81 25
73 72 8
84 81 12
98 95 18
82 81 0
94 92 11
91 87 0
91 87 0
85 83 8
94 92 16
78 77 11
93 90 18
94 92 14
95 95 16
102 98 16
105 102 8
108 104 26
91 88 16
104 100 14
100 97 18
114 111 24
121 116 28
110 105 18
111 106 16
112 109 22
95 93 23
118 113 24
121 116 29
115 111 18
120 117 19
126 122 36
126 122 20
124 120 32
127 122 31
132 128 22
132 128 38
131 127 31
127 123 31
135 130 32
133 126 40
126 121 32
130 126 28
134 130 39
140 134 30
130 126 32
140 134 39
133 129 32
139 133 35
148 142 48
136 130 31
140 134 42
134 127 36
139 133 42
140 134 45
139 132 45
146 140 43
137 132 38
143 139 34
146 140 47
139 133 39
137 133 37
140 135 36
143 137 37
146 140 51
142 137 45
137 132 41
145 139 41
147 141 48
143 138 30
147 140 44
141 135 41
141 137 32
140 135 36
141 136 41
150 145 48
146 141 47
143 138 36
140 136 48
146 140 41
144 136 54
142 135 47
140 134 44
153 147 54
149 143 51
146 141 48
142 136 48
147 140 53
148 142 44
142 137 42
142 135 47
150 143 51
141 135 47
144 138 53
146 140 56
146 141 48
149 142 49
153 147 52
144 138 48
148 142 48
143 137 47
148 140 45
151 145 51
141 135 45
149 143 54
149 143 53
152 147 57
147 141 51
147 142 45
146 141 51
146 139 59
148 142 56
145 138 54
148 141 63
149 142 53
147 142 48
153 146 59
138 132 42
144 138 51
140 135 52
147 142 59
147 141 45
143 137 48
140 134 49
138 131 53
139 134 48
144 137 62
139 132 53
150 142 62
142 135 54
144 139 48
139 133 48
142 137 49
151 172 0
152 173 0
153 174 0
152 172 0
152 172 0
152 173 0
151 172 0
151 172 0
156 176 0
153 174 0
152 173 0
151 172 0
153 174 0
153 173 0
146 167 0
152 171 0
149 169 0
154 174 0
148 168 0
150 170 0
154 174 0
152 173 0
152 172 0
151 172 0
148 169 0
152 173 0
153 173 0
153 174 0
150 171 0
151 171 0
149 169 0
147 168 0
152 172 0
151 171 0
150 170 0
147 167 0
149 169 0
148 168 0
149 169 0
153 172 0
148 168 0
149 170 0
150 170 0
151 171 0
148 169 0
148 168 0
147 167 0
149 169 0
146 166 0
147 167 0
145 165 0
148 168 0
144 163 0
150 170 0
146 165 0
148 169 0
145 165 0
146 167 0
149 169 0
146 166 0
145 164 0
142 162 0
146 166 0
146 166 0
143 163 0
142 162 0
144 163 0
142 162 0
145 164 0
143 163 0
142 161 0
142 162 0
147 167 0
141 160 0
137 156 0
145 164 0
142 160 0
133 153 0
140 160 0
141 161 0
142 162 0
137 157 0
133 152 0
142 161 0
141 160 0
134 152 0
140 159 0
135 155 0
138 157 0
136 154 0
135 154 0
131 150 0
123 142 0
139 158 0
137 156 0
128 146 0
129 148 0
138 156 0
136 153 0
128 146 0
129 148 0
128 147 0
132 149 0
125 142 0
125 142 0
132 149 0
125 142 0
125 141 0
124 142 0
119 136 0
122 139 0
126 145 0
111 128 0
120 137 0
119 136 0
112 129 0
118 134 0
113 129 0
107 124 0
112 128 0
112 128 0
114 130 0
108 124 0
93 107 0
108 124 0
100 115 0
108 124 0
110 125 0
111 127 0
110 125 0
107 123 0
118 136 0
121 136 0
106 122 0
132 149 0
164 187 0
161 183 0
158 180 0
163 185 0
161 183 0
160 182 0
160 183 0
155 178 0
157 179 0
158 181 0
159 180 0
156 179 0
157 180 0
156 178 0
155 178 0
154 176 0
155 178 0
157 181 0
148 171 0
163 185 0
153 175 0
155 176 0
161 182 0
159 181 0
148 170 0
152 173 0
95 115 56
45 72 67
50 80 93
49 79 80
52 83 93
50 80 91
52 82 98
52 83 96
50 80 82
52 82 98
51 81 101
51 81 87
54 86 98
54 86 103
55 87 105
52 83 92
54 85 95
54 85 109
52 82 91
54 85 103
55 87 105
54 86 92
55 86 110
52 83 94
57 90 115
56 89 114
52 83 99
52 83 86
54 85 88
52 83 100
54 85 102
54 86 95
54 86 90
55 86 94
56 88 102
54 85 103
55 88 105
55 86 103
56 88 111
55 87 108
57 90 111
55 87 97
54 86 97
53 84 95
55 87 99
56 88 107
55 87 105
52 83 95
54 86 102
54 85 99
55 86 105
55 86 110
56 87 99
52 83 94
55 87 108
52 82 93
56 87 99
56 88 110
56 88 110
53 85 97
51 79 82
53 83 99
52 82 93
54 85 98
51 81 83
54 84 100
52 81 104
51 81 90
51 80 83
51 81 83
46 73 84
46 73 77
47 74 78
52 80 90
47 73 73
48 74 76
47 73 61
97 118 52
153 173 0
152 172 0
151 171 0
144 164 0
152 172 0
150 171 0
150 169 0
158 178 0
156 176 0
151 170 0
152 171 0
155 173 0
152 171 0
158 177 0
153 172 0
154 173 0
154 174 0
160 179 0
159 178 0
157 177 0
154 174 0
158 177 0
154 172 0
160 180 0
151 168 0
159 179 0
139 149 30
95 90 23
98 93 37
90 87 19
85 82 16
86 82 18
85 81 16
84 81 14
88 84 16
91 88 18
93 90 8
97 93 8
93 89 14
87 83 16
96 93 9
94 92 8
98 95 11
92 91 15
90 88 8
101 98 14
94 92 8
99 97 0
99 95 11
110 108 22
106 102 26
117 113 16
117 113 24
108 104 18
115 111 19
121 116 37
113 108 22
127 121 29
117 113 23
116 112 22
120 117 25
129 126 29
121 118 25
126 121 21
124 119 25
126 122 28
124 120 25
122 119 24
115 112 26
134 128 28
126 122 34
132 127 28
138 132 37
129 123 25
129 125 34
135 129 36
137 132 25
143 137 25
129 123 32
139 133 36
133 130 30
139 135 34
133 128 34
145 140 36
136 131 34
143 136 41
141 136 37
129 125 32
139 134 34
143 138 37
133 129 39
150 145 44
142 137 30
144 137 49
136 131 28
139 134 44
140 133 39
146 140 48
141 135 37
144 140 37
145 139 39
146 141 42
146 139 52
140 135 36
139 134 42
146 139 45
145 140 49
148 143 41
151 144 42
147 141 42
151 144 48
138 133 28
141 136 37
152 145 58
150 143 51
144 138 47
144 137 48
139 134 30
138 131 45
141 134 48
149 143 47
142 137 36
141 136 42
147 141 45
145 139 45
150 144 57
145 140 53
143 137 57
142 137 48
141 134 48
143 137 53
148 140 52
142 136 48
144 137 54
139 134 48
146 140 52
151 145 62
150 145 58
148 142 57
138 132 48
146 141 54
136 131 44
140 134 47
140 137 44
146 139 58
137 132 45
145 138 56
138 133 49
134 129 45
141 135 47
135 130 51
141 135 48
143 138 53
135 129 45
141 135 56
144 138 54
139 133 51
137 133 47
142 136 51
136 130 51
138 132 51
152 173 0
154 174 0
153 174 0
154 174 0
153 174 0
151 172 0
153 173 0
152 173 0
151 171 0
153 173 0
151 172 0
152 172 0
152 173 0
149 169 0
151 172 0
153 173 0
149 169 0
149 170 0
153 174 0
149 169 0
149 170 0
152 172 0
151 172 0
152 172 0
151 171 0
152 172 0
150 171 0
149 170 0
149 169 0
148 168 0
150 171 0
147 167 0
151 172 0
147 167 0
147 168 0
149 169 0
151 171 0
152 172 0
148 168 0
147 166 0
147 168 0
148 169 0
148 167 0
150 170 0
147 168 0
148 169 0
148 168 0
141 161 0
148 167 0
145 165 0
144 164 0
145 164 0
146 167 0
146 166 0
149 168 0
145 165 0
148 168 0
145 165 0
143 163 0
143 163 0
148 169 0
147 166 0
144 164 0
144 163 0
142 162 0
144 163 0
145 165 0
142 162 0
144 164 0
142 162 0
142 162 0
143 162 0
140 159 0
142 163 0
140 159 0
139 159 0
135 154 0
137 157 0
139 159 0
139 157 0
138 156 0
139 159 0
137 156 0
134 153 0
140 158 0
133 151 0
135 154 0
134 153 0
135 154 0
137 156 0
133 151 0
134 153 0
129 147 0
133 152 0
131 150 0
137 156 0
135 153 0
126 143 0
127 146 0
121 139 0
125 143 0
130 148 0
132 151 0
128 147 0
127 144 0
119 137 0
123 141 0
128 146 0
118 134 0
120 137 0
125 143 0
119 136 0
116 132 0
120 136 0
112 129 0
118 134 0
108 125 0
115 131 0
113 130 0
119 135 0
116 133 0
114 130 0
112 128 0
109 123 0
105 120 0
112 127 0
105 120 0
109 124 0
111 127 0
120 136 0
115 132 0
116 132 0
109 124 0
134 152 0
161 183 0
158 180 0
156 177 0
165 187 0
161 182 0
160 183 0
159 181 0
157 178 0
154 178 0
156 178 0
153 175 0
160 182 0
157 179 0
162 184 0
154 175 0
161 182 0
154 176 0
157 179 0
151 173 0
146 167 0
154 176 0
151 173 0
151 172 0
150 172 0
156 178 0
154 176 0
154 176 0
146 167 16
79 102 81
48 76 74
53 84 93
48 77 80
49 78 84
51 81 82
51 82 90
51 81 85
51 81 90
52 82 88
52 83 93
53 84 94
54 85 91
53 84 96
50 79 86
55 87 108
53 83 91
52 83 90
52 83 78
54 85 98
53 84 94
53 85 92
54 85 86
54 86 103
55 88 108
57 91 105
54 85 99
54 85 100
53 84 99
52 82 103
53 83 102
52 82 95
54 87 100
56 89 111
55 87 102
54 85 92
57 90 120
52 83 84
53 85 98
53 84 92
56 88 115
54 85 86
54 85 95
55 86 104
55 87 99
55 87 107
55 87 97
55 86 102
53 84 90
51 81 95
51 81 80
53 84 88
54 84 105
51 81 97
53 83 99
53 83 92
52 82 80
50 81 90
52 83 81
52 82 93
52 81 89
53 84 85
52 82 98
51 80 83
52 82 79
52 83 89
50 78 89
52 81 87
51 80 87
50 79 87
53 83 94
50 77 86
49 77 88
46 72 66
46 70 82
60 80 54
140 158 0
144 164 0
154 173 0
148 168 0
149 168 0
156 175 0
147 166 0
150 169 0
149 168 0
149 168 0
150 169 0
157 176 0
153 171 0
153 173 0
154 175 0
149 166 0
154 170 0
154 172 0
151 168 0
155 173 0
153 172 0
157 176 0
158 174 0
153 171 0
160 176 0
152 170 0
156 172 0
154 173 0
125 133 25
89 85 29
90 85 28
83 78 18
88 82 22
88 82 18
79 76 11
96 93 2
91 88 0
71 70 0
80 76 11
87 83 0
86 85 14
87 83 8
94 90 3
101 98 12
95 92 8
102 99 11
94 89 3
105 102 8
107 104 16
108 104 14
104 101 18
111 106 14
110 107 16
111 107 18
113 110 8
108 107 18
117 114 14
114 109 19
110 107 17
115 111 21
115 110 14
118 114 26
126 123 26
124 120 29
129 122 34
125 120 19
123 119 22
126 122 25
130 126 26
126 122 29
134 128 25
126 120 25
129 124 27
134 129 37
132 127 34
129 124 34
126 121 36
129 126 22
136 132 28
137 131 30
133 127 36
140 134 34
132 128 36
136 131 30
134 130 32
135 131 25
137 132 31
134 129 32
139 133 34
143 136 44
140 134 36
144 138 41
139 132 39
137 132 36
144 137 51
144 137 47
151 143 48
134 128 37
135 130 37
143 138 39
138 131 36
135 129 39
148 141 49
138 133 42
145 138 42
148 143 44
148 142 45
135 129 45
144 138 49
148 141 47
139 134 42
146 141 45
142 137 45
136 130 30
144 138 47
139 134 45
142 136 44
149 143 47
145 141 41
139 134 42
141 136 41
144 138 44
146 140 42
149 144 47
143 138 47
141 135 48
142 135 48
145 140 44
128 122 44
133 128 36
149 142 49
142 137 47
143 137 49
139 132 49
139 134 48
137 132 28
145 139 49
145 138 49
146 140 53
147 139 56
141 134 53
139 132 45
146 139 51
150 144 56
145 139 52
137 131 45
146 139 60
142 135 53
140 135 54
151 144 60
145 140 52
141 135 53
143 137 59
144 137 49
146 139 56
127 122 42
140 133 51
143 137 52
145 139 56
145 138 56
144 139 53
138 132 53
154 174 0
152 172 0
153 174 0
152 173 0
155 174 0
154 175 0
152 173 0
152 172 0
150 171 0
152 173 0
148 168 0
149 169 0
152 172 0
153 173 0
149 170 0
152 173 0
152 172 0
152 173 0
151 171 0
151 171 0
149 169 0
150 171 0
149 169 0
150 171 0
154 173 0
152 172 0
149 169 0
153 173 0
150 170 0
150 170 0
152 172 0
152 171 0
145 166 0
148 168 0
147 168 0
148 168 0
151 171 0
151 172 0
152 172 0
147 168 0
150 171 0
150 170 0
150 169 0
149 169 0
148 168 0
148 168 0
148 169 0
145 164 0
149 169 0
147 167 0
144 163 0
145 164 0
144 164 0
147 168 0
146 166 0
146 166 0
143 162 0
149 170 0
147 167 0
140 160 0
148 168 0
142 161 0
143 162 0
141 161 0
143 163 0
143 162 0
147 167 0
144 164 0
143 160 0
140 160 0
141 160 0
141 159 0
142 161 0
146 166 0
137 156 0
137 155 0
141 161 0
135 153 0
142 161 0
129 148 0
140 160 0
137 156 0
136 154 0
134 152 0
139 158 0
136 155 0
135 151 0
134 153 0
134 153 0
135 153 0
128 146 0
131 149 0
135 153 0
128 145 0
133 151 0
128 146 0
126 143 0
129 147 0
132 151 0
128 147 0
129 147 0
124 142 0
122 140 0
128 145 0
127 147 0
130 147 0
121 138 0
124 141 0
125 143 0
116 132 0
126 145 0
114 131 0
116 132 0
121 138 0
112 129 0
116 133 0
115 132 0
114 130 0
119 136 0
116 131 0
106 122 0
111 126 0
110 125 0
110 125 0
97 112 0
109 125 0
107 122 0
112 128 0
114 130 0
111 127 0
109 123 0
110 126 0
123 139 0
156 178 0
161 182 0
157 179 0
156 177 0
157 179 0
156 177 0
159 180 0
157 178 0
159 180 0
152 173 0
154 175 0
153 174 0
155 176 0
153 174 0
149 171 0
155 177 0
148 169 0
148 170 0
146 168 0
151 174 0
155 177 0
154 175 0
151 173 0
149 171 0
151 173 0
144 166 0
145 167 0
144 166 0
147 168 0
134 155 25
67 91 57
49 77 72
50 79 84
46 73 64
50 79 76
47 76 78
47 75 73
51 80 84
50 80 91
51 82 88
53 84 97
52 83 95
52 83 82
53 84 103
51 82 82
53 84 97
53 84 101
55 87 97
52 82 82
52 83 84
55 87 103
54 85 102
54 85 95
54 85 97
54 85 94
54 86 94
54 85 109
55 87 95
54 84 99
55 87 102
54 85 98
51 81 86
52 81 86
53 85 86
52 82 84
52 82 90
54 86 97
52 83 94
55 87 107
52 83 94
53 84 103
54 85 94
55 86 105
52 83 96
56 88 113
54 86 108
54 86 100
52 83 76
53 84 90
54 84 102
54 85 99
53 83 95
52 82 87
55 87 114
52 83 97
52 82 82
51 80 95
51 79 94
54 85 97
54 85 99
53 84 88
53 83 90
51 80 84
50 79 92
52 81 92
52 81 94
51 80 86
48 75 83
49 77 65
46 72 68
50 78 71
52 81 79
50 78 87
72 90 44
138 156 31
150 169 0
134 151 0
148 168 0
149 170 0
150 167 0
155 172 0
138 157 0
143 163 0
152 169 0
146 163 0
152 170 0
159 177 0
154 171 0
138 154 0
147 165 0
153 171 0
152 170 0
153 171 0
152 170 0
146 162 0
154 169 0
151 164 0
156 173 0
155 171 0
153 170 0
156 173 0
151 169 0
150 165 0
159 176 0
116 121 12
88 83 26
98 93 25
86 83 23
83 79 19
92 88 11
79 76 16
84 79 11
95 91 11
95 90 8
95 92 8
85 81 8
99 94 11
93 88 14
93 91 8
96 93 16
93 91 11
104 101 11
103 99 11
107 101 21
104 101 16
100 97 21
104 99 11
104 102 13
116 112 22
107 104 18
115 110 11
107 104 16
116 113 16
112 109 18
122 118 19
115 112 18
117 113 29
118 114 18
122 117 24
124 119 21
121 117 16
129 123 32
119 115 18
112 109 19
115 110 18
128 122 25
132 126 32
135 132 27
130 126 30
126 121 22
136 131 31
130 124 33
132 127 29
128 122 32
129 125 24
125 119 28
139 135 37
138 132 32
138 134 31
131 125 32
137 132 37
141 133 39
137 131 28
139 132 34
138 131 32
141 134 44
136 131 37
141 135 39
141 134 41
137 132 34
138 132 30
144 137 44
141 136 34
141 135 41
142 138 36
145 138 44
141 135 44
150 143 45
138 133 42
148 143 48
140 133 39
147 142 45
136 131 42
145 139 51
136 130 41
143 136 52
150 143 53
142 137 41
143 137 48
144 139 41
148 142 48
138 133 37
143 136 48
142 136 51
143 136 42
149 142 51
149 143 52
140 135 42
134 128 41
141 135 52
145 138 42
152 144 45
137 131 48
141 134 47
145 140 48
139 132 48
139 133 41
142 136 48
137 130 44
145 139 51
140 134 44
147 141 49
143 137 48
152 146 52
142 136 47
143 137 54
145 138 52
136 128 45
148 142 45
142 135 54
148 141 57
144 137 57
138 131 41
142 135 48
136 130 49
141 134 49
144 137 49
141 135 54
143 137 56
138 132 51
143 137 57
140 135 49
142 136 53
146 138 57
142 136 57
133 128 49
135 130 51
154 174 0
153 174 0
154 175 0
151 172 0
152 172 0
150 171 0
153 173 0
149 169 0
151 171 0
152 173 0
152 173 0
149 168 0
150 170 0
152 173 0
153 173 0
148 168 0
149 170 0
149 169 0
149 169 0
150 171 0
153 173 0
150 170 0
151 172 0
147 168 0
151 171 0
150 170 0
151 170 0
151 171 0
144 164 0
149 169 0
150 170 0
147 166 0
150 170 0
147 166 0
148 168 0
146 165 0
150 170 0
149 169 0
149 169 0
149 169 0
145 165 0
145 164 0
148 168 0
147 167 0
149 169 0
146 166 0
147 167 0
146 166 0
144 163 0
149 168 0
149 168 0
147 166 0
144 163 0
144 164 0
145 164 0
144 163 0
146 165 0
146 166 0
147 167 0
146 166 0
145 164 0
147 167 0
141 160 0
142 162 0
146 165 0
142 161 0
143 162 0
142 161 0
145 165 0
142 162 0
137 157 0
138 157 0
138 158 0
138 157 0
141 160 0
139 156 0
134 151 0
141 161 0
138 157 0
140 158 0
141 160 0
139 158 0
140 160 0
136 155 0
135 154 0
133 152 0
141 160 0
134 153 0
135 154 0
131 150 0
133 152 0
126 144 0
131 148 0
132 151 0
137 156 0
126 144 0
127 145 0
127 145 0
127 145 0
130 148 0
122 139 0
122 140 0
123 141 0
131 149 0
135 152 0
123 140 0
123 141 0
113 131 0
120 136 0
125 142 0
122 139 0
119 135 0
117 133 0
113 129 0
116 132 0
109 124 0
112 127 0
108 124 0
119 134 0
109 124 0
118 134 0
112 128 0
109 125 0
115 131 0
107 122 0
98 113 0
109 123 0
102 117 0
113 128 0
106 121 0
109 124 0
126 142 0
160 181 0
153 173 0
153 175 0
148 170 0
157 178 0
160 181 0
152 173 0
157 179 0
158 179 0
152 173 0
148 168 0
159 180 0
155 176 0
151 172 0
151 172 0
147 168 0
151 172 0
154 174 0
151 172 0
148 169 0
149 170 0
146 167 0
147 169 0
138 159 0
141 163 0
152 173 0
137 158 0
146 167 0
143 163 0
136 157 0
139 160 0
140 161 18
69 92 61
48 76 71
49 78 87
50 79 78
49 78 80
48 77 67
50 80 69
53 84 96
52 82 91
52 83 90
52 84 90
53 83 91
52 83 90
52 83 91
53 84 94
53 85 97
54 86 105
53 84 91
53 84 88
54 85 97
50 81 80
54 85 105
51 81 85
55 87 111
56 88 107
52 83 82
52 83 95
50 80 76
54 85 94
56 89 111
54 85 100
54 86 110
56 89 100
53 84 90
51 82 88
53 83 94
53 84 85
54 86 107
53 84 106
55 87 103
56 88 95
50 80 80
53 84 90
51 82 86
52 83 99
54 84 102
51 81 86
53 84 92
52 83 92
53 84 94
52 82 88
52 83 90
54 85 107
51 81 99
54 85 95
52 82 92
52 81 86
52 82 96
49 78 80
53 83 101
53 83 99
51 79 98
50 79 90
51 81 80
50 78 89
50 79 86
52 81 92
50 78 85
47 73 77
52 81 83
49 76 75
66 88 70
132 151 25
144 162 0
133 153 0
131 151 0
135 152 0
143 159 0
148 166 0
141 161 0
149 167 0
139 156 0
152 170 0
145 162 0
146 162 0
149 166 0
146 163 0
148 168 0
137 156 0
142 156 0
152 169 0
151 167 0
154 171 0
147 162 0
153 170 0
154 171 0
155 174 0
150 167 0
153 171 0
155 170 0
149 165 0
146 162 0
156 173 0
149 165 0
137 145 19
94 89 30
84 80 16
90 86 19
83 80 11
78 75 12
85 82 14
79 72 16
93 90 18
84 82 11
89 84 8
93 89 11
85 82 11
89 85 0
101 96 16
101 97 18
90 87 12
90 88 14
102 97 16
102 98 8
106 102 14
106 101 14
107 103 11
101 97 0
116 108 11
107 99 20
107 103 11
113 108 18
109 105 16
116 112 22
108 105 18
124 120 22
113 108 0
122 118 21
125 122 19
124 120 20
126 122 28
121 117 22
127 122 26
129 122 32
117 112 22
127 123 21
126 120 25
123 118 22
127 122 32
130 126 22
127 122 28
129 125 19
122 116 28
136 130 32
133 128 26
138 133 32
133 126 32
137 130 46
135 129 32
130 124 28
135 130 37
133 127 37
128 123 30
138 133 36
137 132 30
132 127 28
133 128 32
136 130 34
134 129 34
141 135 37
136 131 32
137 131 32
136 130 37
143 136 39
142 136 48
142 135 36
138 133 37
147 141 44
138 131 42
144 137 41
138 131 39
137 132 37
140 133 36
144 138 41
141 135 37
142 136 39
144 137 39
141 135 39
137 131 41
138 132 41
133 129 34
139 133 32
141 134 41
135 130 36
143 137 42
138 131 39
146 140 51
151 144 53
146 141 44
141 135 39
141 136 47
140 136 39
134 128 42
143 137 37
135 129 41
149 142 49
141 135 39
150 144 48
142 136 48
146 140 52
147 140 54
140 135 39
140 135 45
141 135 49
136 130 41
143 138 47
139 134 42
146 140 54
138 132 47
133 127 42
141 134 42
140 134 37
148 142 56
136 129 44
135 130 44
140 134 49
142 137 48
146 140 54
144 139 49
129 124 41
131 125 42
140 134 51
141 135 49
141 135 51
138 131 49
136 131 45
152 172 0
154 174 0
152 172 0
152 172 0
153 173 0
153 173 0
153 174 0
153 173 0
153 173 0
150 171 0
150 171 0
152 173 0
151 171 0
154 173 0
153 173 0
150 170 0
152 172 0
150 169 0
152 171 0
150 170 0
151 172 0
152 171 0
150 171 0
152 172 0
151 170 0
150 170 0
150 170 0
148 168 0
150 170 0
146 165 0
148 168 0
150 171 0
149 169 0
148 168 0
145 165 0
146 165 0
146 166 0
146 167 0
148 168 0
146 166 0
145 165 0
151 171 0
147 167 0
144 163 0
144 164 0
149 168 0
148 168 0
148 168 0
144 163 0
147 167 0
145 164 0
146 166 0
145 165 0
147 167 0
147 167 0
144 163 0
145 165 0
142 162 0
146 166 0
141 160 0
142 160 0
145 164 0
139 159 0
143 163 0
146 166 0
144 163 0
141 160 0
139 157 0
143 163 0
142 160 0
141 161 0
138 158 0
138 157 0
146 165 0
134 152 0
142 161 0
142 160 0
137 156 0
148 167 0
141 159 0
141 160 0
137 154 0
139 158 0
141 160 0
130 148 0
134 153 0
141 160 0
128 147 0
135 154 0
135 153 0
135 152 0
127 145 0
137 156 0
129 147 0
125 143 0
128 145 0
127 143 0
123 141 0
133 152 0
130 148 0
126 144 0
126 144 0
119 136 0
126 143 0
121 138 0
118 134 0
125 141 0
123 139 0
121 138 0
114 130 0
121 137 0
115 131 0
119 134 0
120 137 0
112 128 0
120 136 0
115 130 0
106 121 0
108 123 0
109 124 0
115 129 0
105 120 0
105 119 0
114 128 0
111 127 0
107 124 0
106 121 0
109 124 0
111 125 0
105 120 0
130 148 0
160 180 0
153 174 0
150 171 0
151 171 0
152 172 0
152 173 0
153 173 0
149 169 0
152 172 0
152 173 0
147 167 0
148 168 0
138 158 0
150 171 0
144 165 0
147 169 0
153 174 0
148 169 0
145 166 0
147 169 0
143 163 0
141 162 0
144 165 0
150 171 0
137 157 0
146 167 0
144 165 0
147 168 0
141 163 0
141 162 0
145 166 0
146 167 0
133 154 0
133 153 0
79 103 75
47 75 69
50 80 85
49 78 74
51 80 89
48 77 74
51 81 87
51 81 97
52 81 102
51 81 84
49 77 85
50 79 78
51 81 84
50 80 84
51 81 88
53 84 97
51 81 82
54 85 97
54 85 95
53 84 97
53 84 102
51 82 80
52 83 93
53 84 94
55 87 100
53 84 103
55 86 98
53 85 90
52 83 90
53 85 90
56 89 100
52 83 95
52 83 95
54 85 88
54 85 99
51 82 85
52 84 95
54 85 100
52 83 86
53 83 87
52 83 97
53 83 103
54 86 103
53 84 88
55 87 99
51 80 94
51 82 78
51 82 88
56 87 104
53 85 81
53 84 94
51 81 81
50 78 85
54 85 94
51 80 94
49 77 78
52 82 99
52 81 90
52 81 78
50 78 89
49 77 81
50 78 78
50 79 84
48 76 75
51 80 81
49 76 77
47 73 87
47 74 77
45 70 61
57 78 54
127 144 0
138 157 0
140 155 0
138 156 0
139 156 0
137 155 0
141 157 0
137 154 0
149 168 0
146 164 0
139 157 0
143 160 0
135 153 0
149 166 0
139 158 0
138 155 0
138 153 0
153 170 0
146 162 0
146 162 0
146 162 0
146 162 0
148 163 0
145 161 0
143 161 0
150 165 0
155 171 0
147 164 0
153 167 0
148 162 0
138 150 0
146 162 0
154 168 0
151 165 0
129 138 16
91 87 19
82 74 22
84 79 22
87 83 16
92 88 19
90 83 16
91 85 0
105 99 11
78 76 0
92 88 16
97 93 8
88 84 0
88 87 12
90 87 16
96 94 12
96 92 8
100 96 11
100 96 0
104 99 11
109 107 14
97 93 11
109 104 11
108 104 11
114 110 11
112 108 21
107 103 18
114 109 14
122 116 16
111 107 11
109 104 14
115 110 26
119 114 20
118 115 18
123 118 22
119 113 28
120 116 18
124 118 24
126 122 11
110 106 19
127 122 19
130 125 11
125 121 26
121 115 28
128 123 25
129 122 28
129 125 26
130 123 28
122 118 22
129 123 28
124 119 30
136 131 31
134 128 30
129 126 25
140 134 34
134 127 32
140 133 32
124 120 22
135 130 25
135 129 37
136 130 28
139 133 28
133 128 30
142 134 37
135 128 37
135 127 30
149 144 39
132 125 37
141 134 42
140 132 42
140 134 39
138 134 34
142 137 44
135 128 37
146 139 44
146 140 42
133 129 22
143 135 42
136 130 41
133 127 32
138 133 41
136 130 39
136 130 36
142 135 34
143 137 42
143 137 39
141 136 37
141 136 44
134 128 39
139 134 44
136 130 41
140 134 41
139 133 45
136 131 39
141 135 45
140 134 37
146 141 41
146 140 49
136 130 34
145 138 45
141 136 45
138 133 42
136 130 48
137 129 48
142 136 48
143 137 47
138 134 42
151 144 52
138 132 39
138 132 42
148 141 53
146 141 49
134 128 42
134 129 51
146 140 51
142 136 53
135 129 44
143 136 53
137 131 47
134 127 37
143 136 49
141 135 49
138 132 47
133 127 42
142 135 49
139 134 51
136 132 49
144 138 52
146 139 53
141 134 54
136 130 45
156 176 0
149 170 0
152 172 0
151 171 0
150 171 0
153 173 0
150 170 0
152 172 0
151 172 0
154 174 0
151 171 0
153 173 0
151 171 0
151 170 0
153 172 0
154 175 0
150 170 0
150 170 0
152 172 0
149 170 0
150 170 0
151 171 0
150 171 0
150 170 0
149 170 0
152 172 0
148 168 0
147 167 0
148 169 0
150 170 0
148 168 0
149 169 0
150 170 0
150 170 0
149 170 0
148 167 0
148 167 0
148 167 0
146 165 0
143 162 0
147 165 0
150 171 0
150 170 0
148 167 0
147 167 0
150 169 0
141 160 0
147 166 0
146 166 0
145 165 0
145 165 0
149 169 0
147 167 0
144 163 0
144 164 0
144 163 0
139 159 0
148 166 0
144 162 0
140 159 0
143 162 0
142 161 0
141 160 0
139 159 0
144 163 0
137 157 0
143 163 0
138 157 0
143 162 0
142 162 0
144 164 0
143 162 0
138 156 0
142 161 0
137 156 0
136 155 0
138 156 0
139 157 0
132 151 0
136 156 0
141 159 0
136 154 0
137 156 0
135 154 0
134 152 0
137 155 0
136 155 0
132 150 0
128 147 0
135 154 0
138 156 0
132 151 0
136 154 0
128 146 0
130 149 0
130 148 0
125 142 0
128 145 0
120 138 0
122 139 0
121 138 0
116 133 0
127 143 0
119 135 0
129 146 0
127 143 0
123 140 0
122 138 0
120 138 0
121 137 0
112 128 0
117 132 0
115 131 0
106 122 0
111 126 0
122 138 0
109 124 0
114 130 0
117 132 0
111 125 0
113 128 0
108 124 0
107 121 0
99 114 0
112 127 0
97 111 0
109 123 0
102 116 0
104 117 0
136 153 0
157 177 0
154 174 0
156 176 0
142 163 0
157 177 0
149 169 0
156 176 0
157 178 0
152 173 0
144 164 0
146 167 0
148 169 0
148 168 0
148 168 0
153 173 0
145 166 0
144 164 0
147 168 0
136 156 0
143 164 0
145 164 0
132 152 0
131 152 0
149 168 0
140 160 0
145 165 0
137 157 0
142 162 0
139 160 0
138 159 0
132 151 0
142 162 0
130 149 0
139 159 0
135 155 0
132 152 18
73 94 44
46 74 62
45 72 62
51 80 82
48 77 79
48 77 82
51 80 92
49 78 77
46 74 65
49 78 87
49 79 78
50 81 78
52 83 95
48 78 72
50 80 85
52 83 90
51 81 82
51 81 89
53 84 90
50 80 74
52 83 76
53 84 94
52 83 78
53 84 100
51 81 78
52 82 92
53 83 92
53 84 98
53 84 98
54 85 95
51 82 92
53 85 97
53 85 84
53 85 91
51 81 78
55 87 97
53 84 79
52 82 86
52 83 90
51 82 78
53 83 99
53 83 94
52 82 95
52 82 86
51 80 82
51 81 85
54 85 85
50 80 80
53 84 88
52 82 92
53 84 92
50 80 78
51 80 87
48 76 72
54 86 103
50 80 92
51 80 76
50 78 78
49 76 85
53 84 105
49 78 84
48 76 74
48 76 72
48 76 68
49 77 83
49 76 80
44 69 70
74 92 57
129 146 8
132 151 0
133 147 0
140 159 0
136 153 0
128 146 0
137 155 0
134 153 0
140 157 0
132 148 0
136 151 0
147 163 0
137 153 0
134 150 0
134 148 0
134 148 0
143 157 0
140 157 0
140 155 0
133 148 0
142 158 0
139 152 0
146 162 0
133 148 0
149 164 0
143 158 0
144 161 0
142 156 0
143 156 0
151 163 0
147 161 0
145 160 0
152 167 0
154 166 0
150 163 0
149 163 0
129 138 0
92 85 32
87 82 11
90 85 25
76 73 8
90 84 16
92 85 18
88 85 0
91 85 0
93 88 16
93 87 0
91 87 8
98 93 8
89 86 0
87 84 0
92 89 0
98 94 16
93 90 10
98 94 14
94 91 14
109 105 11
102 96 12
104 99 14
109 102 11
108 103 8
102 99 11
103 101 11
112 107 8
113 108 14
118 114 19
118 114 18
113 110 14
121 117 19
114 113 19
115 110 0
121 117 0
112 109 21
124 120 16
130 125 35
124 120 21
117 110 16
127 122 22
119 114 22
128 123 24
120 116 22
132 126 28
128 124 25
129 125 19
132 126 25
137 130 34
134 128 28
132 126 32
135 129 30
127 122 37
132 125 32
130 127 19
126 120 22
134 130 28
130 125 24
136 129 30
130 124 32
136 131 39
135 129 34
131 127 32
142 136 34
143 138 39
131 126 32
141 135 42
137 132 25
138 130 34
143 138 30
138 133 36
138 133 37
137 132 39
138 133 34
137 131 39
137 131 37
150 145 37
146 141 47
141 134 48
140 136 45
135 129 30
144 139 36
131 124 36
139 133 45
144 138 47
138 132 37
125 120 28
142 136 41
143 136 41
135 130 44
132 126 39
141 135 49
145 139 48
138 132 39
140 134 48
146 140 51
136 130 47
131 126 34
139 132 48
136 129 47
138 133 47
141 135 45
141 135 48
142 136 51
134 128 42
147 140 49
137 130 44
141 136 42
137 131 49
144 137 52
135 128 44
147 141 56
142 137 45
140 134 45
137 130 42
141 135 47
138 133 45
136 130 48
143 137 51
132 126 36
137 132 49
145 138 47
143 137 47
138 132 48
136 129 48
138 132 52
145 140 57
132 127 42
140 134 48
152 172 0
151 171 0
151 172 0
154 174 0
151 171 0
152 173 0
152 172 0
151 172 0
151 171 0
148 168 0
153 172 0
149 170 0
149 169 0
151 171 0
150 170 0
151 170 0
152 172 0
151 171 0
148 168 0
147 167 0
151 171 0
152 172 0
148 167 0
147 167 0
148 169 0
148 167 0
152 172 0
149 169 0
149 169 0
151 171 0
148 168 0
149 168 0
147 168 0
149 168 0
149 169 0
146 166 0
147 167 0
150 169 0
149 169 0
146 164 0
146 166 0
148 167 0
146 165 0
146 166 0
147 166 0
148 168 0
146 166 0
147 167 0
143 163 0
147 166 0
146 165 0
143 162 0
145 166 0
145 164 0
147 167 0
142 162 0
146 164 0
140 158 0
144 162 0
140 160 0
145 164 0
143 162 0
143 163 0
143 163 0
144 164 0
140 159 0
139 158 0
143 162 0
139 158 0
142 161 0
142 160 0
139 157 0
142 160 0
138 156 0
137 156 0
132 151 0
140 158 0
135 153 0
136 155 0
139 157 0
133 151 0
129 146 0
138 157 0
129 146 0
137 155 0
132 149 0
130 148 0
129 147 0
136 154 0
133 151 0
132 150 0
125 142 0
133 151 0
127 144 0
130 148 0
136 155 0
123 141 0
133 151 0
130 147 0
134 153 0
135 152 0
130 148 0
127 143 0
129 146 0
125 142 0
114 130 0
118 133 0
121 136 0
116 132 0
119 136 0
109 125 0
114 131 0
118 134 0
112 128 0
114 130 0
111 126 0
106 121 0
115 131 0
101 115 0
115 130 0
104 117 0
111 126 0
101 116 0
114 128 0
100 114 0
111 126 0
103 116 0
104 118 0
140 158 0
149 169 0
154 174 0
147 167 0
152 172 0
146 165 0
142 162 0
151 170 0
150 171 0
148 168 0
146 166 0
150 170 0
151 171 0
150 170 0
145 164 0
136 155 0
136 155 0
146 166 0
134 153 0
141 161 0
146 166 0
134 155 0
138 157 0
142 162 0
142 163 0
138 157 0
149 171 0
137 156 0
141 161 0
138 158 0
141 162 0
131 151 0
143 164 0
140 160 0
133 154 0
126 144 0
127 147 0
127 147 0
122 142 18
96 118 54
46 73 59
45 72 71
45 73 60
48 77 82
47 75 59
46 74 75
48 77 74
51 81 70
53 84 89
50 80 84
51 80 86
49 79 74
51 81 102
49 80 80
50 80 82
50 80 84
53 83 84
49 79 72
49 79 71
53 83 94
53 84 105
51 81 86
52 83 99
54 86 94
49 79 78
49 77 86
55 88 102
52 83 90
56 88 113
52 82 88
54 85 102
52 82 90
52 83 92
51 81 72
51 82 86
53 83 88
52 83 94
53 84 88
51 81 72
54 85 94
52 83 82
53 83 90
51 81 88
53 84 107
53 84 94
52 82 84
49 78 79
51 81 94
52 81 95
51 81 81
52 81 94
53 84 87
50 79 80
51 79 85
48 76 80
48 76 72
45 71 60
46 73 65
48 76 81
51 79 83
50 77 82
47 73 78
48 75 70
46 72 73
96 114 31
125 143 0
129 146 0
134 149 0
135 152 0
132 146 0
131 146 0
130 145 0
125 141 0
129 144 0
129 145 0
136 151 0
134 150 0
131 146 0
133 149 0
140 153 0
136 149 0
132 147 0
129 144 0
135 150 0
141 157 0
143 156 0
137 153 0
144 159 0
130 144 0
133 146 0
150 166 0
143 156 0
140 155 0
136 148 0
136 148 0
144 155 0
134 145 0
144 155 0
137 151 0
143 154 0
150 163 0
151 164 0
150 164 0
136 143 16
96 91 28
91 87 22
77 72 14
92 86 22
81 78 0
96 91 12
86 81 0
79 75 11
92 88 11
94 88 0
97 91 0
96 89 0
104 97 0
99 96 8
88 84 0
95 90 5
99 96 14
101 97 11
102 98 8
99 94 8
96 93 0
102 97 11
101 98 0
108 103 8
113 108 14
114 111 8
118 116 11
118 111 16
117 112 11
114 109 18
115 110 16
117 112 0
115 111 19
118 114 16
112 108 21
123 117 19
117 114 0
124 117 19
126 121 18
125 119 25
125 119 25
130 124 16
124 120 16
124 120 22
121 116 19
128 121 32
132 128 22
129 124 21
117 112 19
128 123 32
124 118 16
136 130 22
124 120 30
136 131 28
130 126 16
134 128 28
136 130 36
141 135 25
131 125 37
134 129 28
133 127 36
132 125 32
137 130 39
134 129 30
129 126 22
131 126 28
144 137 37
133 127 30
144 137 36
140 134 30
140 134 34
132 126 36
137 132 34
141 135 32
138 132 36
136 131 28
129 124 32
140 135 39
133 127 39
140 133 44
137 131 39
144 138 37
135 131 34
132 126 32
130 124 30
135 129 41
133 127 25
136 130 34
133 128 37
138 132 37
141 135 42
143 136 45
132 127 39
136 131 39
141 134 44
141 133 47
141 135 42
139 131 42
136 131 37
143 137 44
135 131 32
141 134 52
134 129 36
142 137 49
131 126 37
134 128 42
139 133 49
139 133 45
134 127 39
136 131 45
137 131 49
148 141 54
136 131 44
140 134 48
128 122 44
130 124 44
139 133 51
131 126 42
130 125 45
138 133 47
145 138 53
148 142 56
129 123 39
137 131 47
132 125 42
130 125 44
129 124 44
131 125 44
150 171 0
153 174 0
151 172 0
149 169 0
151 170 0
152 173 0
154 174 0
152 172 0
155 174 0
149 169 0
150 170 0
151 171 0
151 171 0
148 168 0
149 169 0
150 169 0
151 171 0
149 169 0
150 171 0
151 171 0
148 169 0
146 167 0
152 172 0
150 171 0
149 169 0
151 170 0
150 169 0
147 167 0
152 172 0
150 170 0
147 167 0
148 168 0
151 171 0
146 166 0
147 167 0
147 167 0
149 168 0
149 169 0
150 169 0
142 162 0
147 166 0
142 161 0
145 166 0
145 165 0
148 167 0
146 166 0
148 168 0
145 164 0
142 162 0
147 166 0
146 164 0
147 167 0
148 168 0
142 161 0
144 163 0
145 164 0
144 163 0
145 165 0
145 164 0
141 161 0
142 161 0
137 157 0
143 162 0
148 166 0
143 162 0
143 161 0
135 153 0
138 157 0
140 158 0
143 162 0
144 163 0
137 156 0
146 165 0
136 154 0
137 156 0
139 158 0
135 153 0
136 154 0
137 155 0
137 154 0
138 157 0
135 154 0
135 154 0
136 155 0
130 147 0
135 153 0
133 151 0
134 152 0
130 146 0
132 150 0
128 146 0
132 151 0
134 152 0
129 147 0
128 145 0
135 153 0
124 141 0
132 150 0
125 142 0
124 140 0
123 139 0
130 146 0
125 142 0
124 142 0
125 142 0
123 140 0
123 140 0
115 130 0
115 132 0
117 134 0
118 133 0
117 132 0
106 121 0
113 128 0
111 126 0
103 118 0
109 124 0
115 130 0
118 133 0
102 116 0
106 120 0
103 119 0
111 125 0
92 105 0
105 120 0
98 111 0
109 123 0
143 161 0
138 156 0
141 160 0
148 166 0
141 159 0
141 159 0
133 150 0
146 165 0
142 161 0
142 161 0
144 163 0
149 168 0
148 167 0
151 172 0
138 158 0
144 164 0
140 158 0
144 164 0
130 149 0
131 150 0
144 164 0
140 160 0
127 145 0
130 150 0
140 160 0
135 154 0
138 157 0
135 154 0
141 161 0
138 158 0
136 156 0
124 144 0
139 159 0
136 155 0
140 160 0
131 150 0
133 153 0
127 146 0
121 142 0
118 138 0
133 152 0
96 114 40
61 85 61
46 74 64
50 79 76
49 78 73
45 72 69
49 78 84
47 76 78
50 80 84
50 79 90
52 82 86
52 82 90
53 84 94
48 77 74
51 81 88
54 86 102
50 80 90
51 81 88
52 82 92
53 84 84
50 79 74
50 79 99
48 77 76
53 84 94
52 83 84
48 77 82
52 83 90
50 81 80
53 83 103
50 80 86
53 83 95
51 81 84
52 82 88
51 81 78
53 84 100
52 83 88
51 81 80
53 83 90
54 85 85
50 80 80
51 82 94
48 77 62
50 78 85
52 81 95
50 79 76
51 81 90
51 81 88
50 80 81
47 75 70
51 81 92
49 77 79
50 79 89
49 78 80
50 79 94
47 74 60
46 73 75
46 73 71
46 73 70
47 74 80
46 73 61
48 76 81
45 70 74
54 77 62
111 128 36
111 127 0
132 150 0
132 148 0
133 150 0
119 135 0
126 141 0
121 138 0
121 135 0
120 136 0
140 156 0
135 148 0
132 150 0
135 149 0
131 147 0
138 153 0
132 147 0
123 137 0
131 147 0
141 156 0
135 149 0
142 157 0
135 150 0
136 150 0
140 157 0
134 149 0
136 148 0
139 154 0
136 151 0
140 151 0
136 150 0
144 158 0
150 163 0
142 155 0
140 153 0
132 144 0
139 150 0
143 154 0
134 145 0
129 140 0
138 147 0
142 152 11
97 93 22
88 83 0
75 69 16
85 79 0
90 86 24
78 75 8
87 82 0
85 80 0
93 88 12
86 82 0
90 85 0
86 82 0
103 98 3
88 84 0
95 91 0
85 81 0
103 97 11
111 106 8
108 104 8
100 97 8
101 97 0
108 104 8
94 91 11
112 108 14
110 105 0
107 103 8
117 111 19
114 110 0
113 108 16
119 112 11
119 115 0
116 112 16
125 121 18
116 110 12
112 108 11
120 114 16
116 111 11
127 123 11
117 113 14
120 116 21
127 122 25
120 115 19
130 125 25
129 123 28
124 118 18
128 122 22
129 124 18
127 121 19
134 127 28
128 122 28
126 120 30
128 123 22
130 126 22
136 130 22
130 125 34
134 128 22
137 131 30
135 129 30
145 139 34
137 131 32
125 120 19
141 136 25
139 132 34
130 124 30
127 120 34
138 133 36
135 130 42
141 136 34
144 139 42
138 133 30
129 122 34
134 129 34
136 132 32
131 126 36
137 131 36
133 127 37
138 132 41
135 130 25
133 128 32
142 136 36
141 135 39
135 128 30
138 133 37
138 132 42
142 137 47
137 131 37
141 136 32
141 135 41
135 130 39
138 132 36
136 131 34
143 138 36
137 130 36
141 136 47
134 129 37
136 131 37
141 136 37
142 136 48
133 128 41
133 126 34
139 133 44
141 136 42
136 130 51
142 136 45
134 129 39
147 140 54
131 127 36
138 133 37
141 135 45
135 128 48
141 133 48
134 129 37
136 130 45
127 122 36
135 130 36
134 128 45
134 128 45
139 133 48
140 134 42
131 124 42
136 131 45
134 128 37
125 119 41
135 128 45
136 130 45
135 129 53
134 127 49
153 173 0
151 172 0
153 174 0
150 170 0
152 173 0
151 171 0
154 174 0
151 170 0
150 170 0
152 172 0
150 170 0
149 169 0
152 172 0
152 173 0
151 171 0
150 170 0
148 168 0
152 172 0
149 169 0
149 169 0
150 170 0
149 170 0
150 169 0
149 169 0
149 168 0
148 168 0
148 167 0
148 168 0
146 166 0
147 166 0
149 168 0
147 168 0
151 171 0
145 164 0
146 166 0
148 168 0
145 165 0
146 166 0
147 166 0
145 164 0
150 169 0
146 166 0
148 167 0
147 167 0
145 164 0
147 165 0
146 166 0
144 164 0
146 165 0
146 166 0
140 160 0
146 166 0
135 154 0
142 161 0
140 159 0
148 167 0
143 162 0
146 166 0
141 160 0
144 164 0
141 159 0
145 164 0
142 159 0
136 155 0
141 161 0
141 160 0
142 162 0
138 157 0
144 164 0
143 161 0
144 162 0
139 158 0
138 156 0
135 153 0
137 154 0
138 156 0
142 160 0
138 156 0
134 151 0
135 153 0
133 150 0
139 157 0
137 155 0
137 156 0
132 149 0
136 153 0
133 150 0
133 151 0
134 153 0
129 147 0
131 148 0
129 147 0
126 142 0
132 150 0
132 148 0
121 139 0
123 140 0
127 144 0
121 138 0
124 141 0
123 138 0
121 138 0
121 137 0
128 144 0
123 140 0
125 141 0
116 131 0
122 139 0
117 132 0
114 130 0
113 129 0
114 129 0
118 134 0
103 119 0
107 122 0
112 126 0
102 116 0
108 122 0
104 118 0
107 120 0
106 120 0
109 123 0
107 121 0
108 121 0
103 117 0
117 132 0
145 163 0
143 161 0
146 165 0
146 164 0
160 179 0
146 164 0
138 155 0
137 155 0
142 161 0
141 159 0
142 160 0
136 153 0
135 153 0
140 159 0
135 153 0
133 152 0
141 161 0
140 159 0
127 146 0
140 159 0
132 152 0
132 151 0
141 161 0
136 156 0
140 159 0
135 154 0
133 152 0
140 160 0
132 152 0
130 149 0
130 150 0
120 140 0
139 158 0
136 155 0
125 143 0
122 141 0
135 155 0
120 139 0
122 140 0
123 143 0
126 144 0
121 140 0
111 130 0
105 123 24
63 87 57
44 70 78
46 74 69
48 77 82
46 73 65
49 78 78
48 76 78
49 78 82
47 75 84
49 78 74
48 76 74
49 78 80
52 83 90
50 79 82
50 80 80
48 77 80
52 83 96
49 78 84
50 80 86
48 77 78
52 83 94
50 79 84
51 80 78
51 81 74
52 82 82
52 82 86
53 83 84
51 81 92
52 82 92
52 83 90
50 80 86
53 84 86
53 85 92
50 79 86
53 83 100
46 74 65
52 83 95
51 80 86
48 77 74
52 82 82
50 80 84
52 83 100
52 82 76
50 79 80
52 82 78
50 79 90
48 76 63
49 78 72
51 81 65
50 79 79
48 76 65
49 77 74
48 77 74
48 76 70
43 68 66
48 75 74
50 78 87
45 71 72
44 69 60
66 85 62
113 128 0
106 121 0
105 122 0
124 139 0
108 122 0
119 134 0
118 133 0
127 143 0
117 132 0
120 136 0
124 139 0
119 135 0
129 145 0
122 135 0
136 151 0
129 142 0
133 147 0
132 147 0
133 148 0
141 155 0
125 142 0
135 150 0
133 147 0
140 155 0
128 142 0
135 147 0
132 145 0
128 143 0
126 138 0
138 152 0
130 142 0
143 156 0
135 148 0
144 156 0
136 150 0
136 149 0
135 148 0
138 150 0
144 156 0
136 146 0
137 146 0
142 154 0
145 157 0
131 141 0
111 110 22
101 95 22
81 77 14
82 78 16
87 81 14
90 86 11
98 93 0
86 80 0
90 86 16
82 79 8
81 79 0
96 90 0
93 90 0
101 96 0
91 88 0
101 93 8
100 96 0
99 94 8
99 95 0
107 101 0
103 99 0
108 102 0
103 99 11
112 108 0
108 102 14
110 105 11
109 104 13
108 105 14
110 106 11
107 99 8
110 105 16
108 104 0
106 103 16
121 115 8
114 109 11
118 112 11
119 112 16
120 114 0
115 110 11
125 120 11
126 119 28
126 121 25
126 121 16
134 129 32
125 120 19
119 112 16
124 119 25
134 128 25
129 122 25
126 121 19
130 126 25
128 125 22
124 118 11
138 131 28
132 126 22
132 128 22
133 126 28
127 120 34
135 128 34
136 130 22
131 126 28
130 125 28
129 124 28
133 128 28
131 126 28
129 124 19
128 122 34
133 127 30
140 134 36
131 125 28
131 126 30
134 127 28
140 133 41
135 131 36
127 121 25
140 134 39
128 121 37
133 128 45
136 131 34
144 138 47
135 129 39
141 135 41
139 133 32
130 125 34
139 133 37
138 133 37
136 130 37
140 133 42
139 134 36
132 126 41
133 128 36
137 130 41
142 136 37
138 131 45
136 130 39
136 130 39
136 129 45
137 133 37
137 131 41
134 127 32
132 127 36
136 129 41
129 124 34
145 138 47
131 124 41
135 129 36
144 139 39
135 129 42
137 131 41
139 133 42
132 125 34
139 133 47
143 136 45
138 132 44
134 128 45
132 126 36
137 132 47
140 134 52
142 135 49
135 129 45
132 127 52
129 123 49
128 123 44
146 139 59
132 126 49
127 122 41
151 170 0
150 170 0
151 171 0
150 171 0
153 174 0
152 173 0
152 172 0
152 172 0
153 173 0
151 171 0
152 172 0
151 171 0
151 171 0
148 168 0
150 169 0
150 170 0
152 172 0
147 168 0
150 169 0
145 165 0
150 169 0
150 170 0
149 169 0
148 169 0
149 169 0
148 168 0
147 167 0
151 171 0
144 164 0
148 168 0
147 167 0
150 170 0
145 164 0
148 168 0
145 164 0
147 166 0
145 165 0
148 167 0
144 164 0
151 169 0
144 163 0
146 165 0
151 170 0
144 163 0
143 162 0
140 158 0
144 164 0
143 163 0
146 165 0
144 163 0
143 162 0
143 163 0
147 166 0
146 164 0
142 160 0
141 160 0
142 161 0
144 163 0
146 165 0
140 159 0
142 162 0
144 162 0
138 156 0
137 155 0
140 158 0
143 161 0
138 156 0
138 156 0
144 163 0
142 161 0
137 156 0
142 162 0
133 151 0
139 157 0
139 157 0
140 158 0
136 153 0
135 152 0
131 148 0
135 153 0
133 150 0
141 159 0
134 151 0
130 147 0
132 150 0
134 152 0
137 156 0
126 143 0
131 148 0
139 157 0
135 152 0
128 144 0
131 148 0
124 140 0
126 143 0
129 146 0
120 136 0
127 143 0
122 139 0
126 143 0
128 144 0
124 141 0
118 135 0
123 139 0
120 136 0
116 132 0
122 137 0
115 130 0
121 136 0
115 129 0
111 126 0
119 134 0
117 132 0
108 121 0
101 115 0
103 118 0
106 120 0
111 125 0
106 120 0
112 126 0
103 116 0
105 118 0
102 114 0
97 109 0
132 148 0
141 159 0
139 157 0
137 153 0
143 162 0
134 152 0
142 159 0
144 164 0
130 148 0
134 151 0
141 159 0
137 155 0
134 151 0
133 151 0
134 153 0
139 157 0
140 159 0
137 155 0
136 154 0
124 142 0
137 157 0
137 155 0
134 153 0
133 151 0
139 158 0
133 152 0
130 149 0
127 147 0
135 154 0
126 145 0
140 159 0
122 140 0
127 145 0
136 155 0
140 159 0
134 153 0
123 143 0
119 137 0
124 143 0
123 142 0
121 140 0
128 147 0
114 132 0
119 136 0
122 140 0
112 130 0
116 133 18
86 104 24
49 76 69
47 76 71
43 70 62
48 76 74
46 74 57
48 77 76
49 78 72
48 77 60
49 78 78
50 80 80
50 80 72
49 78 72
49 78 82
49 77 70
53 83 82
50 80 67
53 84 88
53 84 100
50 80 88
47 76 74
52 83 80
50 79 85
53 84 80
49 78 88
53 84 95
51 82 84
52 83 100
52 82 86
49 79 74
53 84 99
50 80 74
49 78 67
51 80 80
52 82 82
47 75 67
49 79 70
50 79 77
48 78 76
52 81 96
48 76 65
52 82 94
52 82 85
49 78 92
51 81 83
48 76 83
49 77 62
49 77 76
47 75 67
50 80 83
48 76 72
48 75 67
46 73 60
46 73 68
47 74 78
45 71 63
44 69 63
74 89 51
112 126 0
117 130 0
124 140 0
110 125 0
111 127 0
104 120 0
124 139 0
119 135 0
124 139 0
113 127 0
128 144 0
131 147 0
116 130 0
132 147 0
125 141 0
121 137 0
126 142 0
122 137 0
130 145 0
132 147 0
136 150 0
125 137 0
132 147 0
132 146 0
128 139 0
132 144 0
126 139 0
123 133 0
135 146 0
137 149 0
123 136 0
140 150 0
132 142 0
136 148 0
143 152 0
125 134 0
134 147 0
133 145 0
133 141 0
130 140 0
138 147 0
122 130 0
146 155 0
132 138 0
134 142 0
135 141 0
121 124 22
87 85 22
80 75 8
82 76 16
84 77 0
85 78 11
85 80 0
90 86 11
93 86 0
94 89 0
95 89 0
84 80 0
94 88 0
92 86 0
93 88 0
97 92 16
98 94 0
106 101 0
114 108 0
93 87 8
97 92 0
107 104 8
98 93 14
108 103 0
109 104 0
111 106 0
110 106 0
115 112 16
106 102 0
109 104 11
115 109 18
114 109 0
114 109 19
118 112 11
123 116 19
123 116 16
116 111 0
123 118 11
123 118 19
118 113 19
124 119 19
111 108 11
126 121 0
129 123 25
123 119 22
128 123 28
129 124 11
126 121 16
126 121 0
128 122 22
126 121 19
128 123 16
131 124 30
122 118 25
132 125 30
129 124 22
134 129 25
139 132 30
134 127 25
132 128 22
134 128 25
131 126 36
135 128 32
133 126 34
129 124 28
140 133 41
141 134 37
134 128 30
131 126 28
140 134 37
130 125 16
136 129 39
142 136 30
134 128 34
135 129 32
136 131 30
133 126 41
141 134 44
140 134 39
128 122 34
130 125 25
128 123 28
129 124 28
138 131 47
131 126 30
126 122 25
130 125 32
136 130 34
128 123 36
142 137 37
141 135 37
136 131 42
133 129 36
143 137 44
137 132 41
130 124 42
136 130 49
136 131 34
130 124 32
133 127 37
136 131 39
133 125 41
141 135 42
129 123 44
148 142 42
140 134 42
128 123 34
132 126 36
128 123 36
133 126 42
133 127 39
134 129 37
133 127 39
136 130 53
142 136 45
139 133 41
138 131 48
141 134 51
135 129 51
140 133 45
131 124 47
124 119 30
126 121 45
140 135 48
129 123 41
152 171 0
153 173 0
150 171 0
152 172 0
152 172 0
151 171 0
152 173 0
150 170 0
152 172 0
150 170 0
153 174 0
151 171 0
152 171 0
146 166 0
147 167 0
149 169 0
152 172 0
146 165 0
150 170 0
150 170 0
147 166 0
147 167 0
152 172 0
144 164 0
150 169 0
149 169 0
147 165 0
148 167 0
151 170 0
148 167 0
145 165 0
149 168 0
148 168 0
147 166 0
144 162 0
144 164 0
146 165 0
143 162 0
148 167 0
145 164 0
149 169 0
148 167 0
146 166 0
144 162 0
146 166 0
144 163 0
144 163 0
146 165 0
144 164 0
141 160 0
146 166 0
138 157 0
142 160 0
142 161 0
145 164 0
141 160 0
139 157 0
144 161 0
140 159 0
139 159 0
146 165 0
143 162 0
143 162 0
140 158 0
144 163 0
137 155 0
145 164 0
139 156 0
143 161 0
141 160 0
134 152 0
139 158 0
137 155 0
138 156 0
132 150 0
135 153 0
135 153 0
133 151 0
137 154 0
129 147 0
133 151 0
132 149 0
140 159 0
135 153 0
136 153 0
136 154 0
134 152 0
129 147 0
133 150 0
128 145 0
131 147 0
130 149 0
133 150 0
128 145 0
133 149 0
136 153 0
121 138 0
133 150 0
123 140 0
130 146 0
128 145 0
120 137 0
121 137 0
113 129 0
118 133 0
110 125 0
114 129 0
115 130 0
115 129 0
118 134 0
118 133 0
112 126 0
109 124 0
110 125 0
110 124 0
101 115 0
109 123 0
113 127 0
97 111 0
109 123 0
115 129 0
84 96 0
94 106 0
133 150 0
142 160 0
141 158 0
139 156 0
129 146 0
135 152 0
135 152 0
138 156 0
139 157 0
137 154 0
142 160 0
132 150 0
139 158 0
135 153 0
130 147 0
131 149 0
133 151 0
143 160 0
131 149 0
137 155 0
136 154 0
128 147 0
128 146 0
133 150 0
130 149 0
128 146 0
130 149 0
133 152 0
132 152 0
119 137 0
121 140 0
121 140 0
125 144 0
126 145 0
129 148 0
116 134 0
124 142 0
130 148 0
117 135 0
114 132 0
114 132 0
112 131 0
128 146 0
105 122 0
115 133 0
108 124 0
101 117 0
106 124 0
105 123 0
100 117 0
58 77 47
45 71 69
48 77 71
48 77 74
48 77 80
44 72 65
46 73 76
48 77 76
49 78 74
49 79 72
51 81 95
48 76 86
46 73 67
50 80 80
52 83 90
52 82 92
50 80 80
51 80 86
52 83 88
51 80 88
48 76 76
52 82 88
51 81 76
53 83 97
52 83 86
52 82 88
51 81 82
52 83 80
51 81 97
53 84 88
51 81 90
52 81 88
48 77 78
52 82 88
50 79 82
47 75 60
50 78 85
47 75 76
46 74 67
49 78 72
48 76 70
49 77 70
48 75 85
48 76 57
46 73 70
47 75 68
46 73 57
48 75 76
47 74 67
47 74 74
45 71 72
48 75 70
44 69 70
73 91 54
96 111 18
95 108 0
106 120 0
99 112 0
112 126 0
121 137 0
123 137 0
112 126 0
115 130 0
118 133 0
108 121 0
119 134 0
112 124 0
121 134 0
121 135 0
130 145 0
112 128 0
115 128 0
120 135 0
120 135 0
120 133 0
125 140 0
137 152 0
123 137 0
128 139 0
115 129 0
118 131 0
129 143 0
119 131 0
133 145 0
139 151 0
137 150 0
133 145 0
138 150 0
131 144 0
125 137 0
121 129 0
134 145 0
129 139 0
140 150 0
128 136 0
128 135 0
123 132 0
128 137 0
131 140 0
120 125 0
128 134 0
127 135 0
126 133 0
123 125 0
89 87 11
81 77 21
79 74 19
95 89 19
97 91 25
92 87 3
103 96 11
92 85 0
79 74 11
96 89 0
89 83 11
100 95 11
92 87 0
94 89 8
100 92 0
100 96 0
102 97 3
102 96 0
95 90 2
108 103 0
112 106 0
101 94 0
97 92 0
100 95 8
113 107 0
112 106 0
114 108 0
118 113 8
112 107 0
114 110 11
120 115 0
115 109 14
112 107 11
116 110 0
115 111 16
118 113 16
125 116 11
115 111 0
123 117 19
118 113 11
124 118 22
123 118 19
120 115 11
125 120 22
131 124 16
124 119 11
122 116 19
139 132 25
128 122 19
130 123 28
122 118 0
130 124 28
137 130 30
119 116 0
134 129 19
138 132 36
124 118 22
124 119 30
134 127 11
131 126 25
131 126 19
130 124 34
126 119 19
137 131 32
131 124 30
128 123 25
131 125 25
131 125 32
135 128 34
141 133 22
142 136 34
130 125 28
140 134 34
137 132 32
139 134 37
137 130 42
137 130 39
140 133 32
131 125 36
140 134 44
135 128 32
139 131 41
126 119 32
129 123 36
136 130 32
134 129 39
136 128 44
127 122 32
130 125 30
140 135 34
145 138 44
133 127 41
136 129 41
139 133 41
134 129 39
142 136 42
129 123 48
132 127 36
141 135 45
136 131 39
131 124 30
131 124 41
133 127 37
131 124 47
138 131 39
132 127 45
138 131 42
139 132 42
129 124 28
141 134 44
140 133 51
133 127 41
128 123 34
136 131 49
133 127 48
130 125 39
130 124 39
131 125 44
128 124 36
125 120 45
138 132 47
137 131 45
128 123 37
150 170 0
152 172 0
151 170 0
149 169 0
154 174 0
151 172 0
151 171 0
152 172 0
148 168 0
151 171 0
150 170 0
150 169 0
148 168 0
149 168 0
149 170 0
148 167 0
147 167 0
148 169 0
150 170 0
150 169 0
151 171 0
152 171 0
149 169 0
144 164 0
146 167 0
150 170 0
147 167 0
149 169 0
148 167 0
146 166 0
142 161 0
149 168 0
149 167 0
143 160 0
146 165 0
149 168 0
149 168 0
145 164 0
145 164 0
143 162 0
145 164 0
149 168 0
146 166 0
141 159 0
143 163 0
144 163 0
141 159 0
146 165 0
147 166 0
145 164 0
149 167 0
141 160 0
146 165 0
144 163 0
144 163 0
138 156 0
141 160 0
141 159 0
146 164 0
139 158 0
142 160 0
139 156 0
138 156 0
141 160 0
139 156 0
142 160 0
139 157 0
141 161 0
139 158 0
141 159 0
140 158 0
138 156 0
138 156 0
135 153 0
133 152 0
137 153 0
133 151 0
130 149 0
137 155 0
132 150 0
132 150 0
138 155 0
138 155 0
135 152 0
135 152 0
137 154 0
130 147 0
126 143 0
137 154 0
129 145 0
128 144 0
128 145 0
127 143 0
125 142 0
125 141 0
128 144 0
130 146 0
118 134 0
120 136 0
123 139 0
120 137 0
120 136 0
118 133 0
123 137 0
123 138 0
110 124 0
125 141 0
118 133 0
111 126 0
115 130 0
114 127 0
117 132 0
117 132 0
108 122 0
109 123 0
109 123 0
98 111 0
94 107 0
93 105 0
108 120 0
90 101 0
119 133 0
135 151 0
143 159 0
135 151 0
134 150 0
127 144 0
140 158 0
134 150 0
138 155 0
129 145 0
135 153 0
121 139 0
131 147 0
130 147 0
129 146 0
127 144 0
137 154 0
134 152 0
129 145 0
135 153 0
130 149 0
138 157 0
139 158 0
126 145 0
125 143 0
122 139 0
129 148 0
124 141 0
125 143 0
119 136 0
131 148 0
139 158 0
125 143 0
114 132 0
135 153 0
126 143 0
123 140 0
122 140 0
123 141 0
122 140 0
113 131 0
118 135 0
127 145 0
113 130 0
106 123 0
115 132 0
115 131 0
106 123 0
115 131 0
97 113 0
102 118 0
106 121 0
101 117 0
102 118 18
66 87 40
41 66 54
41 66 64
46 74 59
46 73 56
47 75 78
46 74 67
44 71 70
45 72 74
50 79 82
49 77 69
51 80 84
46 74 51
49 78 88
47 75 74
48 76 74
51 81 82
51 81 88
49 78 70
49 78 86
49 78 74
50 79 82
50 79 82
48 76 62
51 81 92
50 79 78
49 78 90
48 77 76
49 77 74
48 76 76
53 83 80
48 77 76
51 80 82
50 79 88
48 77 74
49 78 72
50 79 80
44 71 76
47 75 70
46 73 68
44 70 74
49 78 75
44 70 60
48 76 75
49 77 63
47 74 75
45 72 65
44 69 65
44 70 60
55 75 66
80 95 36
97 108 0
93 104 0
101 115 0
105 119 0
97 108 0
105 116 0
110 124 0
103 117 0
108 124 0
107 122 0
107 120 0
112 126 0
125 137 0
113 126 0
113 126 0
120 133 0
115 128 0
117 130 0
116 129 0
107 119 0
118 133 0
116 128 0
127 140 0
122 137 0
131 143 0
123 139 0
129 141 0
122 135 0
109 121 0
130 142 0
128 142 0
125 140 0
118 129 0
134 146 0
121 132 0
129 140 0
118 126 0
127 137 0
129 141 0
124 131 0
125 134 0
127 134 0
128 139 0
130 140 0
130 135 0
114 118 0
132 141 0
122 124 0
125 130 0
134 140 0
129 134 0
129 134 0
99 98 11
87 82 18
89 83 24
84 77 16
84 78 11
89 81 11
81 73 8
83 78 0
96 90 11
100 93 11
91 85 0
79 75 0
100 93 0
112 106 8
102 95 8
97 90 0
107 102 8
102 97 0
107 103 0
105 98 0
115 108 8
109 106 0
103 97 0
107 99 0
102 96 0
108 105 8
104 99 0
111 103 0
112 104 0
112 107 11
119 112 0
103 100 0
111 106 11
119 113 0
117 113 0
109 105 0
126 121 0
123 118 0
110 104 11
124 118 16
117 111 22
123 117 22
125 120 25
124 119 11
128 123 16
123 116 16
114 108 22
122 117 0
125 120 16
126 122 11
124 117 19
129 123 28
129 124 16
129 123 19
124 119 0
128 123 30
126 120 25
127 122 22
131 124 28
124 118 30
131 125 28
129 123 28
132 126 25
127 121 16
131 125 28
135 130 19
130 124 36
134 128 32
136 130 32
129 124 30
134 128 32
129 123 22
134 127 30
130 124 36
133 127 32
136 130 30
131 126 36
139 133 42
135 129 34
131 123 36
146 139 45
137 131 37
137 130 34
132 124 36
133 128 30
136 132 30
137 131 32
133 125 41
130 124 39
134 128 34
139 133 39
144 138 44
136 130 34
131 125 32
137 131 36
131 125 30
140 132 49
135 127 41
136 130 37
132 127 36
139 131 47
133 127 34
143 136 44
134 128 41
139 133 36
138 130 44
136 129 45
129 124 37
136 130 48
142 135 56
138 133 36
141 134 56
137 131 42
136 128 48
134 127 39
137 131 47
139 134 44
131 126 42
134 128 41
132 125 45
131 125 47
125 118 41
149 169 0
154 174 0
151 171 0
150 170 0
149 169 0
150 170 0
152 172 0
149 169 0
149 169 0
151 171 0
150 169 0
149 169 0
150 170 0
149 169 0
149 168 0
148 167 0
150 169 0
149 168 0
150 169 0
147 166 0
150 170 0
145 164 0
147 167 0
148 167 0
148 166 0
147 166 0
145 164 0
147 166 0
149 168 0
149 167 0
146 166 0
146 166 0
149 169 0
149 169 0
146 164 0
143 162 0
142 161 0
145 164 0
146 164 0
146 165 0
141 160 0
146 165 0
146 165 0
150 170 0
146 165 0
144 163 0
144 162 0
150 169 0
142 160 0
144 163 0
142 161 0
145 163 0
142 159 0
141 159 0
143 162 0
139 157 0
149 167 0
145 164 0
143 161 0
139 157 0
140 159 0
143 160 0
139 156 0
141 159 0
140 159 0
143 161 0
142 160 0
136 154 0
136 154 0
137 155 0
141 160 0
138 156 0
133 150 0
136 154 0
131 148 0
132 150 0
135 153 0
134 152 0
137 154 0
137 155 0
133 151 0
126 143 0
132 148 0
136 155 0
130 148 0
131 148 0
133 149 0
130 147 0
128 145 0
133 150 0
126 143 0
129 146 0
122 139 0
132 150 0
118 133 0
125 141 0
112 127 0
125 142 0
120 137 0
123 139 0
124 140 0
120 136 0
124 139 0
119 134 0
118 133 0
115 130 0
119 134 0
111 125 0
116 130 0
110 123 0
118 132 0
114 126 0
113 127 0
111 124 0
108 122 0
109 123 0
92 105 0
97 109 0
86 96 0
101 113 0
128 143 0
132 147 0
134 150 0
129 146 0
125 141 0
141 158 0
131 146 0
132 148 0
126 142 0
130 145 0
128 144 0
129 145 0
123 140 0
128 145 0
130 147 0
132 150 0
124 141 0
118 135 0
130 147 0
132 149 0
125 142 0
134 152 0
133 150 0
124 142 0
125 144 0
134 151 0
127 145 0
123 141 0
117 134 0
121 139 0
125 143 0
124 143 0
120 138 0
120 137 0
112 131 0
122 140 0
117 134 0
124 142 0
120 138 0
116 134 0
114 131 0
117 134 0
120 138 0
117 134 0
115 132 0
121 138 0
117 133 0
115 132 0
108 124 0
95 111 0
109 126 0
111 129 0
96 112 0
88 104 0
108 123 0
90 102 0
62 79 40
66 89 44
42 68 50
44 70 60
45 73 67
49 78 74
45 73 67
49 78 80
46 73 67
46 74 72
43 70 59
47 75 70
50 80 74
48 76 78
48 76 67
46 73 74
48 76 80
50 79 84
48 77 74
47 75 86
47 76 76
49 78 82
53 83 80
49 79 84
47 74 78
46 74 76
49 78 82
47 75 80
50 79 78
50 80 95
49 77 86
47 75 67
50 79 94
51 81 92
47 75 62
49 78 78
47 75 70
49 77 76
50 80 92
48 75 70
48 75 72
45 71 62
44 70 65
45 71 57
45 70 73
42 66 57
56 74 40
79 94 25
85 97 18
93 105 0
89 102 0
110 123 0
98 110 0
94 106 0
93 107 0
107 119 0
109 124 0
104 116 0
106 118 0
98 110 0
112 125 0
115 129 0
111 126 0
118 134 0
120 133 0
125 137 0
112 127 0
118 132 0
122 136 0
117 130 0
121 135 0
120 131 0
121 134 0
125 139 0
129 143 0
130 142 0
123 136 0
127 140 0
123 135 0
124 135 0
120 132 0
118 129 0
124 135 0
119 132 0
116 126 0
124 131 0
127 136 0
121 130 0
119 128 0
126 134 0
123 131 0
126 133 0
115 124 0
125 133 0
123 131 0
106 111 0
127 132 0
125 132 0
120 126 0
116 124 0
121 126 0
122 128 0
126 129 0
115 119 0
85 79 16
85 80 11
82 75 11
72 66 0
80 76 11
77 72 0
98 90 16
86 78 0
89 82 0
101 94 0
93 87 0
94 88 0
97 89 0
95 91 0
102 96 0
92 87 0
108 103 0
96 91 0
90 86 0
104 98 0
115 108 0
104 98 0
97 91 0
106 99 8
107 102 0
122 117 0
96 92 0
105 98 0
109 105 0
118 111 0
118 111 0
122 114 0
111 106 0
115 110 0
117 111 0
113 108 0
110 106 0
122 117 11
122 115 11
119 112 16
117 113 0
117 112 16
126 121 11
129 124 11
113 109 16
122 117 11
127 121 16
120 115 22
124 119 16
123 118 11
121 116 19
123 117 16
126 120 25
128 123 19
130 124 32
126 119 16
133 127 16
120 113 22
122 116 11
128 122 25
119 113 16
127 121 32
135 129 32
137 132 28
131 124 34
131 125 39
136 129 32
129 122 32
139 133 32
134 126 36
137 131 41
140 134 34
137 129 34
133 128 32
137 131 34
131 124 32
131 125 30
132 125 32
126 119 28
133 127 36
131 126 34
129 124 28
126 121 28
135 130 36
135 129 30
133 127 42
123 119 25
129 124 36
143 137 44
129 124 22
141 135 44
137 131 37
124 117 32
143 135 41
132 128 39
138 130 39
132 127 42
128 122 34
135 129 30
126 120 32
131 125 41
128 122 30
132 125 37
135 130 37
130 123 41
131 126 36
135 129 41
126 120 39
136 131 39
125 119 30
146 138 52
137 132 39
141 135 47
135 129 48
132 125 47
132 127 42
127 121 36
134 127 54
127 120 37
129 123 39
152 172 0
151 171 0
151 171 0
152 172 0
150 170 0
151 172 0
153 171 0
149 168 0
153 172 0
151 171 0
150 170 0
151 170 0
149 170 0
148 168 0
148 167 0
150 170 0
148 168 0
149 168 0
146 164 0
152 171 0
147 166 0
152 172 0
151 171 0
147 167 0
148 168 0
146 164 0
148 167 0
148 168 0
149 168 0
148 168 0
147 166 0
150 169 0
144 163 0
146 165 0
143 162 0
148 167 0
147 166 0
145 164 0
143 162 0
147 166 0
143 162 0
146 164 0
144 165 0
144 162 0
138 156 0
143 162 0
140 158 0
143 161 0
142 161 0
141 160 0
142 161 0
144 162 0
140 158 0
145 163 0
142 160 0
136 155 0
146 165 0
143 161 0
137 155 0
140 157 0
140 158 0
142 159 0
140 157 0
142 161 0
135 152 0
141 159 0
137 156 0
135 152 0
140 158 0
134 151 0
134 151 0
132 149 0
141 160 0
134 151 0
130 148 0
133 150 0
136 153 0
135 152 0
131 148 0
135 152 0
125 142 0
131 147 0
139 156 0
130 147 0
129 146 0
126 142 0
127 143 0
127 143 0
128 144 0
118 134 0
125 142 0
131 147 0
126 142 0
126 142 0
125 141 0
126 141 0
127 143 0
122 137 0
117 133 0
127 142 0
121 136 0
120 134 0
114 128 0
108 122 0
116 131 0
113 127 0
115 130 0
103 116 0
114 128 0
112 127 0
107 121 0
111 125 0
108 122 0
102 114 0
105 119 0
96 108 0
101 113 0
97 109 0
105 118 0
122 136 0
127 142 0
126 141 0
127 142 0
121 135 0
127 142 0
133 149 0
131 146 0
122 137 0
119 134 0
125 141 0
130 146 0
131 148 0
136 153 0
129 146 0
119 135 0
126 143 0
119 135 0
122 140 0
132 150 0
135 152 0
126 144 0
116 134 0
125 142 0
136 154 0
120 137 0
114 131 0
118 135 0
122 141 0
122 140 0
131 149 0
120 138 0
131 149 0
117 135 0
112 130 0
124 142 0
122 140 0
111 128 0
123 141 0
129 148 0
113 131 0
120 137 0
119 136 0
122 139 0
103 119 0
123 140 0
126 142 0
96 113 0
104 120 0
94 109 0
88 104 0
92 109 0
92 106 0
94 109 0
100 115 0
92 106 0
90 104 0
91 104 0
94 109 0
80 95 40
49 71 44
42 68 54
44 71 47
48 76 67
47 75 65
47 76 51
46 74 67
47 75 74
44 71 65
46 74 59
44 72 60
46 73 80
48 75 67
48 76 80
48 76 78
45 72 51
46 74 78
48 76 80
46 74 80
48 77 67
47 76 70
44 71 70
46 74 70
48 76 70
45 71 70
47 76 82
49 77 80
46 75 70
49 78 78
46 72 78
49 77 80
47 75 78
51 79 79
42 67 67
44 70 67
49 78 90
48 75 84
46 74 67
43 68 62
44 69 60
43 69 54
49 69 57
77 91 51
83 96 0
97 110 0
90 102 0
89 101 0
94 105 0
87 98 0
82 94 0
107 120 0
93 105 0
104 117 0
111 123 0
114 127 0
114 127 0
110 125 0
93 108 0
103 117 0
125 137 0
116 129 0
122 136 0
111 125 0
107 118 0
126 141 0
123 137 0
114 126 0
125 139 0
123 137 0
120 132 0
118 130 0
132 147 0
119 132 0
108 120 0
136 148 0
120 132 0
118 132 0
120 133 0
118 129 0
111 120 0
127 137 0
120 131 0
122 129 0
126 135 0
105 112 0
130 141 0
128 139 0
114 122 0
123 132 0
130 138 0
123 130 0
117 124 0
116 123 0
120 124 0
119 123 0
119 121 0
123 128 0
122 125 0
110 113 0
116 119 0
107 107 0
134 140 0
98 96 11
77 70 0
78 73 16
83 79 14
77 72 11
87 81 11
94 88 0
83 77 0
86 79 0
95 87 0
94 88 0
83 76 0
102 94 0
101 95 8
106 102 0
102 95 0
97 93 0
98 92 0
89 83 0
112 104 0
104 100 0
103 96 0
109 104 0
103 97 0
115 108 0
109 102 0
100 94 0
113 109 0
109 101 0
113 106 0
109 105 0
120 114 0
110 104 0
113 107 0
123 115 0
111 106 11
120 115 16
109 103 0
113 110 0
117 112 0
113 109 16
124 117 16
128 119 19
119 113 0
105 100 0
122 116 22
125 119 22
122 117 0
122 117 16
124 118 22
123 118 16
121 117 16
125 120 28
128 122 16
127 122 25
123 118 22
124 120 25
125 120 19
131 126 19
133 125 34
134 126 22
126 120 16
132 126 22
129 123 22
129 123 16
132 126 34
131 125 25
135 128 41
128 123 22
135 130 32
123 117 34
126 121 32
134 127 22
135 128 28
132 126 37
133 127 30
132 126 30
131 123 25
131 125 28
121 115 32
132 126 30
133 128 25
125 119 34
133 128 28
130 125 28
136 130 32
141 134 42
125 118 22
131 124 37
122 117 30
131 124 36
131 125 36
132 126 42
132 125 44
128 123 30
140 132 42
132 127 36
146 138 47
139 132 36
132 127 37
145 138 42
139 132 47
128 122 36
137 130 41
132 126 48
131 124 36
130 121 39
122 118 28
132 126 39
131 125 37
135 128 44
130 124 42
129 124 36
121 116 42
118 113 39
128 122 41
128 122 37
126 120 36
134 128 47
152 172 0
151 172 0
154 174 0
151 171 0
151 171 0
150 170 0
153 173 0
153 173 0
147 168 0
152 173 0
151 170 0
150 169 0
149 169 0
151 170 0
146 166 0
152 171 0
148 167 0
147 166 0
151 170 0
146 166 0
147 166 0
147 166 0
149 168 0
150 169 0
149 169 0
144 163 0
147 167 0
144 164 0
146 164 0
147 166 0
147 166 0
146 165 0
147 166 0
145 164 0
146 165 0
148 167 0
147 166 0
147 165 0
146 164 0
145 164 0
145 163 0
140 159 0
149 168 0
146 164 0
148 167 0
145 162 0
146 164 0
143 161 0
144 162 0
144 163 0
143 162 0
142 161 0
148 166 0
145 164 0
140 159 0
143 161 0
143 161 0
140 159 0
137 156 0
141 160 0
136 154 0
138 156 0
138 155 0
131 148 0
141 159 0
140 158 0
141 159 0
137 155 0
133 150 0
136 153 0
132 149 0
139 157 0
136 152 0
135 152 0
137 156 0
134 152 0
140 158 0
135 152 0
133 150 0
137 155 0
133 150 0
133 150 0
130 147 0
131 148 0
136 153 0
131 147 0
132 149 0
134 150 0
130 147 0
134 150 0
125 141 0
128 144 0
126 142 0
127 142 0
125 141 0
123 138 0
129 145 0
117 132 0
123 138 0
118 134 0
122 137 0
118 133 0
107 122 0
115 129 0
114 128 0
113 128 0
109 123 0
107 121 0
113 126 0
100 113 0
110 124 0
107 119 0
107 120 0
98 110 0
95 107 0
81 92 0
105 116 0
113 127 0
126 141 0
122 137 0
123 137 0
132 147 0
114 129 0
133 148 0
131 146 0
125 141 0
119 135 0
120 136 0
121 137 0
123 139 0
119 135 0
128 144 0
123 139 0
131 148 0
125 142 0
123 140 0
122 138 0
122 139 0
124 142 0
130 147 0
113 130 0
131 148 0
120 137 0
114 132 0
125 143 0
119 137 0
121 138 0
109 126 0
118 136 0
119 136 0
123 141 0
123 140 0
117 133 0
119 137 0
118 134 0
125 144 0
115 133 0
125 142 0
121 139 0
119 135 0
120 137 0
113 131 0
112 129 0
117 133 0
100 117 0
104 121 0
105 121 0
100 116 0
96 112 0
98 114 0
88 104 0
98 113 0
106 121 0
102 118 0
90 104 0
80 93 0
84 99 0
79 92 0
81 95 0
79 92 0
74 87 18
56 76 54
43 68 67
44 70 60
41 67 53
46 72 54
45 72 67
46 74 76
43 69 54
44 71 62
45 72 60
50 79 88
48 76 82
46 74 80
48 77 70
48 77 74
45 71 70
45 72 72
49 77 84
46 73 65
47 75 65
46 74 57
43 68 70
45 71 72
43 69 54
45 71 72
46 73 72
47 75 67
43 68 62
46 73 65
48 76 72
44 70 62
47 73 78
45 72 65
43 67 65
42 67 65
41 66 62
40 62 36
64 78 25
62 75 25
71 80 0
75 85 0
70 79 0
88 99 0
85 97 0
90 100 0
93 106 0
78 88 0
105 116 0
81 93 0
96 110 0
120 132 0
92 103 0
117 130 0
103 115 0
103 116 0
107 120 0
108 121 0
116 130 0
100 112 0
118 131 0
124 138 0
117 127 0
125 141 0
112 123 0
120 131 0
117 127 0
113 126 0
108 122 0
117 129 0
118 127 0
114 125 0
112 124 0
113 123 0
126 137 0
115 127 0
109 118 0
118 128 0
128 140 0
119 129 0
120 131 0
128 139 0
124 131 0
125 134 0
114 120 0
131 141 0
116 123 0
112 120 0
115 119 0
117 123 0
114 121 0
123 129 0
112 117 0
121 126 0
117 121 0
122 126 0
112 116 0
121 125 0
118 119 0
116 121 0
115 117 0
114 116 0
111 110 0
98 95 16
74 66 0
83 77 16
84 78 16
91 85 0
84 76 0
78 71 0
100 92 0
102 96 0
84 79 0
80 73 11
106 100 11
96 90 8
99 93 0
103 99 0
103 99 0
104 96 0
97 92 0
92 85 0
104 99 0
94 87 0
101 95 0
112 106 0
111 104 0
107 101 0
113 107 0
101 95 0
114 109 0
116 110 0
115 110 0
103 97 0
114 108 0
105 100 11
105 100 0
108 102 11
111 106 0
110 105 0
107 100 0
120 114 0
123 117 0
123 116 16
119 114 0
118 110 16
118 112 19
123 116 11
119 112 16
133 126 11
120 113 16
122 116 11
129 121 19
126 120 16
125 118 19
129 121 22
113 107 11
128 121 22
127 122 28
133 126 16
130 123 28
132 126 22
117 111 22
124 116 25
126 119 36
123 116 25
134 128 36
120 112 28
127 121 19
132 126 25
137 129 32
139 133 28
121 115 25
132 127 28
125 120 28
127 121 30
131 125 32
125 118 25
131 125 30
131 125 22
132 127 30
131 125 30
125 119 30
124 118 32
127 121 30
128 120 30
137 130 34
127 122 36
134 126 39
133 128 37
138 131 39
130 123 36
122 115 34
128 121 32
135 129 37
130 123 39
127 122 34
134 127 32
124 118 30
129 123 39
139 133 48
141 136 37
133 127 42
136 130 41
137 130 42
131 125 39
128 124 22
131 125 41
133 126 41
124 118 42
128 123 34
132 126 48
115 109 32
124 118 37
128 122 42
142 135 47
142 134 49
128 122 47
125 120 34
127 119 47
151 171 0
149 168 0
149 169 0
149 169 0
152 171 0
149 169 0
153 172 0
149 169 0
150 169 0
149 168 0
148 168 0
148 168 0
148 168 0
149 169 0
146 166 0
148 168 0
151 169 0
150 169 0
144 163 0
150 170 0
147 166 0
150 170 0
148 167 0
148 167 0
147 167 0
149 168 0
148 166 0
147 166 0
149 167 0
145 164 0
146 165 0
149 167 0
143 162 0
149 168 0
145 164 0
146 165 0
149 168 0
147 166 0
143 162 0
144 163 0
147 166 0
145 163 0
141 160 0
147 166 0
140 159 0
141 158 0
141 160 0
140 158 0
140 158 0
140 157 0
139 157 0
142 161 0
141 159 0
139 156 0
145 163 0
138 157 0
142 159 0
140 158 0
139 156 0
135 152 0
137 155 0
140 157 0
133 151 0
138 156 0
136 153 0
127 144 0
141 159 0
140 157 0
137 153 0
133 152 0
131 147 0
143 160 0
133 151 0
138 155 0
136 153 0
133 149 0
134 151 0
132 148 0
129 147 0
139 156 0
137 154 0
130 147 0
131 147 0
132 148 0
129 146 0
130 146 0
127 143 0
128 145 0
123 140 0
129 145 0
124 140 0
126 143 0
126 141 0
120 134 0
130 145 0
126 142 0
116 130 0
117 132 0
117 132 0
113 128 0
123 138 0
115 130 0
116 130 0
117 132 0
116 131 0
101 114 0
104 118 0
109 123 0
106 119 0
113 126 0
103 115 0
104 116 0
90 101 0
92 102 0
90 100 0
106 118 0
119 133 0
118 133 0
120 134 0
110 123 0
118 133 0
123 138 0
113 128 0
121 136 0
114 129 0
121 136 0
119 134 0
129 145 0
125 140 0
118 134 0
127 143 0
125 140 0
117 134 0
127 143 0
126 141 0
120 137 0
127 143 0
122 139 0
116 132 0
113 130 0
139 156 0
126 143 0
114 131 0
120 137 0
119 136 0
129 146 0
121 139 0
127 143 0
118 135 0
121 138 0
133 151 0
112 130 0
117 135 0
113 130 0
110 128 0
119 137 0
115 133 0
117 133 0
112 128 0
104 121 0
106 122 0
114 132 0
113 129 0
113 129 0
113 130 0
92 108 0
105 121 0
110 126 0
94 109 0
109 125 0
95 110 0
101 116 0
101 117 0
86 100 0
95 110 0
85 99 0
92 106 0
83 94 0
82 95 0
77 91 0
77 89 0
68 81 0
83 95 0
55 69 31
52 70 60
45 71 67
44 70 65
41 66 36
42 68 60
43 69 44
45 72 62
41 65 65
45 72 74
43 69 60
45 72 74
48 77 72
43 69 62
44 70 54
43 70 54
46 73 72
48 76 67
44 70 57
48 75 67
44 71 57
46 73 65
44 71 62
44 71 54
47 74 70
46 74 65
41 66 51
43 69 54
44 71 62
40 64 62
39 63 47
40 63 55
49 65 40
53 67 44
69 78 18
78 89 0
75 85 0
74 84 0
82 94 0
76 86 0
87 99 0
83 95 0
86 98 0
86 99 0
85 95 0
102 114 0
87 99 0
92 102 0
97 109 0
92 105 0
90 102 0
103 115 0
107 119 0
103 114 0
112 124 0
100 112 0
108 123 0
110 123 0
115 127 0
117 130 0
109 121 0
111 124 0
116 130 0
109 122 0
112 123 0
113 126 0
118 133 0
112 123 0
116 127 0
104 115 0
132 146 0
118 130 0
111 121 0
116 127 0
117 128 0
119 129 0
125 136 0
118 127 0
122 131 0
118 124 0
112 124 0
128 138 0
115 124 0
117 128 0
92 98 0
113 117 0
116 123 0
112 119 0
116 123 0
119 126 0
111 118 0
104 108 0
112 115 0
120 122 0
117 120 0
125 127 0
105 106 0
109 113 0
119 123 0
104 99 0
112 114 0
107 104 0
93 90 11
89 82 28
85 77 0
96 87 16
88 80 0
94 86 0
87 81 0
83 77 0
97 89 0
95 89 0
83 77 11
98 90 11
89 84 0
91 85 0
105 98 0
101 94 0
100 93 0
106 98 0
113 105 0
104 98 0
99 93 0
108 102 0
101 94 0
106 99 0
109 104 0
108 102 0
107 101 11
124 118 0
110 103 0
113 105 0
106 100 0
113 107 0
108 103 0
114 108 0
123 116 11
110 105 0
119 113 0
123 117 0
113 108 16
107 102 11
120 112 16
117 110 0
116 111 19
118 112 16
121 114 16
121 115 16
124 116 16
127 121 19
125 120 19
120 115 19
125 120 16
129 122 16
124 118 16
115 110 25
126 118 16
131 124 30
118 113 0
124 119 22
121 114 19
120 115 11
117 110 11
118 109 16
134 126 28
121 115 25
117 111 22
122 115 25
132 126 25
131 125 25
128 124 16
134 128 34
128 122 28
133 126 28
123 118 19
131 124 37
128 120 19
130 122 36
119 113 22
124 118 22
128 122 32
124 117 32
127 122 34
130 123 37
137 128 39
134 127 32
124 119 28
125 118 22
124 117 34
126 119 37
130 124 39
133 127 32
125 119 22
129 123 32
121 117 30
129 124 36
136 130 39
130 123 34
122 115 37
137 131 47
128 123 36
133 126 42
128 124 34
132 127 41
131 124 37
133 126 36
131 125 39
130 124 44
126 119 39
129 124 41
132 127 41
135 129 37
125 118 44
130 125 44
127 121 37
126 121 44
129 123 47
148 167 0
149 169 0
148 169 0
149 170 0
150 169 0
148 168 0
150 169 0
150 170 0
149 168 0
147 166 0
150 169 0
148 168 0
149 169 0
147 166 0
148 168 0
145 164 0
150 168 0
148 167 0
152 171 0
147 165 0
147 166 0
144 163 0
148 166 0
150 169 0
149 168 0
148 167 0
149 168 0
149 168 0
147 166 0
149 168 0
145 163 0
143 161 0
146 165 0
149 167 0
146 165 0
142 160 0
145 164 0
149 167 0
146 165 0
148 167 0
144 163 0
145 163 0
141 158 0
144 162 0
140 158 0
145 165 0
139 157 0
141 158 0
139 157 0
142 160 0
139 156 0
142 162 0
140 158 0
143 161 0
140 157 0
138 156 0
140 157 0
135 153 0
144 162 0
142 160 0
137 154 0
138 155 0
136 153 0
138 155 0
138 155 0
139 156 0
137 154 0
128 145 0
138 155 0
136 152 0
135 152 0
134 151 0
145 163 0
136 153 0
136 153 0
138 155 0
136 153 0
133 150 0
134 151 0
129 146 0
130 146 0
131 147 0
131 148 0
135 152 0
134 149 0
119 136 0
125 141 0
127 143 0
120 135 0
122 137 0
124 139 0
126 141 0
129 145 0
118 134 0
122 137 0
123 138 0
117 130 0
112 127 0
113 128 0
107 122 0
116 130 0
114 129 0
112 126 0
112 125 0
102 114 0
109 122 0
108 121 0
111 124 0
98 109 0
102 114 0
97 108 0
88 99 0
86 97 0
102 113 0
113 127 0
123 136 0
117 130 0
125 139 0
116 129 0
122 135 0
114 128 0
133 147 0
129 143 0
117 132 0
120 136 0
114 129 0
121 136 0
116 132 0
133 149 0
117 133 0
121 137 0
111 126 0
117 132 0
132 149 0
124 141 0
124 140 0
133 150 0
121 137 0
131 147 0
122 140 0
118 135 0
123 141 0
119 136 0
118 135 0
127 144 0
118 136 0
133 150 0
131 149 0
124 140 0
129 148 0
116 133 0
126 144 0
118 135 0
112 129 0
112 128 0
115 133 0
131 148 0
112 129 0
112 129 0
99 115 0
114 131 0
111 128 0
120 137 0
100 118 0
113 129 0
99 116 0
102 118 0
100 116 0
98 114 0
101 116 0
99 116 0
87 102 0
97 112 0
90 104 0
81 96 0
84 99 0
81 95 0
87 99 0
78 91 0
74 87 0
68 82 0
77 90 0
64 77 0
69 79 0
66 77 0
68 79 0
55 68 18
60 75 40
37 58 40
37 60 44
39 63 51
44 71 65
41 66 65
46 73 65
42 68 51
44 70 65
43 70 72
39 63 51
39 64 40
42 67 65
43 70 60
37 60 47
42 67 47
46 72 70
40 64 60
44 70 78
41 65 57
42 68 60
40 65 54
38 62 47
37 59 51
51 70 19
54 71 57
51 64 0
58 68 0
82 92 0
75 83 0
76 85 0
77 86 0
53 63 0
53 63 0
89 101 0
86 97 0
92 103 0
83 93 0
83 96 0
80 89 0
71 81 0
98 110 0
83 93 0
92 104 0
104 115 0
100 111 0
108 122 0
95 106 0
104 116 0
108 120 0
97 110 0
95 107 0
109 121 0
102 115 0
116 126 0
115 127 0
113 126 0
114 126 0
116 129 0
117 128 0
103 116 0
116 129 0
122 135 0
106 115 0
118 130 0
117 129 0
130 143 0
120 131 0
123 136 0
125 137 0
110 121 0
125 135 0
126 136 0
108 121 0
120 128 0
126 135 0
124 131 0
125 136 0
109 118 0
112 118 0
118 126 0
122 130 0
117 124 0
118 125 0
110 114 0
115 121 0
121 126 0
120 126 0
113 118 0
112 116 0
119 123 0
117 120 0
105 105 0
112 112 0
116 119 0
102 101 0
113 116 0
113 114 0
111 113 0
90 84 11
72 65 0
85 77 11
82 71 16
75 68 0
77 68 0
80 75 0
75 68 0
75 70 0
94 86 0
79 73 0
92 85 0
89 82 0
96 89 0
99 94 0
102 95 0
92 86 0
97 92 0
99 92 0
103 96 0
110 102 0
101 96 0
110 104 0
115 107 0
116 109 0
101 94 0
108 101 0
107 101 0
114 107 0
117 109 0
116 109 11
106 99 0
112 106 0
119 111 16
114 109 0
116 110 0
117 114 0
121 115 11
112 105 0
112 107 0
112 106 0
118 111 19
120 113 11
110 103 16
120 116 11
124 118 11
116 109 0
107 102 0
127 119 19
123 117 0
124 117 0
122 116 19
120 113 19
120 114 16
118 111 16
131 124 19
126 119 22
129 122 25
127 120 19
121 114 0
121 115 19
122 117 22
126 120 22
121 116 11
130 124 30
124 117 32
129 123 25
123 116 28
132 125 32
126 122 19
136 130 25
133 126 25
120 115 22
130 123 34
136 130 30
125 118 22
130 124 30
115 108 32
127 122 16
131 124 25
136 130 32
126 120 25
127 122 19
130 123 34
125 119 30
116 112 25
127 122 28
125 119 32
129 123 36
124 119 30
113 108 25
131 124 39
129 123 37
135 127 44
128 122 19
126 120 34
127 122 34
140 134 37
126 120 34
128 121 37
130 123 39
121 116 34
110 104 25
133 126 42
127 120 41
124 119 37
129 122 51
127 122 39
126 119 42
120 114 22
116 109 34
126 120 37
130 124 44
124 119 39
147 166 0
151 171 0
152 171 0
151 171 0
150 169 0
150 169 0
150 170 0
145 163 0
150 169 0
151 170 0
150 169 0
151 171 0
149 168 0
146 165 0
148 168 0
147 166 0
148 167 0
148 168 0
147 167 0
148 167 0
147 165 0
149 168 0
150 169 0
147 166 0
148 168 0
150 169 0
144 163 0
144 162 0
145 163 0
147 166 0
147 165 0
147 166 0
148 167 0
143 162 0
144 163 0
144 162 0
146 164 0
142 160 0
141 158 0
144 163 0
143 162 0
146 164 0
140 158 0
145 163 0
143 161 0
140 157 0
142 160 0
141 159 0
145 163 0
144 162 0
144 161 0
139 156 0
138 155 0
140 158 0
138 156 0
142 160 0
140 157 0
142 160 0
143 160 0
141 157 0
139 155 0
137 154 0
133 150 0
136 153 0
134 151 0
138 155 0
137 153 0
140 157 0
141 158 0
136 153 0
138 155 0
133 149 0
131 147 0
136 153 0
132 148 0
126 143 0
134 151 0
135 152 0
128 144 0
132 149 0
132 148 0
132 148 0
126 141 0
123 139 0
130 146 0
128 143 0
114 128 0
132 148 0
125 141 0
129 144 0
124 139 0
117 132 0
120 135 0
116 130 0
118 131 0
126 141 0
122 136 0
104 118 0
117 131 0
108 122 0
112 125 0
115 129 0
105 118 0
93 104 0
98 111 0
106 119 0
86 98 0
94 105 0
95 106 0
97 108 0
84 93 0
93 104 0
115 127 0
103 117 0
107 118 0
109 121 0
117 130 0
116 129 0
118 132 0
100 113 0
106 120 0
116 129 0
119 132 0
116 131 0
120 134 0
121 136 0
116 131 0
122 137 0
117 132 0
131 147 0
116 131 0
123 140 0
120 137 0
111 127 0
117 133 0
114 130 0
118 136 0
128 145 0
127 144 0
123 140 0
123 139 0
118 135 0
117 133 0
121 137 0
109 126 0
110 125 0
120 137 0
124 142 0
124 142 0
123 140 0
115 132 0
120 139 0
116 134 0
126 144 0
117 135 0
112 130 0
121 138 0
118 135 0
108 125 0
114 131 0
115 132 0
108 125 0
121 138 0
95 113 0
110 126 0
109 126 0
93 109 0
114 130 0
101 117 0
99 115 0
104 120 0
98 112 0
103 119 0
91 107 0
95 109 0
78 93 0
89 104 0
80 94 0
94 107 0
84 96 0
77 90 0
65 79 0
68 80 0
73 84 0
73 85 0
62 73 0
56 67 0
62 71 0
58 69 0
65 73 0
56 68 0
41 55 31
41 58 44
46 62 40
48 66 40
44 67 47
39 62 54
39 62 57
37 61 47
39 62 60
40 64 36
36 58 36
40 64 60
36 58 44
40 61 31
47 66 44
51 68 36
51 65 31
53 64 0
43 54 0
61 69 0
63 70 0
57 65 0
50 57 0
63 71 0
75 86 0
62 69 0
67 76 0
67 78 0
74 86 0
88 98 0
74 86 0
76 87 0
86 97 0
94 104 0
86 97 0
89 102 0
95 107 0
91 103 0
95 108 0
99 111 0
83 96 0
100 112 0
96 107 0
112 122 0
96 108 0
102 110 0
100 112 0
95 106 0
109 120 0
113 125 0
106 116 0
106 117 0
107 119 0
110 123 0
121 131 0
118 129 0
105 116 0
111 124 0
125 137 0
107 120 0
116 130 0
112 122 0
128 140 0
119 130 0
116 125 0
114 125 0
114 122 0
116 125 0
113 124 0
119 128 0
121 130 0
111 121 0
119 128 0
122 128 0
123 132 0
119 129 0
116 125 0
119 125 0
104 109 0
121 128 0
114 119 0
111 117 0
107 111 0
117 124 0
117 126 0
112 112 0
111 117 0
104 108 0
114 115 0
113 114 0
109 111 0
118 121 0
94 96 0
105 106 0
109 108 0
93 89 0
93 90 0
96 93 11
72 65 11
81 73 11
92 84 11
94 85 16
90 83 0
86 78 0
94 85 0
100 92 11
95 87 3
100 92 0
90 81 0
100 91 0
95 89 0
93 86 0
94 86 0
93 85 0
90 85 0
101 95 0
108 101 0
99 92 0
108 100 0
94 86 0
115 108 0
103 97 0
112 105 0
113 106 0
107 102 11
104 99 0
108 101 0
106 99 11
120 112 11
109 101 0
109 103 0
108 103 11
112 105 11
112 107 0
112 105 0
117 110 0
121 115 11
123 117 19
109 103 16
118 110 16
115 110 16
124 117 11
120 114 11
120 115 16
119 113 11
130 121 22
120 114 11
114 107 16
124 117 19
123 116 22
122 115 19
129 122 22
111 105 16
129 121 22
117 109 16
121 115 16
118 112 11
129 124 22
121 115 19
116 108 28
122 115 22
120 114 11
128 122 25
129 122 16
127 120 32
127 120 30
123 115 16
126 120 25
127 119 28
128 122 32
125 119 25
118 111 19
134 127 30
130 123 30
133 126 36
115 110 19
130 124 32
132 126 32
134 128 39
127 120 28
130 122 28
128 121 30
127 123 34
129 122 36
132 123 39
132 126 34
137 127 39
129 123 36
122 116 32
120 114 30
134 128 37
129 123 32
118 114 25
120 114 32
130 124 42
138 132 45
122 115 41
135 127 48
118 111 34
122 115 34
125 117 37
125 118 34
125 119 36
128 121 41
135 126 47
108 104 36
120 114 37
131 125 48
130 125 28
140 159 0
144 164 0
144 163 0
148 168 0
148 168 0
148 167 0
152 171 0
145 165 0
149 168 0
151 170 0
147 167 0
145 164 0
150 169 0
147 166 0
148 167 0
149 168 0
148 167 0
150 169 0
149 168 0
147 166 0
147 167 0
146 165 0
150 168 0
150 169 0
146 164 0
150 169 0
146 165 0
145 164 0
146 165 0
143 160 0
145 164 0
147 165 0
146 164 0
146 165 0
142 160 0
139 156 0
140 157 0
143 161 0
143 161 0
151 168 0
139 157 0
138 156 0
140 157 0
144 161 0
141 158 0
142 159 0
138 156 0
146 164 0
138 156 0
144 161 0
143 161 0
141 158 0
144 160 0
143 161 0
143 161 0
140 158 0
139 156 0
136 152 0
136 153 0
141 159 0
139 156 0
140 156 0
137 154 0
135 151 0
141 158 0
133 149 0
139 156 0
135 152 0
131 146 0
132 149 0
133 150 0
135 150 0
139 156 0
139 155 0
131 147 0
137 153 0
128 144 0
136 152 0
129 145 0
130 146 0
131 146 0
122 137 0
127 143 0
124 140 0
127 142 0
122 137 0
128 143 0
122 137 0
127 143 0
124 141 0
117 133 0
124 138 0
112 126 0
121 135 0
112 126 0
110 124 0
110 123 0
119 133 0
107 120 0
112 124 0
113 125 0
112 124 0
98 110 0
100 112 0
101 114 0
89 100 0
95 106 0
96 106 0
74 83 0
90 100 0
106 117 0
108 120 0
110 122 0
112 125 0
114 126 0
118 131 0
102 116 0
105 118 0
118 132 0
118 133 0
120 134 0
121 136 0
118 133 0
107 121 0
119 134 0
125 139 0
124 139 0
118 134 0
120 136 0
119 135 0
117 132 0
125 141 0
123 140 0
131 148 0
121 136 0
128 144 0
121 137 0
121 139 0
115 131 0
115 132 0
121 136 0
126 143 0
125 143 0
131 148 0
114 130 0
124 141 0
117 134 0
110 127 0
119 137 0
111 127 0
110 127 0
125 143 0
115 132 0
129 147 0
123 141 0
122 138 0
118 136 0
117 135 0
114 129 0
108 125 0
105 122 0
115 132 0
105 120 0
116 131 0
113 129 0
105 122 0
109 126 0
112 128 0
101 116 0
101 116 0
98 113 0
89 102 0
94 110 0
98 112 0
81 95 0
95 109 0
86 101 0
74 87 0
88 101 0
93 106 0
82 95 0
90 104 0
81 94 0
83 96 0
64 77 0
72 84 0
74 85 0
54 67 0
63 73 0
77 89 0
63 74 0
69 79 0
53 61 0
51 59 0
55 64 0
46 56 0
53 61 0
64 72 0
45 53 0
45 54 0
39 46 18
55 62 0
53 62 0
53 62 0
42 52 0
57 66 0
70 78 0
54 61 0
66 74 0
49 60 0
49 59 0
64 72 0
68 77 0
52 62 0
66 74 0
73 84 0
64 74 0
73 80 0
81 92 0
76 87 0
82 93 0
74 85 0
88 99 0
85 95 0
88 100 0
76 88 0
90 104 0
78 87 0
90 103 0
93 106 0
101 114 0
95 108 0
105 117 0
103 115 0
102 114 0
106 119 0
110 124 0
103 117 0
115 130 0
121 134 0
109 121 0
114 127 0
114 127 0
112 126 0
105 116 0
127 141 0
112 126 0
117 129 0
102 114 0
118 129 0
119 133 0
103 113 0
115 127 0
120 131 0
115 127 0
115 126 0
116 125 0
113 122 0
113 122 0
129 141 0
114 124 0
112 121 0
107 116 0
101 107 0
118 127 0
124 132 0
110 118 0
121 126 0
118 128 0
122 133 0
116 124 0
115 122 0
113 117 0
115 122 0
107 112 0
114 120 0
99 106 0
106 108 0
101 101 0
107 111 0
114 115 0
98 99 0
107 109 0
103 103 0
102 101 0
107 107 0
101 98 0
101 97 0
96 93 0
97 94 0
70 63 0
83 75 0
84 77 0
65 58 0
91 82 11
77 69 0
86 79 0
86 79 0
90 80 0
93 86 0
86 79 0
96 89 0
105 98 0
90 82 0
92 81 0
86 79 0
109 102 0
103 95 0
105 98 0
100 93 0
106 98 0
99 92 0
111 104 0
110 103 0
101 95 0
111 104 0
115 106 0
110 102 11
101 96 0
113 106 0
114 105 11
101 94 0
121 114 0
116 109 11
120 112 0
116 109 0
117 111 0
117 112 0
118 111 0
116 109 0
114 108 0
114 108 11
121 115 0
119 113 0
117 111 0
121 113 16
118 111 16
120 116 11
123 117 19
129 123 28
122 114 22
121 114 22
118 113 22
120 114 16
120 114 11
127 120 25
115 109 11
116 110 16
121 115 11
123 117 19
125 119 25
128 119 25
128 121 19
134 127 36
123 115 19
115 109 25
113 108 16
132 125 36
122 113 30
127 120 30
123 117 28
123 117 28
131 125 36
117 111 22
120 113 25
127 122 25
126 121 16
126 119 28
129 122 34
132 124 44
122 115 28
120 114 36
136 129 36
129 120 36
122 116 30
127 121 34
121 116 32
125 120 22
129 123 36
123 115 41
121 115 34
133 126 34
127 123 32
136 129 41
124 119 36
120 114 32
127 122 34
122 115 30
126 119 39
130 123 36
121 115 25
126 120 42
129 123 39
116 111 41
122 115 32
123 116 41
119 113 30
134 128 37
122 117 37
127 121 37
139 157 0
141 158 0
139 159 0
143 161 0
146 165 0
144 163 0
145 165 0
148 167 0
150 170 0
151 170 0
146 165 0
150 169 0
149 169 0
149 168 0
148 167 0
146 164 0
144 162 0
146 165 0
144 163 0
143 161 0
149 168 0
148 167 0
147 165 0
146 164 0
147 165 0
150 169 0
146 165 0
148 167 0
141 159 0
147 165 0
145 163 0
143 160 0
142 160 0
143 162 0
142 159 0
145 164 0
143 161 0
145 164 0
141 159 0
141 158 0
142 160 0
143 161 0
138 156 0
139 157 0
147 164 0
143 161 0
144 162 0
140 156 0
140 158 0
142 160 0
142 160 0
138 157 0
140 158 0
135 152 0
133 150 0
139 156 0
136 153 0
139 156 0
139 156 0
136 153 0
137 154 0
138 155 0
138 154 0
138 155 0
136 153 0
138 155 0
136 152 0
133 151 0
141 157 0
140 158 0
127 142 0
124 140 0
129 145 0
131 147 0
133 148 0
133 149 0
134 150 0
130 147 0
132 148 0
127 143 0
133 149 0
130 145 0
124 139 0
130 145 0
126 140 0
123 137 0
127 142 0
119 134 0
119 133 0
115 129 0
117 132 0
117 131 0
124 139 0
116 130 0
108 121 0
114 127 0
110 124 0
116 129 0
115 128 0
116 130 0
112 125 0
99 111 0
95 107 0
98 108 0
91 101 0
90 100 0
78 88 0
86 96 0
101 110 0
98 110 0
109 120 0
112 124 0
106 119 0
101 113 0
109 122 0
115 128 0
106 118 0
104 118 0
109 122 0
111 125 0
116 129 0
120 135 0
119 134 0
113 127 0
120 135 0
115 130 0
124 139 0
120 135 0
117 133 0
112 127 0
116 132 0
126 142 0
122 139 0
122 139 0
109 125 0
123 139 0
122 139 0
118 135 0
125 142 0
125 141 0
115 133 0
124 141 0
119 136 0
123 141 0
125 142 0
125 143 0
136 153 0
127 144 0
125 142 0
123 141 0
124 143 0
119 136 0
123 140 0
127 145 0
116 133 0
124 142 0
112 129 0
112 130 0
107 123 0
113 129 0
108 125 0
103 119 0
110 126 0
120 137 0
117 134 0
106 122 0
108 124 0
101 118 0
98 114 0
102 118 0
102 116 0
103 118 0
105 119 0
96 111 0
95 109 0
96 111 0
88 102 0
85 99 0
90 105 0
81 95 0
88 102 0
74 87 0
95 108 0
83 96 0
86 99 0
78 90 0
74 86 0
65 77 0
61 73 0
66 78 0
73 84 0
64 75 0
68 79 0
62 72 0
66 75 0
68 78 0
44 53 0
43 55 0
53 64 0
56 65 0
48 58 0
67 76 0
67 77 0
54 65 0
50 59 0
55 63 0
64 74 0
86 96 0
58 66 0
59 67 0
77 88 0
65 74 0
79 90 0
74 84 0
70 81 0
79 88 0
73 83 0
92 104 0
86 96 0
61 73 0
84 96 0
87 98 0
91 103 0
87 98 0
91 101 0
102 115 0
92 103 0
101 112 0
82 92 0
95 106 0
92 104 0
93 103 0
97 109 0
111 124 0
111 122 0
106 119 0
101 114 0
104 117 0
106 120 0
117 129 0
108 122 0
123 135 0
116 128 0
107 121 0
114 127 0
110 126 0
115 129 0
119 133 0
126 138 0
110 123 0
121 134 0
116 129 0
115 125 0
107 119 0
118 133 0
114 124 0
120 131 0
116 126 0
112 123 0
110 123 0
100 108 0
123 135 0
119 131 0
127 138 0
114 125 0
113 122 0
116 123 0
129 140 0
113 121 0
112 119 0
105 111 0
112 120 0
114 120 0
111 117 0
109 114 0
106 110 0
117 121 0
105 110 0
119 121 0
108 110 0
98 97 0
108 108 0
106 111 0
109 110 0
93 93 0
106 105 0
98 97 0
94 92 0
110 111 0
100 99 0
108 107 0
83 78 0
88 79 0
75 68 0
91 81 11
72 63 0
88 78 0
77 66 0
77 69 0
85 78 0
95 84 11
78 70 0
96 87 0
96 86 0
97 90 0
102 93 0
97 90 0
104 96 0
104 96 0
96 90 0
101 95 0
94 87 0
97 88 0
117 107 0
99 91 0
107 100 0
112 104 0
110 102 0
109 101 0
109 103 0
111 105 0
112 105 0
111 105 11
118 110 0
108 101 11
112 103 0
110 102 11
114 109 0
115 108 11
116 110 0
120 113 16
107 98 11
116 110 0
117 110 16
118 113 0
119 113 16
114 108 16
116 109 11
121 114 0
109 102 11
118 112 11
118 112 19
117 109 19
123 116 16
118 112 22
116 109 19
125 117 28
118 113 25
117 111 16
124 116 22
122 116 22
124 117 25
113 105 11
123 118 25
122 115 34
127 121 30
131 124 32
116 110 19
122 114 16
124 118 19
122 116 22
134 126 41
125 120 34
128 122 19
130 123 34
121 113 34
128 121 32
131 123 32
119 113 22
129 121 28
123 117 19
123 116 22
119 113 25
127 121 32
126 120 34
120 114 25
117 112 19
121 115 30
126 121 28
120 112 30
122 116 32
132 125 37
128 123 22
114 108 28
131 126 36
112 107 28
120 114 37
124 118 42
112 107 32
117 111 36
123 117 37
121 115 28
117 112 36
122 117 30
120 114 36
130 123 41
119 113 36
122 116 39
124 118 39
125 119 42
132 149 0
136 154 0
140 158 0
136 154 0
145 163 0
144 163 0
143 161 0
145 164 0
145 164 0
144 163 0
147 166 0
152 171 0
147 166 0
146 164 0
146 164 0
147 165 0
147 165 0
146 164 0
146 164 0
146 164 0
146 164 0
145 164 0
147 165 0
147 165 0
149 168 0
143 162 0
146 165 0
147 164 0
144 163 0
147 164 0
147 165 0
145 164 0
145 162 0
142 160 0
143 160 0
141 159 0
144 162 0
143 160 0
146 164 0
146 164 0
145 162 0
143 161 0
140 158 0
141 158 0
140 158 0
142 160 0
143 159 0
140 158 0
142 160 0
137 153 0
134 151 0
134 151 0
138 155 0
140 158 0
137 153 0
138 155 0
137 154 0
138 156 0
133 149 0
137 154 0
134 150 0
139 155 0
136 152 0
131 147 0
128 144 0
131 148 0
132 149 0
127 142 0
132 148 0
131 148 0
138 154 0
132 147 0
132 148 0
126 142 0
130 146 0
130 146 0
131 147 0
128 144 0
124 139 0
130 146 0
129 144 0
120 135 0
131 146 0
121 136 0
123 138 0
120 135 0
128 143 0
111 124 0
116 131 0
124 137 0
122 137 0
113 127 0
113 127 0
115 129 0
112 125 0
118 131 0
115 128 0
112 125 0
96 107 0
100 112 0
109 122 0
89 99 0
94 105 0
91 102 0
86 95 0
87 97 0
96 105 0
92 103 0
99 110 0
103 115 0
106 118 0
103 115 0
101 112 0
116 128 0
110 124 0
111 124 0
101 113 0
119 133 0
116 130 0
115 129 0
123 137 0
110 125 0
120 135 0
111 126 0
115 129 0
125 140 0
116 132 0
118 134 0
112 126 0
111 126 0
115 131 0
114 130 0
119 136 0
128 145 0
120 136 0
121 139 0
123 140 0
123 140 0
109 124 0
118 135 0
113 130 0
114 131 0
115 132 0
124 142 0
108 126 0
120 136 0
117 134 0
126 143 0
123 140 0
127 146 0
109 126 0
126 142 0
124 142 0
106 122 0
123 140 0
108 125 0
116 134 0
116 133 0
109 126 0
106 122 0
118 135 0
112 129 0
107 124 0
109 126 0
113 129 0
102 118 0
103 118 0
105 120 0
95 112 0
116 132 0
105 119 0
88 103 0
101 116 0
96 111 0
89 104 0
86 99 0
106 121 0
92 107 0
102 117 0
91 105 0
83 96 0
82 96 0
82 96 0
93 108 0
83 95 0
75 87 0
69 83 0
62 75 0
84 96 0
72 85 0
63 76 0
65 77 0
78 90 0
72 83 0
63 75 0
68 80 0
65 76 0
58 69 0
65 74 0
67 79 0
71 82 0
69 80 0
65 76 0
63 73 0
69 79 0
73 85 0
66 76 0
82 93 0
67 77 0
78 88 0
79 90 0
69 80 0
73 85 0
76 86 0
75 86 0
84 96 0
82 93 0
76 87 0
72 83 0
80 92 0
83 95 0
89 100 0
90 103 0
92 104 0
92 105 0
98 111 0
91 103 0
101 114 0
94 105 0
95 108 0
87 101 0
108 120 0
103 114 0
101 114 0
101 112 0
104 117 0
105 118 0
108 120 0
103 116 0
104 118 0
104 117 0
114 128 0
115 127 0
107 121 0
127 143 0
116 129 0
119 133 0
106 121 0
121 133 0
122 133 0
117 132 0
113 126 0
127 140 0
121 134 0
112 120 0
117 130 0
114 126 0
116 128 0
118 131 0
121 131 0
122 132 0
120 130 0
108 117 0
116 127 0
118 132 0
110 120 0
112 120 0
102 111 0
114 121 0
118 126 0
110 116 0
110 119 0
115 123 0
116 123 0
102 108 0
109 116 0
94 99 0
98 102 0
114 116 0
112 116 0
91 89 0
100 101 0
102 101 0
104 107 0
103 104 0
105 107 0
101 99 0
95 94 0
100 99 0
92 90 0
95 93 0
90 87 0
90 88 0
98 94 0
85 79 0
81 75 0
75 67 0
78 70 0
80 73 0
89 78 0
96 86 0
84 77 0
83 75 0
94 85 0
98 88 0
86 78 0
93 83 0
104 94 0
96 89 0
87 82 0
104 97 0
99 90 0
95 88 0
99 92 0
96 87 0
102 93 0
104 97 0
115 109 0
113 104 0
94 86 0
103 97 0
103 97 0
118 110 16
109 102 11
113 105 11
103 97 0
109 102 0
110 103 0
110 102 0
112 103 0
111 104 11
101 91 0
113 106 19
113 106 11
118 112 0
118 112 11
106 98 11
112 105 11
124 116 19
125 118 11
114 105 0
101 94 11
128 122 25
122 116 19
120 111 22
108 102 16
126 119 16
118 110 11
122 116 11
126 118 22
118 112 19
126 120 28
121 114 16
125 119 25
127 120 25
117 111 16
126 119 28
123 116 30
128 121 25
125 118 28
124 117 22
119 113 25
129 123 22
121 115 11
124 117 28
122 116 22
125 119 25
127 118 36
130 123 19
133 127 30
122 115 34
113 106 22
123 117 28
125 118 22
115 108 22
130 120 47
131 125 36
123 118 28
129 121 36
117 111 30
116 109 30
127 120 37
133 124 42
122 116 34
120 113 28
118 111 34
117 111 32
121 115 28
119 113 36
124 117 34
110 104 25
132 125 45
131 125 41
117 111 39
116 112 25
126 120 36
118 111 36
118 113 28
124 116 42
131 123 48
135 152 0
130 146 0
132 149 0
137 155 0
138 156 0
141 159 0
141 159 0
140 159 0
142 160 0
147 165 0
148 167 0
142 161 0
143 161 0
148 166 0
148 166 0
151 169 0
148 167 0
146 164 0
146 164 0
147 166 0
143 161 0
147 166 0
145 163 0
145 162 0
143 161 0
143 160 0
147 166 0
147 165 0
149 166 0
145 163 0
152 171 0
142 159 0
142 159 0
143 160 0
147 165 0
142 159 0
141 159 0
142 160 0
138 155 0
145 163 0
140 157 0
143 160 0
142 160 0
148 166 0
143 160 0
137 155 0
135 152 0
134 150 0
138 155 0
137 153 0
145 162 0
139 157 0
139 155 0
137 153 0
135 151 0
138 154 0
141 158 0
138 155 0
138 155 0
139 155 0
136 153 0
128 144 0
135 152 0
133 149 0
133 149 0
127 142 0
136 152 0
134 150 0
137 153 0
121 135 0
130 146 0
131 147 0
128 144 0
125 140 0
131 147 0
126 142 0
127 143 0
123 137 0
122 137 0
129 144 0
126 141 0
126 141 0
122 136 0
122 136 0
126 140 0
118 132 0
113 126 0
123 137 0
119 132 0
118 132 0
107 121 0
111 124 0
118 131 0
107 120 0
111 124 0
107 119 0
113 126 0
101 113 0
91 102 0
97 108 0
82 92 0
91 100 0
70 78 0
86 95 0
92 100 0
88 98 0
99 109 0
110 122 0
87 98 0
108 120 0
113 126 0
100 112 0
113 126 0
116 130 0
117 130 0
107 120 0
107 120 0
111 125 0
119 134 0
133 148 0
113 128 0
119 134 0
121 135 0
123 138 0
114 130 0
124 139 0
122 138 0
118 133 0
125 142 0
135 152 0
113 129 0
117 133 0
115 131 0
123 140 0
128 145 0
122 138 0
131 148 0
127 143 0
121 138 0
125 143 0
128 146 0
127 144 0
125 142 0
114 132 0
123 142 0
130 147 0
112 129 0
114 131 0
120 136 0
120 137 0
122 140 0
133 150 0
121 138 0
114 131 0
124 141 0
127 144 0
106 123 0
113 131 0
113 131 0
119 137 0
108 126 0
105 122 0
108 124 0
106 124 0
120 136 0
113 129 0
106 124 0
124 141 0
96 112 0
107 124 0
98 114 0
96 111 0
104 120 0
91 106 0
99 114 0
93 108 0
101 116 0
99 114 0
102 118 0
91 106 0
81 96 0
88 101 0
78 92 0
76 90 0
89 103 0
81 95 0
84 98 0
73 87 0
63 76 0
68 81 0
78 91 0
90 104 0
67 79 0
84 98 0
78 89 0
76 89 0
72 84 0
83 95 0
87 100 0
72 85 0
75 86 0
76 88 0
73 85 0
80 91 0
65 77 0
71 80 0
77 87 0
81 92 0
67 79 0
69 79 0
78 87 0
73 84 0
80 92 0
80 92 0
78 91 0
76 87 0
83 94 0
88 99 0
91 101 0
96 109 0
83 96 0
81 94 0
85 98 0
112 125 0
95 109 0
88 100 0
109 122 0
97 110 0
93 103 0
114 127 0
100 112 0
104 118 0
110 125 0
106 120 0
106 117 0
96 109 0
107 119 0
103 115 0
111 123 0
118 130 0
119 134 0
106 120 0
115 128 0
125 139 0
98 108 0
108 121 0
117 129 0
111 124 0
111 124 0
111 122 0
125 136 0
117 128 0
108 120 0
115 127 0
110 123 0
109 120 0
125 135 0
119 133 0
117 128 0
112 124 0
125 138 0
117 129 0
116 127 0
117 127 0
115 124 0
114 123 0
129 136 0
108 117 0
102 110 0
118 126 0
116 123 0
122 132 0
106 113 0
119 123 0
109 117 0
103 109 0
105 110 0
110 117 0
114 121 0
119 124 0
105 108 0
103 107 0
108 108 0
114 116 0
105 105 0
107 107 0
88 89 0
109 109 0
98 98 0
93 93 0
94 89 0
87 85 0
97 93 0
90 85 0
86 85 0
86 84 0
76 72 0
70 62 0
76 70 0
81 73 0
81 72 0
93 83 0
89 80 11
88 80 0
92 81 0
98 87 0
91 82 0
82 75 0
97 89 0
94 86 0
106 96 0
94 87 0
102 92 0
100 93 0
90 83 0
98 90 0
104 97 0
119 110 0
105 100 0
94 88 0
112 106 0
113 105 0
107 100 0
107 99 0
107 98 0
108 101 0
113 105 0
110 101 11
116 109 0
109 102 0
101 94 11
123 116 16
114 107 0
114 108 16
115 108 16
111 104 0
110 102 0
124 117 11
118 111 11
118 110 16
127 120 19
123 117 16
122 113 19
113 106 19
119 112 19
124 118 16
120 113 19
123 115 22
120 112 11
111 104 16
122 114 30
122 114 16
118 110 19
117 109 19
118 111 0
122 114 16
123 118 19
118 110 25
121 112 25
121 113 28
117 110 19
122 117 22
130 125 25
126 119 28
119 112 30
113 107 19
124 116 30
126 120 39
126 121 28
114 108 16
122 115 32
132 124 41
121 114 22
130 124 34
122 116 34
126 121 28
125 118 37
133 127 37
121 115 28
123 117 22
129 123 32
129 121 32
129 122 39
126 119 37
123 118 22
121 114 34
128 121 32
131 124 41
130 123 39
128 122 39
129 122 32
117 110 32
116 109 32
121 114 39
122 115 36
120 113 36
113 107 39
119 115 32
122 116 44
111 106 37
126 142 0
122 138 0
129 145 0
130 147 0
139 156 0
132 149 0
131 147 0
135 151 0
134 152 0
134 152 0
139 157 0
133 150 0
141 159 0
143 161 0
148 166 0
144 163 0
148 167 0
145 162 0
147 165 0
150 169 0
148 166 0
147 165 0
147 165 0
146 164 0
147 164 0
142 160 0
145 163 0
142 160 0
146 165 0
149 167 0
138 155 0
143 160 0
140 158 0
143 161 0
146 163 0
145 162 0
143 160 0
141 159 0
144 161 0
139 157 0
140 157 0
140 157 0
138 154 0
139 156 0
140 157 0
143 160 0
142 158 0
140 156 0
137 154 0
141 157 0
140 157 0
136 153 0
133 149 0
144 161 0
137 154 0
136 151 0
138 155 0
135 151 0
138 154 0
136 152 0
129 145 0
130 145 0
138 154 0
133 148 0
133 149 0
127 142 0
134 151 0
127 141 0
131 147 0
128 144 0
126 142 0
130 145 0
122 137 0
128 144 0
128 144 0
127 140 0
125 139 0
120 135 0
125 139 0
118 133 0
122 136 0
127 141 0
118 131 0
110 123 0
118 132 0
120 133 0
118 132 0
119 133 0
122 135 0
109 122 0
109 121 0
107 120 0
109 121 0
112 124 0
103 115 0
93 104 0
99 110 0
90 99 0
89 99 0
84 93 0
87 95 0
86 94 0
94 104 0
94 103 0
98 109 0
106 117 0
115 127 0
108 119 0
100 111 0
112 124 0
105 116 0
110 123 0
103 116 0
113 126 0
112 126 0
119 133 0
120 135 0
118 132 0
123 138 0
109 124 0
109 123 0
125 141 0
114 128 0
117 132 0
134 151 0
120 136 0
122 137 0
104 119 0
114 130 0
123 139 0
124 139 0
123 140 0
119 135 0
119 135 0
120 136 0
124 141 0
127 144 0
124 141 0
134 152 0
122 139 0
123 140 0
123 141 0
129 147 0
114 132 0
135 154 0
120 137 0
117 134 0
120 138 0
130 147 0
136 155 0
123 141 0
107 124 0
121 139 0
122 141 0
125 144 0
111 130 0
109 126 0
116 134 0
102 119 0
112 130 0
115 132 0
114 131 0
102 118 0
120 137 0
103 120 0
104 120 0
108 124 0
114 131 0
98 114 0
99 115 0
107 123 0
103 119 0
113 129 0
120 136 0
90 106 0
84 100 0
104 121 0
89 105 0
95 112 0
104 119 0
83 99 0
88 101 0
79 94 0
92 107 0
76 89 0
75 88 0
92 106 0
90 105 0
92 104 0
83 97 0
86 97 0
76 89 0
54 67 0
84 96 0
84 98 0
78 91 0
70 84 0
77 89 0
78 89 0
79 90 0
77 89 0
80 92 0
83 96 0
80 92 0
82 93 0
85 96 0
87 99 0
81 93 0
73 86 0
77 89 0
80 93 0
92 105 0
95 106 0
81 96 0
81 95 0
88 101 0
91 104 0
106 120 0
92 105 0
82 95 0
84 95 0
103 115 0
93 104 0
99 112 0
92 104 0
95 107 0
95 110 0
90 103 0
105 120 0
95 111 0
110 123 0
101 114 0
113 127 0
103 116 0
104 117 0
109 121 0
122 134 0
107 121 0
106 119 0
111 124 0
114 127 0
116 129 0
120 133 0
113 128 0
120 133 0
105 117 0
115 131 0
119 132 0
122 135 0
101 114 0
113 126 0
123 135 0
116 128 0
116 126 0
128 138 0
121 132 0
122 137 0
118 130 0
127 137 0
118 128 0
122 133 0
117 128 0
127 139 0
116 126 0
124 133 0
114 123 0
107 116 0
114 123 0
122 132 0
112 119 0
118 123 0
114 121 0
124 131 0
119 128 0
114 120 0
116 122 0
107 114 0
114 119 0
128 132 0
110 112 0
107 113 0
110 112 0
113 113 0
102 102 0
114 115 0
106 105 0
112 112 0
105 105 0
105 103 0
99 98 0
111 109 0
93 88 0
96 93 0
86 80 0
90 86 0
91 85 0
81 75 0
78 73 0
85 84 0
75 71 0
70 63 0
80 72 0
73 64 0
85 77 0
79 70 0
88 79 0
93 83 0
82 73 0
91 82 0
91 79 0
95 87 0
105 96 0
91 83 0
93 86 0
102 92 0
102 93 0
98 90 0
104 95 0
109 101 0
106 99 0
102 93 0
109 100 0
105 97 0
114 108 0
98 90 11
111 102 11
108 99 0
104 96 11
113 105 0
118 111 0
107 98 0
111 101 0
119 110 0
110 104 11
115 108 0
108 102 11
112 106 11
116 110 11
116 108 16
115 108 0
107 98 11
125 116 22
123 115 11
111 103 11
118 109 16
117 110 11
114 107 28
111 105 19
106 98 0
122 114 19
121 114 25
121 114 25
118 111 19
118 112 22
107 98 16
124 117 28
122 115 25
114 108 0
124 117 22
120 112 32
123 115 22
118 111 19
112 105 22
125 116 25
119 111 28
129 123 22
122 115 25
123 117 32
125 120 32
126 119 30
128 121 32
121 113 28
125 118 30
126 118 32
118 112 22
116 110 28
124 118 32
120 114 28
124 118 32
126 120 32
124 118 30
128 121 36
122 115 32
120 114 34
114 108 22
114 109 25
125 117 34
115 108 30
125 118 39
104 97 19
117 111 37
109 105 16
117 112 39
110 103 28
120 111 36
117 111 36
110 105 32
109 103 30
113 107 28
137 138 39
169 193 0
160 181 0
143 161 22
127 144 0
127 143 0
121 136 0
124 139 0
125 140 0
127 143 0
133 150 0
132 149 0
133 150 0
133 150 0
132 149 0
142 160 0
141 159 0
137 154 0
144 162 0
146 164 0
145 163 0
146 165 0
144 162 0
143 162 0
148 166 0
143 161 0
144 162 0
145 163 0
144 161 0
148 166 0
141 158 0
143 161 0
142 159 0
145 163 0
138 156 0
141 158 0
140 158 0
140 156 0
140 156 0
145 163 0
142 158 0
139 156 0
140 158 0
137 154 0
142 160 0
144 161 0
140 158 0
140 157 0
137 154 0
135 151 0
141 158 0
139 156 0
134 150 0
136 151 0
134 150 0
140 156 0
133 150 0
137 153 0
131 147 0
137 152 0
136 152 0
134 150 0
134 151 0
137 153 0
137 152 0
129 144 0
129 145 0
128 144 0
131 147 0
129 144 0
131 145 0
134 149 0
129 144 0
128 143 0
130 146 0
124 139 0
125 139 0
132 147 0
130 143 0
132 147 0
123 137 0
129 143 0
120 134 0
119 132 0
123 137 0
118 131 0
113 126 0
121 133 0
121 133 0
113 126 0
111 123 0
107 118 0
105 116 0
101 112 0
94 104 0
86 96 0
87 95 0
76 84 0
83 91 0
88 97 0
89 98 0
97 107 0
90 100 0
113 124 0
93 104 0
98 109 0
111 122 0
107 119 0
108 120 0
109 121 0
103 115 0
104 118 0
116 128 0
115 129 0
118 131 0
128 141 0
115 130 0
109 123 0
117 132 0
116 130 0
123 138 0
131 146 0
119 133 0
115 131 0
113 129 0
120 136 0
125 140 0
132 148 0
117 133 0
118 134 0
119 135 0
125 141 0
124 141 0
119 136 0
125 142 0
125 143 0
120 137 0
127 143 0
121 139 0
122 139 0
120 137 0
118 136 0
118 136 0
119 136 0
121 138 0
121 138 0
124 142 0
129 147 0
116 133 0
117 135 0
120 138 0
112 129 0
123 141 0
120 138 0
119 137 0
121 139 0
122 141 0
119 137 0
118 135 0
125 144 0
109 127 0
115 132 0
120 138 0
112 129 0
117 134 0
105 122 0
108 124 0
99 117 0
108 125 0
110 128 0
109 127 0
108 125 0
108 125 0
115 133 0
97 115 0
114 131 0
105 121 0
92 109 0
99 115 0
84 100 0
102 117 0
85 101 0
100 115 0
96 111 0
104 120 0
94 109 0
103 118 0
86 100 0
83 98 0
87 99 0
99 112 0
77 92 0
90 105 0
79 93 0
86 100 0
81 95 0
90 105 0
83 98 0
88 102 0
81 94 0
86 99 0
80 94 0
88 101 0
92 106 0
85 97 0
88 102 0
85 100 0
85 98 0
93 107 0
93 106 0
91 104 0
79 91 0
76 90 0
85 99 0
77 91 0
106 119 0
84 96 0
81 94 0
83 97 0
95 110 0
85 99 0
99 112 0
95 107 0
102 115 0
102 115 0
96 110 0
101 116 0
102 117 0
99 112 0
105 118 0
88 100 0
107 118 0
102 115 0
95 107 0
95 108 0
110 123 0
112 127 0
114 128 0
107 120 0
107 119 0
103 117 0
103 117 0
111 123 0
113 126 0
111 124 0
122 135 0
113 126 0
120 134 0
118 130 0
120 136 0
124 138 0
121 134 0
112 125 0
129 143 0
121 134 0
122 134 0
122 137 0
137 152 0
133 147 0
122 134 0
109 120 0
120 131 0
122 132 0
113 125 0
130 143 0
122 133 0
121 131 0
126 137 0
124 133 0
115 123 0
122 133 0
119 127 0
118 127 0
118 127 0
115 123 0
121 126 0
127 134 0
115 121 0
125 131 0
104 109 0
102 106 0
110 115 0
111 114 0
107 110 0
111 115 0
117 120 0
112 113 0
103 106 0
91 92 0
106 110 0
99 99 0
101 102 0
109 111 0
80 76 0
103 102 0
85 81 0
91 89 0
91 89 0
100 98 0
85 84 0
74 65 0
82 74 0
78 73 0
81 74 11
81 72 0
68 57 0
82 74 0
92 83 0
81 74 0
86 77 0
87 78 0
80 73 0
90 83 0
94 84 0
92 85 0
104 95 0
104 96 0
90 78 0
96 88 0
99 89 0
98 89 0
101 92 11
99 90 0
103 94 0
109 101 11
97 89 0
108 99 0
107 97 11
100 89 0
113 105 11
103 96 0
114 106 0
105 94 11
109 99 11
108 101 11
107 100 19
103 95 0
115 106 0
111 103 16
114 106 0
118 111 19
113 104 19
115 107 22
118 108 16
120 114 16
122 114 22
114 109 0
114 107 11
117 109 0
104 97 0
116 109 16
120 115 11
110 103 11
116 109 28
120 112 25
109 102 19
119 112 16
114 108 16
116 107 11
112 104 22
113 106 16
123 116 22
125 116 28
106 98 22
118 109 16
119 112 19
122 116 28
116 110 25
100 94 16
132 122 30
118 111 25
128 119 19
124 116 32
123 118 34
122 116 25
124 117 25
118 112 19
122 114 25
121 114 36
129 120 37
114 107 25
128 120 34
118 112 28
121 116 41
118 109 39
115 107 28
125 118 36
119 112 34
105 100 25
110 103 32
114 106 34
120 111 37
122 115 34
122 115 41
114 106 34
120 113 34
122 115 37
114 115 30
141 152 25
162 181 11
172 192 0
171 194 0
171 194 0
169 192 0
171 194 0
165 186 0
142 160 0
123 138 0
132 149 0
128 144 0
127 143 0
131 147 0
134 151 0
133 151 0
131 148 0
136 153 0
140 157 0
136 153 0
135 152 0
140 157 0
136 153 0
142 159 0
143 161 0
139 157 0
145 162 0
145 162 0
147 165 0
143 160 0
146 163 0
144 161 0
145 162 0
139 156 0
145 162 0
144 162 0
141 158 0
148 164 0
142 158 0
140 157 0
140 157 0
139 155 0
139 156 0
142 160 0
143 160 0
140 156 0
135 151 0
141 158 0
137 155 0
137 153 0
139 155 0
135 151 0
141 158 0
141 157 0
139 155 0
140 156 0
133 149 0
138 153 0
133 149 0
134 150 0
130 145 0
134 149 0
131 147 0
134 149 0
129 145 0
130 145 0
132 146 0
133 148 0
133 148 0
135 150 0
133 147 0
133 147 0
130 144 0
124 138 0
129 143 0
123 137 0
115 129 0
124 138 0
121 135 0
124 138 0
121 135 0
116 129 0
121 134 0
121 135 0
124 137 0
117 130 0
119 132 0
113 126 0
113 125 0
113 125 0
106 118 0
101 113 0
94 104 0
97 107 0
82 92 0
84 92 0
80 90 0
80 88 0
86 95 0
83 92 0
88 97 0
93 102 0
98 108 0
91 101 0
98 108 0
105 116 0
100 111 0
103 114 0
100 111 0
113 125 0
102 114 0
114 128 0
122 135 0
114 127 0
109 123 0
112 126 0
109 123 0
106 120 0
123 137 0
110 125 0
120 135 0
118 133 0
118 132 0
127 142 0
121 136 0
121 136 0
121 137 0
118 134 0
123 140 0
113 130 0
129 145 0
119 136 0
121 137 0
131 148 0
119 136 0
118 135 0
123 141 0
129 147 0
125 141 0
122 139 0
121 138 0
125 143 0
123 140 0
129 146 0
113 131 0
123 141 0
120 136 0
121 139 0
134 152 0
120 138 0
127 146 0
127 145 0
120 139 0
126 144 0
126 144 0
117 134 0
118 136 0
112 130 0
122 141 0
120 137 0
120 137 0
115 133 0
114 131 0
118 136 0
112 129 0
110 126 0
121 138 0
107 124 0
112 131 0
105 122 0
124 141 0
103 119 0
113 130 0
114 132 0
102 117 0
115 133 0
102 118 0
112 127 0
105 121 0
102 119 0
103 121 0
105 122 0
88 103 0
90 105 0
105 121 0
97 113 0
97 112 0
95 111 0
101 116 0
91 106 0
97 113 0
90 105 0
86 101 0
87 102 0
100 114 0
96 110 0
88 102 0
95 108 0
100 115 0
104 118 0
99 113 0
89 105 0
100 113 0
85 100 0
91 103 0
84 98 0
94 108 0
73 87 0
71 85 0
90 104 0
84 99 0
99 112 0
81 96 0
94 108 0
100 115 0
94 108 0
97 109 0
85 98 0
103 118 0
92 105 0
99 114 0
102 117 0
96 110 0
105 119 0
92 104 0
97 110 0
110 124 0
106 122 0
105 121 0
98 111 0
110 122 0
110 124 0
125 139 0
93 107 0
108 123 0
109 124 0
95 109 0
121 133 0
113 125 0
113 127 0
99 114 0
101 115 0
121 136 0
118 131 0
116 131 0
116 129 0
118 132 0
97 107 0
131 145 0
120 135 0
121 134 0
114 126 0
109 122 0
111 125 0
119 130 0
133 148 0
115 128 0
118 130 0
123 137 0
116 128 0
126 138 0
127 139 0
125 138 0
111 122 0
122 130 0
115 127 0
105 114 0
126 137 0
117 127 0
129 143 0
115 123 0
121 132 0
121 128 0
117 124 0
119 129 0
117 125 0
117 123 0
115 122 0
116 123 0
110 114 0
114 122 0
116 126 0
109 113 0
115 121 0
105 111 0
110 115 0
113 117 0
104 106 0
106 109 0
115 118 0
113 114 0
110 113 0
105 107 0
111 114 0
107 103 0
104 103 0
100 97 0
102 102 0
89 87 0
94 93 0
97 97 0
89 82 0
98 94 0
89 85 0
84 79 0
92 87 0
75 67 0
81 75 0
81 71 0
78 71 0
87 76 0
81 72 0
81 73 0
90 81 0
96 86 0
88 78 0
96 87 0
96 83 0
117 108 0
98 86 0
88 80 0
89 81 0
105 95 11
98 89 11
84 77 0
100 93 0
102 91 11
105 97 0
99 91 0
110 102 0
99 92 0
108 101 0
100 92 0
102 95 19
110 102 0
110 102 0
110 102 11
108 99 11
106 98 0
103 98 11
112 103 0
117 107 11
114 106 25
108 100 16
114 103 25
104 97 11
120 110 16
121 113 28
110 102 16
117 108 11
108 101 11
116 107 19
109 102 11
106 98 11
112 105 0
131 124 30
127 119 11
105 99 19
120 112 16
113 106 19
118 110 11
124 116 19
105 97 22
119 111 22
104 96 25
115 109 19
125 117 19
122 115 28
116 111 19
121 114 30
112 107 16
111 104 22
116 109 28
113 106 11
118 109 30
123 116 36
119 112 25
124 116 32
111 103 25
124 115 32
109 103 19
110 105 30
120 113 30
116 110 30
117 111 28
120 115 28
110 105 16
111 105 22
121 113 34
117 110 37
107 102 25
112 106 34
130 123 41
114 106 34
119 113 32
112 104 36
117 118 30
138 146 30
150 167 11
166 185 0
168 186 0
170 190 0
162 181 0
168 191 0
173 195 0
171 193 0
171 193 0
170 192 0
169 190 0
169 192 0
160 181 22
147 167 0
126 143 0
118 133 0
120 134 0
117 133 0
133 150 0
126 142 0
132 149 0
127 142 0
133 149 0
141 158 0
134 152 0
140 158 0
135 152 0
138 155 0
137 153 0
139 157 0
138 154 0
137 154 0
144 161 0
145 162 0
144 162 0
144 161 0
145 163 0
143 160 0
140 157 0
144 160 0
143 159 0
140 156 0
143 159 0
142 159 0
143 160 0
141 156 0
143 159 0
138 154 0
139 156 0
135 151 0
136 151 0
136 152 0
138 155 0
140 156 0
138 154 0
133 148 0
137 153 0
130 145 0
139 154 0
135 151 0
135 150 0
136 152 0
135 150 0
134 149 0
132 147 0
128 143 0
129 143 0
137 153 0
132 148 0
129 144 0
132 147 0
127 140 0
126 141 0
133 148 0
130 145 0
133 149 0
130 144 0
121 134 0
128 142 0
128 142 0
121 134 0
122 135 0
126 140 0
120 132 0
113 126 0
111 125 0
113 125 0
115 128 0
107 118 0
96 106 0
92 103 0
101 112 0
93 103 0
90 100 0
82 90 0
81 89 0
75 83 0
80 88 0
94 102 0
87 96 0
91 100 0
102 112 0
88 97 0
99 110 0
104 116 0
104 115 0
101 111 0
109 121 0
105 117 0
111 124 0
102 115 0
118 130 0
113 127 0
124 138 0
110 124 0
112 125 0
112 126 0
123 137 0
123 138 0
115 130 0
125 141 0
122 137 0
113 128 0
124 140 0
121 137 0
119 135 0
109 125 0
119 136 0
119 136 0
129 145 0
125 142 0
131 148 0
116 133 0
124 140 0
124 140 0
122 138 0
131 148 0
126 143 0
129 147 0
122 140 0
131 148 0
129 146 0
117 134 0
122 139 0
128 146 0
132 150 0
113 131 0
114 131 0
127 145 0
131 149 0
127 145 0
126 143 0
133 152 0
127 143 0
117 135 0
118 137 0
123 142 0
122 140 0
132 151 0
119 137 0
111 129 0
111 128 0
118 137 0
114 132 0
116 134 0
117 135 0
122 139 0
128 146 0
113 131 0
105 122 0
119 137 0
107 124 0
114 131 0
113 130 0
101 117 0
106 123 0
104 122 0
108 125 0
104 120 0
123 141 0
95 110 0
110 127 0
97 115 0
105 121 0
104 122 0
96 113 0
112 128 0
103 119 0
109 127 0
98 113 0
98 112 0
104 119 0
93 109 0
92 108 0
99 116 0
86 102 0
93 108 0
97 113 0
93 107 0
96 110 0
90 105 0
97 112 0
94 108 0
93 109 0
93 108 0
93 109 0
92 106 0
98 112 0
103 119 0
87 102 0
100 115 0
93 109 0
102 116 0
91 106 0
86 102 0
98 114 0
90 105 0
100 115 0
98 112 0
101 116 0
93 107 0
105 118 0
97 111 0
98 112 0
92 105 0
95 110 0
102 117 0
100 115 0
103 116 0
101 115 0
102 116 0
116 131 0
112 128 0
98 113 0
106 121 0
112 125 0
109 122 0
117 132 0
104 120 0
113 129 0
113 126 0
116 132 0
112 127 0
105 119 0
115 128 0
113 127 0
123 137 0
114 128 0
119 133 0
116 130 0
122 139 0
128 142 0
116 131 0
129 141 0
123 136 0
120 133 0
117 132 0
114 127 0
114 126 0
120 132 0
121 136 0
126 140 0
131 145 0
118 133 0
132 147 0
133 147 0
116 126 0
121 133 0
110 122 0
122 133 0
123 137 0
125 135 0
126 135 0
123 135 0
120 129 0
115 124 0
113 120 0
113 120 0
119 128 0
122 132 0
127 139 0
110 119 0
121 130 0
124 131 0
117 124 0
115 124 0
113 118 0
120 126 0
123 127 0
113 118 0
111 118 0
119 125 0
118 123 0
109 111 0
102 105 0
104 104 0
104 105 0
98 102 0
107 108 0
112 115 0
111 114 0
95 94 0
108 106 0
105 106 0
88 83 0
86 77 0
92 91 0
95 90 0
84 77 0
80 75 0
85 80 0
84 77 0
87 80 0
76 70 0
64 55 0
85 76 0
83 73 0
74 64 0
86 75 0
82 73 0
84 73 0
88 76 0
90 81 0
93 83 0
89 78 0
90 81 0
86 76 0
86 78 0
103 95 0
92 84 0
111 100 0
96 88 11
93 85 0
111 101 11
100 92 11
104 94 0
109 100 16
106 96 0
90 82 0
117 109 16
107 99 0
101 92 19
102 95 11
104 95 11
106 97 11
96 87 0
106 97 0
107 99 19
108 101 0
110 102 16
108 100 16
110 102 11
112 104 16
114 107 16
117 110 16
112 102 11
107 100 11
111 104 11
104 96 11
115 107 16
118 111 19
118 110 22
111 104 22
119 109 11
110 103 11
116 107 25
115 108 19
113 106 22
118 111 22
113 106 22
115 107 22
114 107 25
115 110 25
116 109 28
120 114 22
104 98 19
122 115 32
117 111 22
119 110 25
118 111 22
114 108 30
121 114 39
114 105 30
108 101 19
118 112 32
115 108 28
116 109 34
113 107 28
112 105 28
118 110 28
112 107 28
115 107 36
111 104 34
118 112 34
111 105 30
122 123 25
138 150 11
156 173 11
166 185 0
170 189 0
167 186 0
170 191 0
168 187 0
172 193 0
172 191 0
169 192 0
169 192 0
171 193 0
170 192 0
167 189 0
170 191 0
170 191 0
170 191 0
168 189 0
168 191 0
166 188 0
151 170 0
135 152 0
127 143 0
115 130 0
124 138 0
132 147 0
133 149 0
129 145 0
129 144 0
134 150 0
134 150 0
137 153 0
128 144 0
135 152 0
138 154 0
131 147 0
136 152 0
142 158 0
135 151 0
139 156 0
136 153 0
141 157 0
140 156 0
137 154 0
138 154 0
141 157 0
137 154 0
144 160 0
140 157 0
136 152 0
138 153 0
138 154 0
141 157 0
137 152 0
135 150 0
133 149 0
137 152 0
135 151 0
139 155 0
132 146 0
140 156 0
134 149 0
134 150 0
133 148 0
134 150 0
138 153 0
131 146 0
127 141 0
129 144 0
124 139 0
125 139 0
137 152 0
134 148 0
122 137 0
121 135 0
133 148 0
126 141 0
129 142 0
127 140 0
119 132 0
119 132 0
125 140 0
118 131 0
119 133 0
109 122 0
116 128 0
119 132 0
104 116 0
107 119 0
110 121 0
97 107 0
98 108 0
98 108 0
91 100 0
86 95 0
79 87 0
82 90 0
75 82 0
79 87 0
93 102 0
84 93 0
89 98 0
96 105 0
86 96 0
104 115 0
103 114 0
102 114 0
101 112 0
108 121 0
111 123 0
111 123 0
109 122 0
112 124 0
117 130 0
117 129 0
107 119 0
123 137 0
126 140 0
118 131 0
115 128 0
126 141 0
115 129 0
116 131 0
122 138 0
131 147 0
116 131 0
120 136 0
125 140 0
124 139 0
129 146 0
114 129 0
119 135 0
134 151 0
127 144 0
128 145 0
125 142 0
121 138 0
131 149 0
128 145 0
139 157 0
129 146 0
129 147 0
129 146 0
130 147 0
122 139 0
123 141 0
123 142 0
132 150 0
126 143 0
119 138 0
134 152 0
131 149 0
128 147 0
118 135 0
124 141 0
119 137 0
119 138 0
126 144 0
123 141 0
124 141 0
121 141 0
115 134 0
120 137 0
121 138 0
121 140 0
116 135 0
125 144 0
114 132 0
124 141 0
116 135 0
121 140 0
128 147 0
113 131 0
118 135 0
124 142 0
118 137 0
114 132 0
114 132 0
110 128 0
111 127 0
101 118 0
108 125 0
109 125 0
105 121 0
114 131 0
113 131 0
112 129 0
102 120 0
118 135 0
111 128 0
125 143 0
104 121 0
98 115 0
96 113 0
102 119 0
93 110 0
106 124 0
112 128 0
110 127 0
90 106 0
98 114 0
114 130 0
101 115 0
102 118 0
99 115 0
112 128 0
102 118 0
97 112 0
107 123 0
106 121 0
108 125 0
94 109 0
93 110 0
99 114 0
104 118 0
97 110 0
98 112 0
100 116 0
93 108 0
95 109 0
106 120 0
105 120 0
88 104 0
98 112 0
105 120 0
104 119 0
104 118 0
97 111 0
95 107 0
101 117 0
105 120 0
97 110 0
118 131 0
110 125 0
96 110 0
109 124 0
109 125 0
106 121 0
123 137 0
116 131 0
108 124 0
120 135 0
103 117 0
120 136 0
100 113 0
110 124 0
115 130 0
111 125 0
118 132 0
123 138 0
116 131 0
124 138 0
125 142 0
118 133 0
113 128 0
118 135 0
130 144 0
121 137 0
116 130 0
108 119 0
126 140 0
116 130 0
127 140 0
123 137 0
122 134 0
121 135 0
114 124 0
125 138 0
118 130 0
130 141 0
122 134 0
130 144 0
123 135 0
122 133 0
118 128 0
125 137 0
124 136 0
126 138 0
121 133 0
123 133 0
122 133 0
117 126 0
121 131 0
119 129 0
114 120 0
125 135 0
125 133 0
114 121 0
117 126 0
121 127 0
113 118 0
111 117 0
118 124 0
117 124 0
114 119 0
118 125 0
107 110 0
117 122 0
108 110 0
108 108 0
100 101 0
108 110 0
107 108 0
124 125 0
110 107 0
110 108 0
99 96 0
104 103 0
95 93 0
107 105 0
92 89 0
96 96 0
97 94 0
99 95 0
81 77 0
87 84 0
86 79 0
79 74 0
85 78 0
86 80 0
70 60 0
73 66 0
70 59 0
78 67 0
84 74 0
84 76 0
84 75 0
95 84 0
86 77 0
94 84 0
95 84 0
94 84 0
92 83 0
104 92 0
99 90 0
94 85 0
104 96 11
93 84 11
95 84 0
101 93 11
103 94 0
103 94 11
95 87 0
107 97 11
102 94 11
102 96 0
109 100 11
98 91 0
103 95 16
116 108 16
96 90 16
103 94 11
110 102 19
108 100 16
109 100 11
102 93 11
110 100 11
112 104 19
104 94 16
109 99 0
107 100 16
114 106 16
107 100 19
114 106 25
115 106 25
112 104 22
117 108 16
122 113 30
110 101 19
119 111 28
113 106 16
116 108 28
105 97 16
113 103 19
115 107 11
111 102 16
113 107 25
120 113 36
115 107 30
112 103 16
101 95 11
115 107 32
94 88 19
109 102 28
115 107 28
116 109 28
115 108 22
117 110 32
112 107 32
107 100 19
119 110 34
109 100 36
104 97 32
128 119 41
103 98 34
122 119 37
123 128 16
137 146 25
163 180 11
167 185 0
168 184 0
166 185 0
169 186 0
168 187 0
168 187 0
167 187 0
168 188 0
171 189 0
166 186 0
170 192 0
170 191 0
168 191 0
170 193 0
171 194 0
169 191 0
169 191 0
170 192 0
168 190 0
167 189 0
169 190 0
167 188 0
166 187 0
170 191 0
163 184 0
158 179 0
138 155 0
115 130 0
116 130 0
120 134 0
119 133 0
123 138 0
125 140 0
121 135 0
133 149 0
127 143 0
133 148 0
137 153 0
133 148 0
128 144 0
133 149 0
134 151 0
129 145 0
138 154 0
137 153 0
132 148 0
136 152 0
132 147 0
135 150 0
137 152 0
135 150 0
136 151 0
137 153 0
134 150 0
138 154 0
135 150 0
138 153 0
130 146 0
131 146 0
130 144 0
135 150 0
136 151 0
133 147 0
138 153 0
128 143 0
135 149 0
134 148 0
124 138 0
136 151 0
134 148 0
132 147 0
122 135 0
128 142 0
125 139 0
129 144 0
126 141 0
125 139 0
121 134 0
112 124 0
118 130 0
115 127 0
121 134 0
117 129 0
108 120 0
111 123 0
111 123 0
108 119 0
99 110 0
96 107 0
97 107 0
102 112 0
87 96 0
89 98 0
79 87 0
85 93 0
79 85 0
88 96 0
102 112 0
91 99 0
108 118 0
91 101 0
85 93 0
100 110 0
98 109 0
106 117 0
113 124 0
99 110 0
104 116 0
108 120 0
115 127 0
114 127 0
117 130 0
102 115 0
119 132 0
116 129 0
120 133 0
120 135 0
117 131 0
124 138 0
115 131 0
129 144 0
128 143 0
126 141 0
121 136 0
122 138 0
122 138 0
122 137 0
130 146 0
123 139 0
133 150 0
130 147 0
128 143 0
135 151 0
133 150 0
116 133 0
122 139 0
127 144 0
126 143 0
123 140 0
130 149 0
123 141 0
130 148 0
123 141 0
114 131 0
136 153 0
132 149 0
131 149 0
128 146 0
129 147 0
126 143 0
130 149 0
126 144 0
118 136 0
137 155 0
127 145 0
124 142 0
117 135 0
124 143 0
123 141 0
122 141 0
136 155 0
118 135 0
124 142 0
123 142 0
122 142 0
118 137 0
129 148 0
116 135 0
109 127 0
119 138 0
114 133 0
118 137 0
122 140 0
112 131 0
130 148 0
119 137 0
113 131 0
113 131 0
111 130 0
115 133 0
91 109 0
120 138 0
111 129 0
114 132 0
112 130 0
111 129 0
118 137 0
102 119 0
103 120 0
118 135 0
111 129 0
105 122 0
111 130 0
106 122 0
107 122 0
106 122 0
104 120 0
107 124 0
103 119 0
108 125 0
87 102 0
103 119 0
110 127 0
91 108 0
114 132 0
102 118 0
105 122 0
110 126 0
108 124 0
108 124 0
107 123 0
112 128 0
100 116 0
102 118 0
94 108 0
93 109 0
98 113 0
99 114 0
100 115 0
106 122 0
108 124 0
106 121 0
111 128 0
105 122 0
95 110 0
99 112 0
102 118 0
95 111 0
115 130 0
101 115 0
98 112 0
105 118 0
106 122 0
107 123 0
115 128 0
111 126 0
111 127 0
116 131 0
117 134 0
109 122 0
113 130 0
124 137 0
114 128 0
115 130 0
114 129 0
115 130 0
114 128 0
121 137 0
117 131 0
114 128 0
107 124 0
117 134 0
138 155 0
123 139 0
102 115 0
118 134 0
119 135 0
130 144 0
118 132 0
113 127 0
121 133 0
130 144 0
108 122 0
109 120 0
129 143 0
115 129 0
122 135 0
125 138 0
120 131 0
127 141 0
135 148 0
113 126 0
125 138 0
112 124 0
127 139 0
123 133 0
127 142 0
118 127 0
111 120 0
124 136 0
125 139 0
116 123 0
119 128 0
137 145 0
117 123 0
129 137 0
118 129 0
117 125 0
120 126 0
112 120 0
119 127 0
115 122 0
128 135 0
117 125 0
117 122 0
122 132 0
123 129 0
109 114 0
111 115 0
117 124 0
118 122 0
120 123 0
107 108 0
102 103 0
111 111 0
112 112 0
105 105 0
116 118 0
98 96 0
110 108 0
98 95 0
99 99 0
89 85 0
103 101 0
91 85 0
91 86 0
95 90 0
95 90 0
90 84 0
93 88 0
90 87 0
84 77 0
86 78 0
70 61 0
79 74 0
78 71 0
87 77 0
94 82 0
91 80 0
85 73 0
90 78 11
87 76 0
85 71 0
98 86 0
92 82 0
94 84 0
107 96 11
91 83 0
104 91 11
93 84 0
98 89 11
97 87 11
101 91 11
102 91 19
105 97 16
104 96 0
97 89 11
115 106 19
99 91 0
112 102 11
97 89 0
102 94 0
100 92 11
103 96 0
104 94 11
105 95 0
103 97 11
104 96 16
116 106 19
104 95 16
107 98 11
103 95 11
103 95 0
119 110 19
108 101 11
119 110 22
110 103 19
117 107 16
109 102 19
104 97 19
105 97 19
103 95 16
108 101 25
94 86 22
104 96 30
109 101 11
116 109 30
110 102 25
123 117 30
111 103 16
113 107 16
116 107 22
118 111 32
120 112 32
107 101 25
113 107 28
108 101 28
107 100 30
112 104 32
110 105 25
116 108 36
112 106 36
122 119 22
129 132 11
139 149 25
158 176 0
162 177 0
168 186 0
167 185 0
163 181 0
162 182 0
165 181 0
169 186 0
166 185 0
167 185 0
165 183 0
161 181 0
168 188 0
169 188 0
167 186 0
171 192 0
168 190 0
169 192 0
172 193 0
170 192 0
167 189 0
173 194 0
167 190 0
172 194 0
170 191 0
171 191 0
163 185 0
165 186 0
166 188 0
167 188 0
166 187 0
168 189 0
169 190 0
164 185 0
153 171 0
148 166 0
129 144 0
115 129 0
119 132 0
121 136 0
123 137 0
127 142 0
123 137 0
129 143 0
129 145 0
126 139 0
123 137 0
127 142 0
126 140 0
130 145 0
128 142 0
128 142 0
128 142 0
131 146 0
133 149 0
131 146 0
130 145 0
131 147 0
131 145 0
128 143 0
129 143 0
129 144 0
130 143 0
124 138 0
128 142 0
131 146 0
127 141 0
133 147 0
130 143 0
125 139 0
124 137 0
122 136 0
126 140 0
121 134 0
126 140 0
115 128 0
127 140 0
122 136 0
115 127 0
115 127 0
119 133 0
113 125 0
97 107 0
114 126 0
112 124 0
108 120 0
108 119 0
103 113 0
99 109 0
105 115 0
98 108 0
92 101 0
94 104 0
77 85 0
95 104 0
94 103 0
86 94 0
91 99 0
101 110 0
91 99 0
104 113 0
107 116 0
101 110 0
99 110 0
104 114 0
116 127 0
107 118 0
107 119 0
107 119 0
114 126 0
117 129 0
112 125 0
119 132 0
121 134 0
119 132 0
115 128 0
116 130 0
114 128 0
122 137 0
118 132 0
118 133 0
128 144 0
134 149 0
124 138 0
127 143 0
124 140 0
122 137 0
119 134 0
129 144 0
118 133 0
131 148 0
127 143 0
133 150 0
127 142 0
130 146 0
123 140 0
129 146 0
124 142 0
125 141 0
126 143 0
128 145 0
129 146 0
121 137 0
134 151 0
128 145 0
143 161 0
135 155 0
128 146 0
130 147 0
129 147 0
130 149 0
133 151 0
130 148 0
129 148 0
135 154 0
125 144 0
119 138 0
127 145 0
129 147 0
130 149 0
125 144 0
122 141 0
129 148 0
132 150 0
123 141 0
121 140 0
128 148 0
128 147 0
130 148 0
129 148 0
124 141 0
123 141 0
122 141 0
119 137 0
123 141 0
107 125 0
134 153 0
120 139 0
120 139 0
124 144 0
123 141 0
125 144 0
118 137 0
116 135 0
138 157 0
111 129 0
117 133 0
116 134 0
117 135 0
119 136 0
113 130 0
107 125 0
114 131 0
121 139 0
111 130 0
96 112 0
106 123 0
104 120 0
108 125 0
110 127 0
94 112 0
103 120 0
107 124 0
115 131 0
117 135 0
107 123 0
110 128 0
99 115 0
98 114 0
108 124 0
107 123 0
99 116 0
116 132 0
100 116 0
113 130 0
100 118 0
102 119 0
101 116 0
119 137 0
90 106 0
89 106 0
106 122 0
115 129 0
110 125 0
113 128 0
102 118 0
96 112 0
105 121 0
107 124 0
100 115 0
108 123 0
100 116 0
110 126 0
111 126 0
112 128 0
105 120 0
101 117 0
106 119 0
108 124 0
106 121 0
118 134 0
115 132 0
118 133 0
123 141 0
124 141 0
117 131 0
105 121 0
121 138 0
104 117 0
111 126 0
117 132 0
114 127 0
126 140 0
118 134 0
127 143 0
119 132 0
117 132 0
120 134 0
125 141 0
113 128 0
115 128 0
119 133 0
118 134 0
109 122 0
120 133 0
129 143 0
127 142 0
115 131 0
121 137 0
116 132 0
123 136 0
122 138 0
125 135 0
118 132 0
124 139 0
122 136 0
131 147 0
133 144 0
126 139 0
133 146 0
123 136 0
119 131 0
125 134 0
126 138 0
122 133 0
123 135 0
124 135 0
130 143 0
106 114 0
125 135 0
113 122 0
128 138 0
120 126 0
123 133 0
110 117 0
128 137 0
116 124 0
117 125 0
117 123 0
124 130 0
108 114 0
118 122 0
109 117 0
127 135 0
115 120 0
120 126 0
108 109 0
109 113 0
119 125 0
108 114 0
113 113 0
106 109 0
116 121 0
111 109 0
101 99 0
116 117 0
108 110 0
94 91 0
107 105 0
106 105 0
107 103 0
96 93 0
105 102 0
86 82 0
103 101 0
103 98 0
96 90 0
87 80 0
98 93 0
90 86 0
83 74 0
102 97 0
95 88 0
82 74 0
88 80 0
79 69 0
77 68 0
79 70 0
76 65 0
80 70 0
74 62 0
97 87 0
85 74 0
88 79 0
93 82 0
97 85 0
103 92 11
89 80 11
98 90 0
99 90 0
109 100 16
104 94 0
111 101 0
93 84 0
100 93 0
97 90 0
105 97 19
100 91 0
100 92 11
108 99 11
102 95 16
104 96 0
103 94 0
107 98 11
105 97 19
98 89 16
101 93 16
112 104 19
107 98 16
119 108 16
106 99 19
105 99 11
98 91 0
105 94 19
112 105 16
118 110 25
108 100 16
106 99 22
104 96 28
117 109 19
104 94 16
113 105 28
106 98 22
107 98 16
111 102 25
98 91 11
108 100 0
104 96 22
107 100 22
97 88 25
104 96 34
98 92 25
115 111 28
119 122 16
138 146 19
148 154 22
156 170 11
159 175 0
167 183 0
165 181 0
163 179 0
165 181 0
163 178 0
165 183 0
164 181 0
167 183 0
164 183 0
167 183 0
167 185 0
164 180 0
166 184 0
166 182 0
161 180 0
165 184 0
165 180 0
169 191 0
168 190 0
167 189 0
169 192 0
169 191 0
169 191 0
170 191 0
169 190 0
171 192 0
168 189 0
167 187 0
170 191 0
168 188 0
166 187 0
171 191 0
166 187 0
168 189 0
166 187 0
164 184 0
169 190 0
167 188 0
163 184 0
163 183 0
159 178 0
151 169 0
144 161 0
132 146 0
125 140 0
113 127 0
114 127 0
118 130 0
118 132 0
116 130 0
114 126 0
122 135 0
118 132 0
125 139 0
122 136 0
130 144 0
117 130 0
124 138 0
122 135 0
121 135 0
133 148 0
119 133 0
129 144 0
116 129 0
115 128 0
124 138 0
122 136 0
120 133 0
121 134 0
121 134 0
118 131 0
124 136 0
122 135 0
117 130 0
112 125 0
123 136 0
114 126 0
107 119 0
120 133 0
118 130 0
112 124 0
107 118 0
108 118 0
105 116 0
102 113 0
101 111 0
92 102 0
97 107 0
93 102 0
96 106 0
82 91 0
90 99 0
104 114 0
98 107 0
100 109 0
95 104 0
95 104 0
96 105 0
104 114 0
109 119 0
112 122 0
106 116 0
104 114 0
103 114 0
112 123 0
126 138 0
110 121 0
114 126 0
109 121 0
120 132 0
113 125 0
109 121 0
118 132 0
123 137 0
115 128 0
117 131 0
115 129 0
133 148 0
127 141 0
122 137 0
116 129 0
121 135 0
128 143 0
118 133 0
121 135 0
123 138 0
124 139 0
126 143 0
124 139 0
124 140 0
129 145 0
131 147 0
130 147 0
131 147 0
122 138 0
127 144 0
125 142 0
130 148 0
138 156 0
131 148 0
132 150 0
135 152 0
123 140 0
126 144 0
135 153 0
128 146 0
129 147 0
135 153 0
132 151 0
127 145 0
121 139 0
130 148 0
125 142 0
126 143 0
132 152 0
132 150 0
126 145 0
133 151 0
130 149 0
138 156 0
128 145 0
139 158 0
126 146 0
123 142 0
124 142 0
127 147 0
127 147 0
125 145 0
131 150 0
123 142 0
123 141 0
122 142 0
121 139 0
128 148 0
125 144 0
128 148 0
123 142 0
129 147 0
125 144 0
113 132 0
118 136 0
115 133 0
110 127 0
129 146 0
115 133 0
109 125 0
106 124 0
129 147 0
127 145 0
122 141 0
115 133 0
110 128 0
122 140 0
106 123 0
110 129 0
115 132 0
118 137 0
108 124 0
101 118 0
103 120 0
116 133 0
103 121 0
110 128 0
99 115 0
119 135 0
112 129 0
120 138 0
110 128 0
107 124 0
107 124 0
109 126 0
105 122 0
98 116 0
113 129 0
101 118 0
99 114 0
104 120 0
105 122 0
113 131 0
112 128 0
103 120 0
99 115 0
110 126 0
92 108 0
112 128 0
104 122 0
106 122 0
102 117 0
120 136 0
116 133 0
118 134 0
116 132 0
112 127 0
115 131 0
106 122 0
111 127 0
109 127 0
99 115 0
118 133 0
109 125 0
111 129 0
116 131 0
109 126 0
115 131 0
130 145 0
114 129 0
121 137 0
116 132 0
121 137 0
120 136 0
126 141 0
108 123 0
115 131 0
120 134 0
127 141 0
117 133 0
121 136 0
128 143 0
117 132 0
125 142 0
120 137 0
128 144 0
127 142 0
125 139 0
116 132 0
130 146 0
128 143 0
127 140 0
117 131 0
131 146 0
118 133 0
133 146 0
131 145 0
124 139 0
128 142 0
134 150 0
125 140 0
127 140 0
129 143 0
144 158 0
126 138 0
136 151 0
122 135 0
124 137 0
121 133 0
126 137 0
122 134 0
126 138 0
128 139 0
128 140 0
123 134 0
116 127 0
132 142 0
135 146 0
114 122 0
141 151 0
124 134 0
121 130 0
135 142 0
119 129 0
126 135 0
133 139 0
120 126 0
120 128 0
119 125 0
118 124 0
117 120 0
131 137 0
121 125 0
119 126 0
117 120 0
105 108 0
127 135 0
114 115 0
120 122 0
118 122 0
113 113 0
108 109 0
116 120 0
114 114 0
110 113 0
99 96 0
107 106 0
100 99 0
105 103 0
109 106 0
100 97 0
100 99 0
109 106 0
97 92 0
96 91 0
97 93 0
105 103 0
104 99 0
94 89 0
93 89 0
93 88 0
80 73 0
87 81 0
74 65 0
103 95 0
89 80 0
81 73 0
82 74 0
83 73 0
99 85 11
86 74 11
95 87 0
90 80 0
85 74 0
90 78 0
101 91 0
94 85 0
106 94 11
100 91 11
105 94 0
96 86 16
94 85 11
99 91 11
99 90 0
92 82 16
109 99 11
100 90 11
107 99 16
102 92 11
100 92 11
103 94 0
97 88 22
108 99 19
101 91 16
95 87 11
97 90 0
102 95 0
110 102 19
92 83 16
106 96 19
109 100 28
113 107 19
103 94 19
109 100 22
108 100 22
110 103 22
103 95 19
105 97 22
101 94 19
113 107 32
99 92 28
114 105 30
104 99 16
127 126 25
127 126 22
138 144 19
144 153 11
153 166 0
157 170 0
160 173 0
162 177 0
159 173 0
158 169 0
160 173 0
161 173 0
165 179 0
161 177 0
167 182 0
166 182 0
163 181 0
166 184 0
165 182 0
168 185 0
164 180 0
164 179 0
164 181 0
165 181 0
165 180 0
162 179 0
165 184 0
169 188 0
167 188 0
169 192 0
171 192 0
168 190 0
171 192 0
166 187 0
169 191 0
168 189 0
169 191 0
164 186 0
169 190 0
170 191 0
164 185 0
169 190 0
167 188 0
163 183 0
168 187 0
166 186 0
164 184 0
162 182 0
167 188 0
164 183 0
164 184 0
164 184 0
160 180 0
168 187 0
160 179 0
161 180 0
164 183 0
161 179 0
154 173 0
144 161 0
137 154 0
133 148 0
128 142 0
129 144 0
128 142 0
114 126 0
108 120 0
107 119 0
118 131 0
116 129 0
110 123 0
115 127 0
109 121 0
119 132 0
116 128 0
113 125 0
116 128 0
118 130 0
113 124 0
113 125 0
111 123 0
108 119 0
116 128 0
106 117 0
106 117 0
107 119 0
100 110 0
106 117 0
107 118 0
100 110 0
101 111 0
103 114 0
106 117 0
95 104 0
108 118 0
97 106 0
118 129 0
100 110 0
107 117 0
103 112 0
109 119 0
106 116 0
109 119 0
111 122 0
104 114 0
101 111 0
100 109 0
108 119 0
122 133 0
109 120 0
102 113 0
112 124 0
114 125 0
113 124 0
123 135 0
115 127 0
117 130 0
123 136 0
108 120 0
113 125 0
118 130 0
121 134 0
119 134 0
116 129 0
120 135 0
122 137 0
128 142 0
120 135 0
117 131 0
130 145 0
125 139 0
137 151 0
128 144 0
127 142 0
122 137 0
129 144 0
130 145 0
121 137 0
127 142 0
136 153 0
121 138 0
123 138 0
130 147 0
125 141 0
125 141 0
128 145 0
133 150 0
131 149 0
128 144 0
126 143 0
134 152 0
134 152 0
130 149 0
125 143 0
129 146 0
117 135 0
127 145 0
141 159 0
121 140 0
131 149 0
130 149 0
123 141 0
131 150 0
140 160 0
122 141 0
133 152 0
133 152 0
135 153 0
131 150 0
131 149 0
139 158 0
121 140 0
129 148 0
126 145 0
131 150 0
123 141 0
132 152 0
134 153 0
127 146 0
116 135 0
125 145 0
121 140 0
131 151 0
121 140 0
120 139 0
126 145 0
128 147 0
127 146 0
112 130 0
132 151 0
123 142 0
127 147 0
131 150 0
119 137 0
111 130 0
121 140 0
119 138 0
124 143 0
109 128 0
106 124 0
119 137 0
113 130 0
128 147 0
114 131 0
117 136 0
108 125 0
121 140 0
114 132 0
106 123 0
107 125 0
113 132 0
119 137 0
116 134 0
114 132 0
111 129 0
110 126 0
112 129 0
122 139 0
118 135 0
116 133 0
105 122 0
116 134 0
121 139 0
104 120 0
107 125 0
113 129 0
113 131 0
108 126 0
93 111 0
102 119 0
123 140 0
115 132 0
111 128 0
102 119 0
109 125 0
103 120 0
123 139 0
108 125 0
113 128 0
117 133 0
109 127 0
114 131 0
106 123 0
114 130 0
114 130 0
108 125 0
107 125 0
103 120 0
112 128 0
113 130 0
115 133 0
118 133 0
110 126 0
116 133 0
117 134 0
111 128 0
105 121 0
130 146 0
125 143 0
129 144 0
119 134 0
117 131 0
120 135 0
109 125 0
117 133 0
116 132 0
121 134 0
119 134 0
130 147 0
120 134 0
126 142 0
123 138 0
121 137 0
124 141 0
129 144 0
114 131 0
132 145 0
127 142 0
117 134 0
126 141 0
120 136 0
132 149 0
134 150 0
129 145 0
128 144 0
128 142 0
127 142 0
121 133 0
118 129 0
130 139 0
121 136 0
129 143 0
129 142 0
119 133 0
141 155 0
120 131 0
118 129 0
128 142 0
132 144 0
126 136 0
130 141 0
133 145 0
133 145 0
132 143 0
114 124 0
123 133 0
117 127 0
122 133 0
119 127 0
129 139 0
126 135 0
119 127 0
128 137 0
125 131 0
122 131 0
128 135 0
124 130 0
128 136 0
120 125 0
126 133 0
113 116 0
127 133 0
114 119 0
108 111 0
124 129 0
121 125 0
126 131 0
117 119 0
131 135 0
118 117 0
110 111 0
118 120 0
111 114 0
103 101 0
112 110 0
104 102 0
115 116 0
106 106 0
112 111 0
112 110 0
105 99 0
108 106 0
96 93 0
110 105 0
100 95 0
90 84 0
98 94 0
95 89 0
96 89 0
102 98 0
92 85 0
86 80 0
110 105 0
98 89 0
94 85 0
101 93 0
85 77 0
102 93 0
98 91 0
108 101 0
87 79 0
89 81 0
95 89 0
92 80 11
76 66 0
83 76 11
85 75 11
88 79 11
95 86 16
98 89 11
98 87 16
92 82 11
97 86 11
94 87 19
104 95 11
98 89 0
101 91 22
91 81 19
92 82 19
100 91 19
97 90 11
94 88 16
100 91 0
94 86 22
98 89 19
108 98 22
104 96 30
102 94 19
88 79 16
98 89 22
113 107 16
95 92 11
117 111 22
122 121 25
122 124 11
127 131 22
132 137 0
144 150 16
147 157 0
152 162 0
156 166 0
156 168 0
156 167 0
160 171 0
158 170 0
159 171 0
153 164 0
160 172 0
162 176 0
160 173 0
161 174 0
157 173 0
161 175 0
159 172 0
163 177 0
164 180 0
164 181 0
163 179 0
166 181 0
162 177 0
164 181 0
163 178 0
166 183 0
161 177 0
162 177 0
163 179 0
168 185 0
169 187 0
171 193 0
169 191 0
165 187 0
167 189 0
170 192 0
169 190 0
165 187 0
164 185 0
167 188 0
166 187 0
164 185 0
165 186 0
165 186 0
166 186 0
166 186 0
165 185 0
164 184 0
163 183 0
168 187 0
163 183 0
166 187 0
162 182 0
160 180 0
164 183 0
159 178 0
164 183 0
164 184 0
160 178 0
161 181 0
162 180 0
157 176 0
161 178 0
158 176 0
160 178 0
158 175 0
161 179 0
145 162 0
154 171 0
153 170 0
148 164 0
147 163 0
139 155 0
139 154 0
137 152 0
137 152 0
133 147 0
140 155 0
127 139 0
124 137 0
122 134 0
119 131 0
128 141 0
121 134 0
115 127 0
126 139 0
123 136 0
129 142 0
113 124 0
124 136 0
122 135 0
117 129 0
125 137 0
125 137 0
136 148 0
124 136 0
111 122 0
121 132 0
110 121 0
114 125 0
120 131 0
110 121 0
111 121 0
117 129 0
111 121 0
117 128 0
117 128 0
121 133 0
111 122 0
102 112 0
114 125 0
111 122 0
117 129 0
120 132 0
115 127 0
114 126 0
116 128 0
115 127 0
117 130 0
126 138 0
121 133 0
125 139 0
119 132 0
119 132 0
125 139 0
117 130 0
118 132 0
123 138 0
127 142 0
120 134 0
128 143 0
125 140 0
126 141 0
126 143 0
120 135 0
127 142 0
125 140 0
131 146 0
127 143 0
128 144 0
133 151 0
124 138 0
129 145 0
117 134 0
131 148 0
124 141 0
133 151 0
120 137 0
129 146 0
134 152 0
122 139 0
130 147 0
130 147 0
136 154 0
133 151 0
137 156 0
138 157 0
133 150 0
132 149 0
132 151 0
131 149 0
137 156 0
120 138 0
125 144 0
134 153 0
137 155 0
129 148 0
130 148 0
124 143 0
127 145 0
127 145 0
124 143 0
133 153 0
128 146 0
128 146 0
125 145 0
121 140 0
133 152 0
129 147 0
130 149 0
132 152 0
128 147 0
127 147 0
131 149 0
129 148 0
115 133 0
130 149 0
137 155 0
126 147 0
124 142 0
126 146 0
117 135 0
127 144 0
117 137 0
116 133 0
119 138 0
120 137 0
126 145 0
119 137 0
134 154 0
117 135 0
118 137 0
124 144 0
128 147 0
119 138 0
124 143 0
119 137 0
114 134 0
133 151 0
106 124 0
111 129 0
120 138 0
117 135 0
111 127 0
116 133 0
102 118 0
106 124 0
110 127 0
103 119 0
111 130 0
117 134 0
105 122 0
108 126 0
108 125 0
121 138 0
100 117 0
104 122 0
109 127 0
125 142 0
111 129 0
110 127 0
113 131 0
102 119 0
100 117 0
102 120 0
118 135 0
122 139 0
99 117 0
102 120 0
110 127 0
113 130 0
102 118 0
109 127 0
107 122 0
115 131 0
115 133 0
115 130 0
120 135 0
109 125 0
116 134 0
113 129 0
105 122 0
111 126 0
120 136 0
123 140 0
118 134 0
119 134 0
121 136 0
129 145 0
109 126 0
116 134 0
126 143 0
105 120 0
124 140 0
122 139 0
114 128 0
120 136 0
113 127 0
113 128 0
119 136 0
123 138 0
136 152 0
118 134 0
116 131 0
125 140 0
120 137 0
125 142 0
116 131 0
128 142 0
129 147 0
126 143 0
128 145 0
121 137 0
123 138 0
134 149 0
126 141 0
131 146 0
127 142 0
134 152 0
118 131 0
131 144 0
128 143 0
122 134 0
128 141 0
120 133 0
121 136 0
125 138 0
132 146 0
130 142 0
128 141 0
128 143 0
117 131 0
128 140 0
132 145 0
127 140 0
124 133 0
133 144 0
127 138 0
127 139 0
110 121 0
121 132 0
118 128 0
125 136 0
136 146 0
130 139 0
130 139 0
119 127 0
125 134 0
120 127 0
125 133 0
128 137 0
123 132 0
118 126 0
128 135 0
124 128 0
128 136 0
108 113 0
128 134 0
120 125 0
127 131 0
112 114 0
113 115 0
107 109 0
122 124 0
112 114 0
108 111 0
113 113 0
108 110 0
107 107 0
125 128 0
109 105 0
106 105 0
116 114 0
121 122 0
112 107 0
107 104 0
116 113 0
101 96 0
107 104 0
97 94 0
98 94 0
95 89 0
104 99 0
100 97 0
95 91 0
105 101 0
99 95 0
91 86 0
103 96 0
105 103 0
99 95 0
101 95 0
109 105 0
109 100 0
101 95 0
108 102 0
123 119 0
110 106 0
115 112 0
117 115 0
104 99 0
99 94 0
107 102 0
116 111 11
110 105 11
115 106 16
114 108 11
115 109 11
113 110 0
116 114 11
118 115 11
114 112 0
111 105 11
129 129 19
123 118 0
118 118 11
129 128 16
133 133 16
132 132 11
131 132 0
138 143 0
142 144 11
142 148 11
150 154 0
145 147 0
150 156 0
143 147 0
148 154 0
148 158 0
148 155 0
157 166 0
150 157 0
147 156 0
155 166 0
159 170 0
157 169 0
160 173 0
159 171 0
160 171 0
153 165 0
150 161 0
159 173 0
161 174 0
163 177 0
161 175 0
162 178 0
159 172 0
158 171 0
160 172 0
162 176 0
159 172 0
162 177 0
162 177 0
161 178 0
166 184 0
162 178 0
161 177 0
167 183 0
166 182 0
170 188 0
167 184 0
167 189 0
169 191 0
167 189 0
165 187 0
164 185 0
166 187 0
166 187 0
168 189 0
166 186 0
165 186 0
167 188 0
167 188 0
164 184 0
164 184 0
163 183 0
161 182 0
163 183 0
163 183 0
166 186 0
160 180 0
164 184 0
162 182 0
162 182 0
164 183 0
162 182 0
161 180 0
162 181 0
162 180 0
161 179 0
156 174 0
158 177 0
156 174 0
158 176 0
156 174 0
157 174 0
153 171 0
156 173 0
152 168 0
154 169 0
155 173 0
151 168 0
152 168 0
150 165 0
143 159 0
145 161 0
146 161 0
144 159 0
142 156 0
145 161 0
144 158 0
140 155 0
143 157 0
133 147 0
137 150 0
130 143 0
137 151 0
133 146 0
138 152 0
129 142 0
125 137 0
122 134 0
120 133 0
123 135 0
121 133 0
130 142 0
126 139 0
118 129 0
120 131 0
115 127 0
119 130 0
115 126 0
122 134 0
116 128 0
119 131 0
125 137 0
119 131 0
127 139 0
118 130 0
115 128 0
120 132 0
122 134 0
124 136 0
115 127 0
115 128 0
121 134 0
118 130 0
132 145 0
120 133 0
119 132 0
124 137 0
123 137 0
118 132 0
126 140 0
125 139 0
125 139 0
126 140 0
126 140 0
130 146 0
129 144 0
124 140 0
123 137 0
129 145 0
135 151 0
127 142 0
134 150 0
134 151 0
128 144 0
132 147 0
130 147 0
125 141 0
134 151 0
127 143 0
123 140 0
137 154 0
116 133 0
126 143 0
133 151 0
132 149 0
124 141 0
119 137 0
133 149 0
127 145 0
135 153 0
135 154 0
132 150 0
132 150 0
137 155 0
141 160 0
129 148 0
134 154 0
134 153 0
126 145 0
136 155 0
124 143 0
136 154 0
135 153 0
133 152 0
117 133 0
123 142 0
127 146 0
132 151 0
136 155 0
139 159 0
126 145 0
132 152 0
122 141 0
134 153 0
134 154 0
137 156 0
133 153 0
131 150 0
132 152 0
130 149 0
138 158 0
126 145 0
127 146 0
135 154 0
116 134 0
124 142 0
125 144 0
136 156 0
132 151 0
122 142 0
123 143 0
128 147 0
123 144 0
113 130 0
124 144 0
130 149 0
121 139 0
110 127 0
107 124 0
108 127 0
124 143 0
114 133 0
126 145 0
114 134 0
105 123 0
125 145 0
122 141 0
102 120 0
121 140 0
115 134 0
114 133 0
112 130 0
117 135 0
119 138 0
117 135 0
129 147 0
114 132 0
116 134 0
114 133 0
119 138 0
116 134 0
110 129 0
120 139 0
115 132 0
116 133 0
120 139 0
120 139 0
107 125 0
116 131 0
103 120 0
106 123 0
122 138 0
113 130 0
107 125 0
117 134 0
117 133 0
109 126 0
115 132 0
113 131 0
108 123 0
119 135 0
118 135 0
120 138 0
120 137 0
112 130 0
117 134 0
125 141 0
119 136 0
115 131 0
110 127 0
124 139 0
120 136 0
118 135 0
119 134 0
111 128 0
114 129 0
112 128 0
115 132 0
127 144 0
121 138 0
129 147 0
116 134 0
125 140 0
115 131 0
114 130 0
122 140 0
125 143 0
118 132 0
122 139 0
122 138 0
120 136 0
127 144 0
123 138 0
126 143 0
122 137 0
129 144 0
129 145 0
131 146 0
136 151 0
124 139 0
130 145 0
129 144 0
123 139 0
133 147 0
129 142 0
126 141 0
131 146 0
117 130 0
130 144 0
126 141 0
131 145 0
129 144 0
135 150 0
123 133 0
134 147 0
123 135 0
126 140 0
127 140 0
117 129 0
135 148 0
121 134 0
125 134 0
125 136 0
131 144 0
130 142 0
138 149 0
106 117 0
128 140 0
125 137 0
125 132 0
132 142 0
126 137 0
130 140 0
123 132 0
131 142 0
116 124 0
121 126 0
121 130 0
124 133 0
122 128 0
125 133 0
127 132 0
130 136 0
118 121 0
128 134 0
118 124 0
133 139 0
122 126 0
116 118 0
123 126 0
110 112 0
125 125 0
110 110 0
124 127 0
115 119 0
120 117 0
116 118 0
111 111 0
107 104 0
114 113 0
116 116 0
113 114 0
120 117 0
114 111 0
114 109 0
119 114 0
106 103 0
113 107 0
111 109 0
105 98 0
105 100 0
121 120 0
100 95 0
113 109 0
112 109 0
114 110 0
107 102 0
104 98 0
117 111 0
109 105 0
109 106 0
109 107 0
107 100 0
103 99 0
114 110 0
105 101 0
112 109 0
117 114 0
118 116 0
123 120 0
114 110 0
121 121 0
114 112 0
139 139 0
118 118 0
135 132 0
126 122 0
137 141 0
132 129 0
136 139 0
143 145 0
130 131 0
142 145 0
135 137 0
141 143 0
140 143 0
147 150 0
141 144 0
142 147 0
145 149 0
148 154 0
148 155 0
140 142 0
143 147 0
146 152 0
144 150 0
150 159 0
145 151 0
153 161 0
157 166 0
153 163 0
151 160 0
150 158 0
151 161 0
157 169 0
154 163 0
157 167 0
156 166 0
154 167 0
160 171 0
157 169 0
159 173 0
162 176 0
161 174 0
161 175 0
163 177 0
164 180 0
160 174 0
157 169 0
163 181 0
161 177 0
164 180 0
163 178 0
163 179 0
163 180 0
162 177 0
164 181 0
167 188 0
169 191 0
167 188 0
165 186 0
166 187 0
168 189 0
169 190 0
163 184 0
164 184 0
164 184 0
166 186 0
166 186 0
163 184 0
165 185 0
167 186 0
167 187 0
163 183 0
163 183 0
161 181 0
161 180 0
162 181 0
161 180 0
160 179 0
161 180 0
166 185 0
158 176 0
161 180 0
157 176 0
156 174 0
160 177 0
157 174 0
160 177 0
157 174 0
156 173 0
150 168 0
149 165 0
154 172 0
152 168 0
149 166 0
150 166 0
151 167 0
146 162 0
147 163 0
149 164 0
149 165 0
144 159 0
147 162 0
145 160 0
142 157 0
141 155 0
140 155 0
144 158 0
135 149 0
135 147 0
134 148 0
127 140 0
136 150 0
135 148 0
128 140 0
130 143 0
128 140 0
128 141 0
127 140 0
132 144 0
127 139 0
118 131 0
119 132 0
128 140 0
121 133 0
116 128 0
120 132 0
118 130 0
122 134 0
118 129 0
124 136 0
124 136 0
119 131 0
133 146 0
124 136 0
118 130 0
128 142 0
119 131 0
121 133 0
126 140 0
126 140 0
123 137 0
132 146 0
118 131 0
133 149 0
132 146 0
128 141 0
129 144 0
129 144 0
137 153 0
132 148 0
130 146 0
132 148 0
130 145 0
130 145 0
130 145 0
128 144 0
133 149 0
128 144 0
123 139 0
139 157 0
132 149 0
127 143 0
135 152 0
125 142 0
118 135 0
132 149 0
126 143 0
129 146 0
135 153 0
141 159 0
130 148 0
135 153 0
129 146 0
139 158 0
120 138 0
140 158 0
138 156 0
140 158 0
133 152 0
131 148 0
138 158 0
128 147 0
145 165 0
124 141 0
121 140 0
136 156 0
134 153 0
133 151 0
131 151 0
130 148 0
131 151 0
132 151 0
129 149 0
136 155 0
128 147 0
129 148 0
134 154 0
137 157 0
131 150 0
126 145 0
135 155 0
127 146 0
121 140 0
134 153 0
126 146 0
125 144 0
140 159 0
125 145 0
135 155 0
128 147 0
130 150 0
116 134 0
124 143 0
123 141 0
127 146 0
128 147 0
125 144 0
124 143 0
121 140 0
126 145 0
124 142 0
121 140 0
129 147 0
121 140 0
117 135 0
132 152 0
125 143 0
122 141 0
124 145 0
121 140 0
124 142 0
120 138 0
118 136 0
123 140 0
119 137 0
119 138 0
113 131 0
116 133 0
126 145 0
116 135 0
118 137 0
118 136 0
114 131 0
121 139 0
118 136 0
118 136 0
116 134 0
115 133 0
114 132 0
111 127 0
120 137 0
119 138 0
114 132 0
121 139 0
129 147 0
120 139 0
113 131 0
100 120 0
121 139 0
112 130 0
125 142 0
125 143 0
108 123 0
113 130 0
123 139 0
115 132 0
115 133 0
110 127 0
114 129 0
123 140 0
115 132 0
120 137 0
124 141 0
120 138 0
118 136 0
127 145 0
115 132 0
120 137 0
97 113 0
118 133 0
124 141 0
125 143 0
116 132 0
129 146 0
116 133 0
124 141 0
116 133 0
126 143 0
131 148 0
128 143 0
124 140 0
129 145 0
135 154 0
111 125 0
126 142 0
131 148 0
119 136 0
130 148 0
122 139 0
127 143 0
129 146 0
130 145 0
127 141 0
123 137 0
124 141 0
130 146 0
132 147 0
123 138 0
121 135 0
138 153 0
131 146 0
125 142 0
136 152 0
135 150 0
128 141 0
125 139 0
130 144 0
125 138 0
127 142 0
136 149 0
135 151 0
135 149 0
136 150 0
130 143 0
141 154 0
127 141 0
125 139 0
137 149 0
127 139 0
137 149 0
124 136 0
133 145 0
126 140 0
125 139 0
130 141 0
135 147 0
119 130 0
137 150 0
125 132 0
119 129 0
128 136 0
122 132 0
118 128 0
132 142 0
120 129 0
132 140 0
124 135 0
122 131 0
121 127 0
127 132 0
128 137 0
130 136 0
133 138 0
122 129 0
123 128 0
112 118 0
119 121 0
129 135 0
114 117 0
113 116 0
123 126 0
118 124 0
118 122 0
123 126 0
123 125 0
124 126 0
110 113 0
117 118 0
113 114 0
112 113 0
118 118 0
123 127 0
122 122 0
118 116 0
118 118 0
115 111 0
107 104 0
114 113 0
118 114 0
113 111 0
123 121 0
119 120 0
113 109 0
111 111 0
112 110 0
115 112 0
113 110 0
115 113 0
120 115 0
121 117 0
110 107 0
118 116 0
124 122 0
112 109 0
128 125 0
128 125 0
115 115 0
122 121 0
111 108 0
126 125 0
129 128 0
120 118 0
120 121 0
132 134 0
132 134 0
122 124 0
122 119 0
131 132 0
143 146 0
134 138 0
148 149 0
134 134 0
128 130 0
140 145 0
138 142 0
146 150 0
142 148 0
144 149 0
153 159 0
149 154 0
143 148 0
144 152 0
148 155 0
150 156 0
155 163 0
154 160 0
154 160 0
157 168 0
159 167 0
152 161 0
146 153 0
156 165 0
149 158 0
155 166 0
161 174 0
152 162 0
153 165 0
157 169 0
160 172 0
158 170 0
159 171 0
159 172 0
161 176 0
161 176 0
158 171 0
163 176 0
161 175 0
158 172 0
164 180 0
164 180 0
161 177 0
163 178 0
166 181 0
165 182 0
162 179 0
169 189 0
167 188 0
166 187 0
164 184 0
167 188 0
159 180 0
163 183 0
168 189 0
162 183 0
163 183 0
165 185 0
165 185 0
163 184 0
164 183 0
166 186 0
162 181 0
163 183 0
160 179 0
162 181 0
163 182 0
164 184 0
164 184 0
163 182 0
160 179 0
158 177 0
162 181 0
163 182 0
161 180 0
161 178 0
153 170 0
153 170 0
154 171 0
149 167 0
154 172 0
154 171 0
154 171 0
152 169 0
154 171 0
145 161 0
148 164 0
148 165 0
155 171 0
146 161 0
144 159 0
144 159 0
141 156 0
148 164 0
143 159 0
139 153 0
135 149 0
133 146 0
139 153 0
139 153 0
129 141 0
133 146 0
141 155 0
129 142 0
130 143 0
127 140 0
135 147 0
130 143 0
124 135 0
126 139 0
129 142 0
126 138 0
122 134 0
125 137 0
126 138 0
130 143 0
128 141 0
132 145 0
127 139 0
128 140 0
126 139 0
120 132 0
126 139 0
127 141 0
121 133 0
125 138 0
132 146 0
130 144 0
121 134 0
118 131 0
115 129 0
128 143 0
136 151 0
123 137 0
131 145 0
120 134 0
134 148 0
127 142 0
129 144 0
128 143 0
142 158 0
130 147 0
130 144 0
132 148 0
139 155 0
135 151 0
125 140 0
137 153 0
128 145 0
135 152 0
129 146 0
139 155 0
129 146 0
138 154 0
135 152 0
144 162 0
132 149 0
128 145 0
136 153 0
138 157 0
132 149 0
137 156 0
139 157 0
149 168 0
138 156 0
140 158 0
143 162 0
141 160 0
140 159 0
131 150 0
135 154 0
139 157 0
130 149 0
128 146 0
134 153 0
134 154 0
134 152 0
135 154 0
135 153 0
127 145 0
141 160 0
136 156 0
135 155 0
132 151 0
142 160 0
138 157 0
133 153 0
129 148 0
130 150 0
136 156 0
128 146 0
138 158 0
133 152 0
131 150 0
130 151 0
129 148 0
125 143 0
136 157 0
136 156 0
135 155 0
128 147 0
121 141 0
127 146 0
131 150 0
131 150 0
135 154 0
129 148 0
137 157 0
148 169 0
129 148 0
126 146 0
127 147 0
134 153 0
143 162 0
135 153 0
125 143 0
128 146 0
122 141 0
125 144 0
125 146 0
119 137 0
120 139 0
123 141 0
125 144 0
128 147 0
118 137 0
120 139 0
127 147 0
114 132 0
122 141 0
121 141 0
117 135 0
112 131 0
122 140 0
124 142 0
109 127 0
117 136 0
124 142 0
119 138 0
125 144 0
118 136 0
127 146 0
113 132 0
121 141 0
116 135 0
123 141 0
114 131 0
114 131 0
122 140 0
110 128 0
118 135 0
119 136 0
124 140 0
117 135 0
121 138 0
131 149 0
115 130 0
117 135 0
118 135 0
133 150 0
111 128 0
129 147 0
121 139 0
114 132 0
117 134 0
119 136 0
127 144 0
121 138 0
131 149 0
116 133 0
119 135 0
122 139 0
121 139 0
127 145 0
120 137 0
115 133 0
129 147 0
115 132 0
118 136 0
131 148 0
126 144 0
129 145 0
124 143 0
128 144 0
123 141 0
126 144 0
124 141 0
128 144 0
125 143 0
129 147 0
129 145 0
128 144 0
132 149 0
132 148 0
121 134 0
128 143 0
131 149 0
129 145 0
130 145 0
113 127 0
127 143 0
133 149 0
140 155 0
130 146 0
136 152 0
138 154 0
129 144 0
126 140 0
136 152 0
126 142 0
127 142 0
120 134 0
131 147 0
146 160 0
120 132 0
116 130 0
131 147 0
125 139 0
126 139 0
136 149 0
133 146 0
134 148 0
132 145 0
132 144 0
126 136 0
137 150 0
129 139 0
136 148 0
134 145 0
122 132 0
141 154 0
136 148 0
137 150 0
123 133 0
133 144 0
126 137 0
130 140 0
122 130 0
130 136 0
132 142 0
129 136 0
127 135 0
125 133 0
128 135 0
133 138 0
126 134 0
117 123 0
131 141 0
127 134 0
116 120 0
124 130 0
128 135 0
121 124 0
125 127 0
118 120 0
121 124 0
125 131 0
116 116 0
118 122 0
122 128 0
124 129 0
123 127 0
121 123 0
127 128 0
123 124 0
123 123 0
105 104 0
104 103 0
121 120 0
114 114 0
123 121 0
117 116 0
117 117 0
112 108 0
120 119 0
116 112 0
117 115 0
116 115 0
112 106 0
117 116 0
108 106 0
106 101 0
114 111 0
119 115 0
119 115 0
123 120 0
117 117 0
114 109 0
125 121 0
121 118 0
121 117 0
121 119 0
123 121 0
128 127 0
129 127 0
124 122 0
123 121 0
118 116 0
129 124 0
125 122 0
132 132 0
134 132 0
135 135 0
137 141 0
138 138 0
138 138 0
142 147 0
145 149 0
147 153 0
141 147 0
145 149 0
143 145 0
144 149 0
147 153 0
153 160 0
145 151 0
151 162 0
145 154 0
148 155 0
144 150 0
151 156 0
158 165 0
155 167 0
161 173 0
150 160 0
154 166 0
158 165 0
153 159 0
157 167 0
151 162 0
155 168 0
155 165 0
150 162 0
157 167 0
157 171 0
156 168 0
158 170 0
160 175 0
165 181 0
162 177 0
159 173 0
163 177 0
162 177 0
164 177 0
158 171 0
161 173 0
163 178 0
164 184 0
166 188 0
165 185 0
166 186 0
163 184 0
164 184 0
166 187 0
164 184 0
166 187 0
167 187 0
165 186 0
165 184 0
165 185 0
162 181 0
164 184 0
161 179 0
157 175 0
159 178 0
160 178 0
163 182 0
154 172 0
159 177 0
159 178 0
157 175 0
162 181 0
159 178 0
158 176 0
157 174 0
157 174 0
157 173 0
160 177 0
152 169 0
156 174 0
156 172 0
153 170 0
151 168 0
149 165 0
145 161 0
148 163 0
151 167 0
147 163 0
145 160 0
145 160 0
146 162 0
144 159 0
144 158 0
145 159 0
139 154 0
138 152 0
142 157 0
132 146 0
137 151 0
137 151 0
135 149 0
137 151 0
131 144 0
141 155 0
137 150 0
133 146 0
136 150 0
127 140 0
123 136 0
127 139 0
135 149 0
130 144 0
130 143 0
130 143 0
131 144 0
126 139 0
130 144 0
129 143 0
127 140 0
132 146 0
127 141 0
135 149 0
129 143 0
139 154 0
122 136 0
131 145 0
134 148 0
129 144 0
131 145 0
125 139 0
121 135 0
141 157 0
133 148 0
134 149 0
136 152 0
134 149 0
136 153 0
127 143 0
130 145 0
130 146 0
143 158 0
135 151 0
131 148 0
134 150 0
123 140 0
133 149 0
136 153 0
142 159 0
134 150 0
137 154 0
124 140 0
127 144 0
134 151 0
129 146 0
131 149 0
130 146 0
134 151 0
137 155 0
135 152 0
144 162 0
134 152 0
128 146 0
135 153 0
136 154 0
138 157 0
135 154 0
141 160 0
136 155 0
133 151 0
139 158 0
133 151 0
129 148 0
123 141 0
130 151 0
129 147 0
140 159 0
144 164 0
132 150 0
127 146 0
140 159 0
138 158 0
134 153 0
138 159 0
138 157 0
136 156 0
131 151 0
134 154 0
138 158 0
128 148 0
143 164 0
134 153 0
134 154 0
128 148 0
134 154 0
131 150 0
135 153 0
130 150 0
136 156 0
131 151 0
129 149 0
134 154 0
135 154 0
137 156 0
139 160 0
136 156 0
147 167 0
134 154 0
136 155 0
130 149 0
133 153 0
129 148 0
130 149 0
131 151 0
126 146 0
134 153 0
131 150 0
122 141 0
130 149 0
131 152 0
132 151 0
115 133 0
129 148 0
126 146 0
126 146 0
119 137 0
118 137 0
120 139 0
140 159 0
124 143 0
119 139 0
122 143 0
131 150 0
117 137 0
117 136 0
123 142 0
128 146 0
114 132 0
114 132 0
130 148 0
123 142 0
122 139 0
121 138 0
115 134 0
109 127 0
133 153 0
125 144 0
121 140 0
119 138 0
124 140 0
121 140 0
122 141 0
121 139 0
118 135 0
121 140 0
121 139 0
120 140 0
124 142 0
125 144 0
115 132 0
123 141 0
116 134 0
123 141 0
124 141 0
117 136 0
115 132 0
126 145 0
105 123 0
127 144 0
120 138 0
119 136 0
124 142 0
120 136 0
123 140 0
130 148 0
126 142 0
114 130 0
119 135 0
120 137 0
127 144 0
124 141 0
117 134 0
132 151 0
116 133 0
121 137 0
127 144 0
125 141 0
132 151 0
130 146 0
119 138 0
133 150 0
123 139 0
132 149 0
131 148 0
132 149 0
133 152 0
131 148 0
123 139 0
133 151 0
143 159 0
137 152 0
138 152 0
138 154 0
131 146 0
130 146 0
131 147 0
126 142 0
137 152 0
128 145 0
135 150 0
134 150 0
131 146 0
139 154 0
130 141 0
135 151 0
130 146 0
119 134 0
132 148 0
139 154 0
135 148 0
123 136 0
132 146 0
136 148 0
130 143 0
133 145 0
122 134 0
140 154 0
127 136 0
135 149 0
127 139 0
136 148 0
143 153 0
136 148 0
124 135 0
124 133 0
134 145 0
124 135 0
130 140 0
123 134 0
125 134 0
130 141 0
128 137 0
133 139 0
121 130 0
127 136 0
117 126 0
133 143 0
123 132 0
129 138 0
130 137 0
132 139 0
118 122 0
126 134 0
117 121 0
115 119 0
120 125 0
126 133 0
120 125 0
125 129 0
129 137 0
113 114 0
124 129 0
120 121 0
127 132 0
115 117 0
127 127 0
125 126 0
123 125 0
117 116 0
119 117 0
116 116 0
119 119 0
125 122 0
120 121 0
120 121 0
121 119 0
118 116 0
120 119 0
123 123 0
113 110 0
117 116 0
113 112 0
114 111 0
113 110 0
127 127 0
122 119 0
123 120 0
126 126 0
120 119 0
121 121 0
134 132 0
127 128 0
130 129 0
120 118 0
126 125 0
125 125 0
122 121 0
132 132 0
128 128 0
130 129 0
140 144 0
133 134 0
135 135 0
131 131 0
134 133 0
134 134 0
131 130 0
135 136 0
141 143 0
137 140 0
146 150 0
134 136 0
143 145 0
148 153 0
146 152 0
150 157 0
147 152 0
147 152 0
143 150 0
148 155 0
151 160 0
151 157 0
152 158 0
147 151 0
147 155 0
149 159 0
162 173 0
160 170 0
148 157 0
157 168 0
151 161 0
154 166 0
161 172 0
156 167 0
162 175 0
160 172 0
155 166 0
162 175 0
161 173 0
154 164 0
160 174 0
161 174 0
160 175 0
165 179 0
161 176 0
161 178 0
163 176 0
164 182 0
165 185 0
168 189 0
171 192 0
165 186 0
165 185 0
164 184 0
164 184 0
162 182 0
165 184 0
166 185 0
164 184 0
164 183 0
163 182 0
161 180 0
163 182 0
162 182 0
162 181 0
161 180 0
159 179 0
160 178 0
162 181 0
165 184 0
160 179 0
158 176 0
158 176 0
157 175 0
151 169 0
158 176 0
157 175 0
157 175 0
153 171 0
149 166 0
155 173 0
154 171 0
153 170 0
154 170 0
150 167 0
150 166 0
148 164 0
143 158 0
145 161 0
140 156 0
148 164 0
141 156 0
142 157 0
144 159 0
140 154 0
139 153 0
135 149 0
140 154 0
142 157 0
139 154 0
128 141 0
130 145 0
135 149 0
142 157 0
134 147 0
137 151 0
131 145 0
134 148 0
134 147 0
132 145 0
127 140 0
131 145 0
136 150 0
135 149 0
128 141 0
128 141 0
132 145 0
128 142 0
126 140 0
135 150 0
125 139 0
132 146 0
136 150 0
124 138 0
139 154 0
136 150 0
136 151 0
136 152 0
136 150 0
140 154 0
134 150 0
134 149 0
131 145 0
131 146 0
130 144 0
134 149 0
138 153 0
129 144 0
134 149 0
142 159 0
134 150 0
132 147 0
136 152 0
131 148 0
141 157 0
139 156 0
144 161 0
136 154 0
134 152 0
135 153 0
131 148 0
139 156 0
133 150 0
129 147 0
138 156 0
132 150 0
138 155 0
140 160 0
125 143 0
133 150 0
136 152 0
131 148 0
140 159 0
137 155 0
139 158 0
138 156 0
133 151 0
132 151 0
138 157 0
139 157 0
130 148 0
135 155 0
139 158 0
128 148 0
139 157 0
142 162 0
133 153 0
131 151 0
136 156 0
136 156 0
134 155 0
135 154 0
136 155 0
145 164 0
137 157 0
134 153 0
144 164 0
143 163 0
136 155 0
134 153 0
140 159 0
130 150 0
128 148 0
136 157 0
129 149 0
130 150 0
129 149 0
129 149 0
136 157 0
134 155 0
134 154 0
123 143 0
119 139 0
136 155 0
128 147 0
122 141 0
135 154 0
138 159 0
131 151 0
137 157 0
140 160 0
128 148 0
124 144 0
125 144 0
144 164 0
124 143 0
127 148 0
136 155 0
126 144 0
128 148 0
132 151 0
120 139 0
125 143 0
130 149 0
130 150 0
129 148 0
136 156 0
123 141 0
124 143 0
118 138 0
120 138 0
127 148 0
118 138 0
122 141 0
124 143 0
125 145 0
131 150 0
116 134 0
130 148 0
124 144 0
134 154 0
131 151 0
127 147 0
114 133 0
120 139 0
121 140 0
125 144 0
125 144 0
131 149 0
129 149 0
129 148 0
124 142 0
106 124 0
124 142 0
134 153 0
121 139 0
128 147 0
130 149 0
127 145 0
117 135 0
128 145 0
118 135 0
122 138 0
129 147 0
133 151 0
125 143 0
132 148 0
123 141 0
132 151 0
128 147 0
118 136 0
117 137 0
128 145 0
124 142 0
124 141 0
115 133 0
131 148 0
125 144 0
139 156 0
133 151 0
125 142 0
128 144 0
131 150 0
126 143 0
129 147 0
131 149 0
134 152 0
132 150 0
125 141 0
120 138 0
126 142 0
131 149 0
118 133 0
129 148 0
135 154 0
136 153 0
129 146 0
128 144 0
137 153 0
137 151 0
135 152 0
135 153 0
140 158 0
134 150 0
129 144 0
142 160 0
133 151 0
139 154 0
129 145 0
133 148 0
126 141 0
125 139 0
134 149 0
132 148 0
136 148 0
134 148 0
133 146 0
123 138 0
133 147 0
139 154 0
136 150 0
131 141 0
139 153 0
142 155 0
125 139 0
125 139 0
124 135 0
132 147 0
130 144 0
138 152 0
134 144 0
136 147 0
122 134 0
136 147 0
125 136 0
127 140 0
130 143 0
138 151 0
140 149 0
126 137 0
135 147 0
129 138 0
127 138 0
128 136 0
124 131 0
130 138 0
125 131 0
127 132 0
129 136 0
128 135 0
124 132 0
131 139 0
134 140 0
129 137 0
136 143 0
128 133 0
121 128 0
124 132 0
123 130 0
129 135 0
118 120 0
131 135 0
124 127 0
120 123 0
125 129 0
120 122 0
127 130 0
118 119 0
123 126 0
126 128 0
137 137 0
119 116 0
124 123 0
132 134 0
126 128 0
125 124 0
118 115 0
123 123 0
122 122 0
124 125 0
124 123 0
124 124 0
129 131 0
123 124 0
128 127 0
123 120 0
124 122 0
128 130 0
112 108 0
123 123 0
118 115 0
129 130 0
124 126 0
119 119 0
127 124 0
131 130 0
136 138 0
138 138 0
142 144 0
124 121 0
132 133 0
131 129 0
131 130 0
133 132 0
139 142 0
139 139 0
135 138 0
141 144 0
140 142 0
136 140 0
135 138 0
139 142 0
132 131 0
136 138 0
142 148 0
151 156 0
151 157 0
143 146 0
156 163 0
148 154 0
153 160 0
147 154 0
146 154 0
148 157 0
154 163 0
152 161 0
152 160 0
152 159 0
154 161 0
154 163 0
159 170 0
153 163 0
159 170 0
154 165 0
159 170 0
155 167 0
153 164 0
155 167 0
164 178 0
162 175 0
158 170 0
160 173 0
159 170 0
161 174 0
161 172 0
160 175 0
160 175 0
164 179 0
168 189 0
166 187 0
165 184 0
162 182 0
166 185 0
163 183 0
162 181 0
165 186 0
163 183 0
163 182 0
168 187 0
164 184 0
162 181 0
161 180 0
160 178 0
158 177 0
163 182 0
164 183 0
156 174 0
157 175 0
155 174 0
161 179 0
157 175 0
157 175 0
153 170 0
158 176 0
154 171 0
151 168 0
150 166 0
156 173 0
151 168 0
153 169 0
150 167 0
155 172 0
156 174 0
149 166 0
148 163 0
141 156 0
150 166 0
152 167 0
142 158 0
138 153 0
145 160 0
140 155 0
142 157 0
143 158 0
138 153 0
149 165 0
138 153 0
142 157 0
142 157 0
137 151 0
138 152 0
132 146 0
139 154 0
142 157 0
135 150 0
128 142 0
143 157 0
136 150 0
135 149 0
143 158 0
135 149 0
135 149 0
128 143 0
137 151 0
134 148 0
140 155 0
126 141 0
138 152 0
138 153 0
141 154 0
132 146 0
137 152 0
129 144 0
134 148 0
136 151 0
131 146 0
138 154 0
136 151 0
138 153 0
144 161 0
129 144 0
141 158 0
139 155 0
137 153 0
136 151 0
140 156 0
137 153 0
136 151 0
140 157 0
132 148 0
132 148 0
132 148 0
134 150 0
135 152 0
137 154 0
128 145 0
131 148 0
138 154 0
136 153 0
131 149 0
133 151 0
143 160 0
136 153 0
136 154 0
139 157 0
132 150 0
143 160 0
140 158 0
137 155 0
136 155 0
134 151 0
125 143 0
143 162 0
129 148 0
135 155 0
131 149 0
129 147 0
140 159 0
139 157 0
132 151 0
146 166 0
137 155 0
137 155 0
131 150 0
136 155 0
134 154 0
142 161 0
130 151 0
130 148 0
137 156 0
130 150 0
145 165 0
138 158 0
141 161 0
138 158 0
141 161 0
139 158 0
133 153 0
128 148 0
133 153 0
130 149 0
137 156 0
135 155 0
138 159 0
140 160 0
134 154 0
133 153 0
136 155 0
134 153 0
134 154 0
134 153 0
125 146 0
135 156 0
134 152 0
136 155 0
121 140 0
127 146 0
133 152 0
133 153 0
134 154 0
127 148 0
134 155 0
127 147 0
130 151 0
132 152 0
127 146 0
126 145 0
141 161 0
130 148 0
123 142 0
129 148 0
128 147 0
128 148 0
129 147 0
135 156 0
122 143 0
125 145 0
120 139 0
111 130 0
128 148 0
123 142 0
129 148 0
124 145 0
120 138 0
131 152 0
111 130 0
121 139 0
134 154 0
128 146 0
119 138 0
123 141 0
128 146 0
125 142 0
121 140 0
125 145 0
124 142 0
125 144 0
120 139 0
126 146 0
119 138 0
124 143 0
120 138 0
129 148 0
127 146 0
120 139 0
130 148 0
123 142 0
133 152 0
116 135 0
128 145 0
139 158 0
127 146 0
127 146 0
133 151 0
122 141 0
128 146 0
137 156 0
134 150 0
121 137 0
130 149 0
115 133 0
120 136 0
127 147 0
124 141 0
128 146 0
121 137 0
131 148 0
128 145 0
127 143 0
125 143 0
130 147 0
120 137 0
129 147 0
122 139 0
124 140 0
128 146 0
131 150 0
134 151 0
127 145 0
127 144 0
136 153 0
134 151 0
129 147 0
117 135 0
140 157 0
117 131 0
131 147 0
143 161 0
142 159 0
134 150 0
124 140 0
128 146 0
138 154 0
130 146 0
140 155 0
135 151 0
132 148 0
134 150 0
125 139 0
129 145 0
124 140 0
130 146 0
136 153 0
124 137 0
135 151 0
139 156 0
127 140 0
130 146 0
132 146 0
133 148 0
140 157 0
125 139 0
143 158 0
134 149 0
132 147 0
134 147 0
137 150 0
141 154 0
135 148 0
135 150 0
131 142 0
132 146 0
129 141 0
134 144 0
138 147 0
143 156 0
132 144 0
133 143 0
134 145 0
135 144 0
138 150 0
137 146 0
131 139 0
138 147 0
128 138 0
134 142 0
131 139 0
130 140 0
131 138 0
123 133 0
132 142 0
133 142 0
134 142 0
121 129 0
124 129 0
124 128 0
130 135 0
126 134 0
119 127 0
126 131 0
132 137 0
129 134 0
121 123 0
127 131 0
135 138 0
127 128 0
121 125 0
131 136 0
117 119 0
132 135 0
119 119 0
135 139 0
117 118 0
130 131 0
135 135 0
128 129 0
118 118 0
124 127 0
135 139 0
125 124 0
121 121 0
124 123 0
127 126 0
122 121 0
117 116 0
121 120 0
113 111 0
130 130 0
131 131 0
130 130 0
135 137 0
128 129 0
117 113 0
117 113 0
128 126 0
124 123 0
130 128 0
128 129 0
132 130 0
127 124 0
122 121 0
136 138 0
137 137 0
133 135 0
140 143 0
134 134 0
137 141 0
141 142 0
143 147 0
138 139 0
140 143 0
144 150 0
143 146 0
147 151 0
143 150 0
142 146 0
151 157 0
153 160 0
145 150 0
151 155 0
136 140 0
148 152 0
147 152 0
144 152 0
153 160 0
152 162 0
149 156 0
147 154 0
155 165 0
150 156 0
152 161 0
151 159 0
156 167 0
154 166 0
159 170 0
154 165 0
158 169 0
161 175 0
160 171 0
160 173 0
158 171 0
153 161 0
158 171 0
165 177 0
164 179 0
162 175 0
162 177 0
159 172 0
165 186 0
165 185 0
162 182 0
164 184 0
167 187 0
166 187 0
165 186 0
167 187 0
160 180 0
163 182 0
160 179 0
162 182 0
163 180 0
161 180 0
159 177 0
163 181 0
159 177 0
157 176 0
157 175 0
165 184 0
161 179 0
162 181 0
153 171 0
154 172 0
158 175 0
154 172 0
155 173 0
154 171 0
152 170 0
153 170 0
155 173 0
153 170 0
155 173 0
154 171 0
146 161 0
151 167 0
154 170 0
148 164 0
149 165 0
148 164 0
150 166 0
147 163 0
151 166 0
142 157 0
149 165 0
143 158 0
143 158 0
147 162 0
140 155 0
140 154 0
138 152 0
145 160 0
142 157 0
138 154 0
138 153 0
140 156 0
142 157 0
133 146 0
146 161 0
135 149 0
142 158 0
138 152 0
136 151 0
131 145 0
136 151 0
132 146 0
143 158 0
145 160 0
136 150 0
146 162 0
132 146 0
138 153 0
133 148 0
136 152 0
134 148 0
139 155 0
138 154 0
143 159 0
135 151 0
137 154 0
136 151 0
136 152 0
138 153 0
144 162 0
141 158 0
136 154 0
137 153 0
140 156 0
136 152 0
139 157 0
140 157 0
145 163 0
140 156 0
130 147 0
141 158 0
137 154 0
141 158 0
134 151 0
134 151 0
136 152 0
135 153 0
141 159 0
140 157 0
132 151 0
147 166 0
141 158 0
132 150 0
136 154 0
144 162 0
141 158 0
131 150 0
142 161 0
140 159 0
141 160 0
142 161 0
139 158 0
141 158 0
137 155 0
142 162 0
145 164 0
129 149 0
140 158 0
141 160 0
135 154 0
133 152 0
143 163 0
143 163 0
145 164 0
133 153 0
149 170 0
140 160 0
142 161 0
141 161 0
145 166 0
141 162 0
133 154 0
142 162 0
137 157 0
134 153 0
138 158 0
139 160 0
145 166 0
131 150 0
138 159 0
135 155 0
134 154 0
135 155 0
129 148 0
131 151 0
133 152 0
140 160 0
143 163 0
130 150 0
132 153 0
127 148 0
131 151 0
137 157 0
127 147 0
139 159 0
131 150 0
119 139 0
131 151 0
138 158 0
132 153 0
127 147 0
126 145 0
135 155 0
132 153 0
130 150 0
123 142 0
135 154 0
120 140 0
136 156 0
123 143 0
125 145 0
132 153 0
129 149 0
123 143 0
115 134 0
123 142 0
126 145 0
131 151 0
121 141 0
132 151 0
123 142 0
127 146 0
126 145 0
138 156 0
134 153 0
138 158 0
124 143 0
125 143 0
123 142 0
118 138 0
123 142 0
133 153 0
128 149 0
126 146 0
132 151 0
130 150 0
126 145 0
122 141 0
129 148 0
124 143 0
112 130 0
125 145 0
129 148 0
127 146 0
119 137 0
128 146 0
127 145 0
126 145 0
133 151 0
131 149 0
120 138 0
122 140 0
120 140 0
127 146 0
134 151 0
128 146 0
130 149 0
129 145 0
129 146 0
128 145 0
119 137 0
116 134 0
137 156 0
125 142 0
121 138 0
125 143 0
130 148 0
127 145 0
132 151 0
130 149 0
126 143 0
133 150 0
139 157 0
124 143 0
127 144 0
137 154 0
134 151 0
130 147 0
133 150 0
128 145 0
126 142 0
130 148 0
135 154 0
119 135 0
119 135 0
131 146 0
135 152 0
137 154 0
129 144 0
135 155 0
133 150 0
134 149 0
130 146 0
134 151 0
135 152 0
126 142 0
133 151 0
136 153 0
126 140 0
134 151 0
134 149 0
143 159 0
141 157 0
128 143 0
132 145 0
130 145 0
145 161 0
132 147 0
142 158 0
127 140 0
129 144 0
121 133 0
135 149 0
134 150 0
134 149 0
140 153 0
135 148 0
132 146 0
130 145 0
132 147 0
131 141 0
133 143 0
127 140 0
134 147 0
124 135 0
141 153 0
125 136 0
136 147 0
140 152 0
131 142 0
134 147 0
131 142 0
140 151 0
125 136 0
135 143 0
126 136 0
134 142 0
133 141 0
131 140 0
131 141 0
129 136 0
131 140 0
126 133 0
129 135 0
126 136 0
137 143 0
130 138 0
132 136 0
128 132 0
130 136 0
132 139 0
120 124 0
129 136 0
133 139 0
136 141 0
131 136 0
128 131 0
117 119 0
122 123 0
137 142 0
123 124 0
126 127 0
130 133 0
128 132 0
129 129 0
130 130 0
123 124 0
128 132 0
131 132 0
127 129 0
131 131 0
126 127 0
127 129 0
122 124 0
121 120 0
124 126 0
130 130 0
131 132 0
125 122 0
126 127 0
126 126 0
136 136 0
136 134 0
130 131 0
142 144 0
127 126 0
134 135 0
140 143 0
124 122 0
140 142 0
133 134 0
140 143 0
145 148 0
135 138 0
137 137 0
146 149 0
127 128 0
145 147 0
144 146 0
146 151 0
135 139 0
143 147 0
140 142 0
149 153 0
141 145 0
152 160 0
145 151 0
145 150 0
150 156 0
142 148 0
152 161 0
146 152 0
151 158 0
152 160 0
148 157 0
150 157 0
143 150 0
153 161 0
152 162 0
155 168 0
162 172 0
157 166 0
156 165 0
152 164 0
151 159 0
164 174 0
158 169 0
155 166 0
158 168 0
161 175 0
163 177 0
161 173 0
161 174 0
157 170 0
162 178 0
159 172 0
163 183 0
165 185 0
165 184 0
161 181 0
166 186 0
164 185 0
160 179 0
161 181 0
162 181 0
166 184 0
162 181 0
163 182 0
162 181 0
163 182 0
161 180 0
162 180 0
160 178 0
157 174 0
160 179 0
159 177 0
153 172 0
156 174 0
161 180 0
153 171 0
156 174 0
155 172 0
155 172 0
155 172 0
155 172 0
150 167 0
145 162 0
151 168 0
156 172 0
147 164 0
151 167 0
144 160 0
150 166 0
154 171 0
152 168 0
147 162 0
144 159 0
149 165 0
147 162 0
144 159 0
144 159 0
145 161 0
145 160 0
143 158 0
142 157 0
143 158 0
139 154 0
147 163 0
138 153 0
132 147 0
143 157 0
140 155 0
143 158 0
139 153 0
136 151 0
140 155 0
144 159 0
139 155 0
137 152 0
142 157 0
135 149 0
142 157 0
145 161 0
143 158 0
149 165 0
127 141 0
134 149 0
135 150 0
142 158 0
142 158 0
141 157 0
143 159 0
135 151 0
139 156 0
142 159 0
147 165 0
137 152 0
136 152 0
136 152 0
144 160 0
135 152 0
137 154 0
143 161 0
138 155 0
138 155 0
137 153 0
141 158 0
139 156 0
142 159 0
132 149 0
140 158 0
134 152 0
138 156 0
139 157 0
137 154 0
139 157 0
139 158 0
145 164 0
144 162 0
140 157 0
141 160 0
139 157 0
133 151 0
141 160 0
128 146 0
142 160 0
139 158 0
142 161 0
145 165 0
132 150 0
141 160 0
141 161 0
138 157 0
140 159 0
135 153 0
145 165 0
137 156 0
131 150 0
139 157 0
143 163 0
143 163 0
138 157 0
139 159 0
147 168 0
133 152 0
132 151 0
141 160 0
146 166 0
138 159 0
141 161 0
135 155 0
134 154 0
131 151 0
128 149 0
142 162 0
135 156 0
138 158 0
138 157 0
137 157 0
128 147 0
139 159 0
138 158 0
133 154 0
135 155 0
137 157 0
137 157 0
134 153 0
133 152 0
134 155 0
135 155 0
129 149 0
134 156 0
128 147 0
132 152 0
125 145 0
137 159 0
125 145 0
127 147 0
131 151 0
132 153 0
126 145 0
131 150 0
125 145 0
135 155 0
118 137 0
126 147 0
134 154 0
134 154 0
123 143 0
131 151 0
124 143 0
131 151 0
131 151 0
134 155 0
123 142 0
130 148 0
138 158 0
129 150 0
130 149 0
137 157 0
128 148 0
125 143 0
124 144 0
128 148 0
117 138 0
133 153 0
123 141 0
135 155 0
134 154 0
136 155 0
128 147 0
125 143 0
124 141 0
121 139 0
131 149 0
129 150 0
127 146 0
131 150 0
122 140 0
116 137 0
118 137 0
135 154 0
120 139 0
127 146 0
122 142 0
126 145 0
133 152 0
137 157 0
129 150 0
127 145 0
128 147 0
131 148 0
133 152 0
129 148 0
133 152 0
124 142 0
133 152 0
131 149 0
123 140 0
120 137 0
123 142 0
133 150 0
124 142 0
130 148 0
128 148 0
123 141 0
135 152 0
137 155 0
134 154 0
135 153 0
127 145 0
131 151 0
134 154 0
124 140 0
127 146 0
131 150 0
134 153 0
139 158 0
136 154 0
134 152 0
142 160 0
128 143 0
133 148 0
141 157 0
133 150 0
125 141 0
132 148 0
137 155 0
139 157 0
130 147 0
129 144 0
128 144 0
144 162 0
134 149 0
136 153 0
141 158 0
145 162 0
133 151 0
137 155 0
140 156 0
139 156 0
131 146 0
138 155 0
133 149 0
134 150 0
129 145 0
144 163 0
134 147 0
136 151 0
139 156 0
133 147 0
136 150 0
125 137 0
124 139 0
144 158 0
142 156 0
141 155 0
138 152 0
132 146 0
136 150 0
129 140 0
132 144 0
128 140 0
141 155 0
131 143 0
134 147 0
132 143 0
128 141 0
137 149 0
131 143 0
132 142 0
128 139 0
130 143 0
139 151 0
126 136 0
131 140 0
136 151 0
135 146 0
145 154 0
126 136 0
125 133 0
137 145 0
124 132 0
138 147 0
130 139 0
131 138 0
133 139 0
130 138 0
132 140 0
129 136 0
127 132 0
127 136 0
138 146 0
122 126 0
129 132 0
135 139 0
132 135 0
132 134 0
131 137 0
129 135 0
128 133 0
134 139 0
120 125 0
133 139 0
131 134 0
126 127 0
132 136 0
127 128 0
124 125 0
120 118 0
130 132 0
135 137 0
127 126 0
131 133 0
134 134 0
127 127 0
132 132 0
119 113 0
135 136 0
119 118 0
130 133 0
124 125 0
119 116 0
125 120 0
130 133 0
140 142 0
138 142 0
136 138 0
134 134 0
135 138 0
139 138 0
131 134 0
130 130 0
136 139 0
149 154 0
142 146 0
133 132 0
145 150 0
142 146 0
139 142 0
137 140 0
147 153 0
142 144 0
146 149 0
142 143 0
141 146 0
147 153 0
140 146 0
145 149 0
147 154 0
145 153 0
141 145 0
149 158 0
147 155 0
141 149 0
151 157 0
149 156 0
149 157 0
157 169 0
150 160 0
154 164 0
155 165 0
155 166 0
148 155 0
156 167 0
154 161 0
155 166 0
155 165 0
150 158 0
159 172 0
162 175 0
156 169 0
150 160 0
158 171 0
160 173 0
158 171 0
162 183 0
165 184 0
166 186 0
167 187 0
162 182 0
165 185 0
161 180 0
164 183 0
164 184 0
159 178 0
161 179 0
163 181 0
155 174 0
158 178 0
158 177 0
162 181 0
160 178 0
164 184 0
155 172 0
161 179 0
157 176 0
158 176 0
155 173 0
156 174 0
162 180 0
153 170 0
151 168 0
155 172 0
153 170 0
148 165 0
153 170 0
147 163 0
147 162 0
152 168 0
149 166 0
158 175 0
148 165 0
141 157 0
148 163 0
147 162 0
150 166 0
149 165 0
142 158 0
150 165 0
150 165 0
140 155 0
143 158 0
141 156 0
140 155 0
144 159 0
145 160 0
137 151 0
140 155 0
143 158 0
135 149 0
149 165 0
145 160 0
144 158 0
144 160 0
136 150 0
137 151 0
135 150 0
137 153 0
136 151 0
147 162 0
136 151 0
144 160 0
133 148 0
137 152 0
140 156 0
143 159 0
140 155 0
139 155 0
139 156 0
139 156 0
151 168 0
143 159 0
134 151 0
144 161 0
134 149 0
137 155 0
137 154 0
135 151 0
139 157 0
141 158 0
146 163 0
145 162 0
146 163 0
143 159 0
130 147 0
148 167 0
144 162 0
139 156 0
131 149 0
141 159 0
134 152 0
137 154 0
139 158 0
138 157 0
143 161 0
137 155 0
144 161 0
146 164 0
136 154 0
140 158 0
144 163 0
146 165 0
144 163 0
135 154 0
139 158 0
136 153 0
143 162 0
143 162 0
135 154 0
149 168 0
141 162 0
140 160 0
140 159 0
144 163 0
138 158 0
140 158 0
134 153 0
141 161 0
137 157 0
134 154 0
136 156 0
139 159 0
134 153 0
140 160 0
145 164 0
147 167 0
140 159 0
147 168 0
127 145 0
137 158 0
141 162 0
131 151 0
134 153 0
143 163 0
146 165 0
132 152 0
142 162 0
142 162 0
148 169 0
135 155 0
139 160 0
133 153 0
140 159 0
138 159 0
139 160 0
133 153 0
131 151 0
126 146 0
132 153 0
134 154 0
138 158 0
131 151 0
131 150 0
131 152 0
135 154 0
133 153 0
132 152 0
133 153 0
130 150 0
136 155 0
137 156 0
132 153 0
131 151 0
132 152 0
126 147 0
136 156 0
126 146 0
129 149 0
126 146 0
121 141 0
126 147 0
130 149 0
131 152 0
127 145 0
138 157 0
132 151 0
126 146 0
134 155 0
141 161 0
136 155 0
122 142 0
128 149 0
132 152 0
135 154 0
125 146 0
128 148 0
128 146 0
121 141 0
130 150 0
133 154 0
128 148 0
132 152 0
134 152 0
122 140 0
130 149 0
124 143 0
124 143 0
127 147 0
132 152 0
125 143 0
121 141 0
119 138 0
125 145 0
132 151 0
126 144 0
124 142 0
127 146 0
132 151 0
133 152 0
135 153 0
126 144 0
133 152 0
119 138 0
134 154 0
124 143 0
126 146 0
127 147 0
118 138 0
129 148 0
123 140 0
138 159 0
134 153 0
125 142 0
136 155 0
132 150 0
124 141 0
135 153 0
128 145 0
140 159 0
119 137 0
120 138 0
135 155 0
132 150 0
127 145 0
135 152 0
138 155 0
142 161 0
125 141 0
139 158 0
138 157 0
132 150 0
133 152 0
132 150 0
126 142 0
126 143 0
133 150 0
130 146 0
140 157 0
137 154 0
129 144 0
145 164 0
132 149 0
135 153 0
122 137 0
139 155 0
135 152 0
143 160 0
135 151 0
142 159 0
142 159 0
131 147 0
142 160 0
130 146 0
139 154 0
132 149 0
135 151 0
140 157 0
137 152 0
141 157 0
147 161 0
140 153 0
143 160 0
132 147 0
135 150 0
143 157 0
135 148 0
136 151 0
135 150 0
137 151 0
135 148 0
139 151 0
138 154 0
136 146 0
133 145 0
142 155 0
134 145 0
127 139 0
144 156 0
126 142 0
137 149 0
133 144 0
133 144 0
131 143 0
133 145 0
134 145 0
128 138 0
137 147 0
130 142 0
131 140 0
138 147 0
129 138 0
132 140 0
137 146 0
136 145 0
132 141 0
128 136 0
135 140 0
128 135 0
138 149 0
135 144 0
125 131 0
126 135 0
135 141 0
127 128 0
131 137 0
130 134 0
124 130 0
133 138 0
137 144 0
132 138 0
130 132 0
140 144 0
116 121 0
136 140 0
122 123 0
130 133 0
136 139 0
143 148 0
135 140 0
132 135 0
137 141 0
125 127 0
131 133 0
121 124 0
139 143 0
127 129 0
134 139 0
131 133 0
134 134 0
127 130 0
131 133 0
131 130 0
134 135 0
138 142 0
134 138 0
135 137 0
130 128 0
133 135 0
133 135 0
128 131 0
142 142 0
138 141 0
139 140 0
130 133 0
139 140 0
139 144 0
134 137 0
134 134 0
145 151 0
142 146 0
138 141 0
147 153 0
138 144 0
140 141 0
145 151 0
143 147 0
145 151 0
146 151 0
150 157 0
146 151 0
144 149 0
148 152 0
141 146 0
148 155 0
155 164 0
151 160 0
153 159 0
158 168 0
155 165 0
151 161 0
152 163 0
150 158 0
151 161 0
151 163 0
150 159 0
159 171 0
159 172 0
157 166 0
157 168 0
156 169 0
160 174 0
159 170 0
160 173 0
155 167 0
160 172 0
163 183 0
160 180 0
162 182 0
164 183 0
161 181 0
167 186 0
162 182 0
163 183 0
161 180 0
155 174 0
161 181 0
160 179 0
161 179 0
163 182 0
158 176 0
161 180 0
157 176 0
157 176 0
157 174 0
153 170 0
159 177 0
157 174 0
157 175 0
147 164 0
163 180 0
151 168 0
158 176 0
149 165 0
151 169 0
155 172 0
153 170 0
154 170 0
151 167 0
145 162 0
149 165 0
151 167 0
152 169 0
152 169 0
147 163 0
144 160 0
137 152 0
147 162 0
136 152 0
141 157 0
146 162 0
136 151 0
146 161 0
145 161 0
142 158 0
139 155 0
142 157 0
142 157 0
140 156 0
148 163 0
148 163 0
145 161 0
146 161 0
148 164 0
147 163 0
148 164 0
146 162 0
146 162 0
143 158 0
140 155 0
145 160 0
143 158 0
138 153 0
142 158 0
138 154 0
144 160 0
138 155 0
139 155 0
141 157 0
134 150 0
135 150 0
143 159 0
145 161 0
141 158 0
145 162 0
138 155 0
147 164 0
136 151 0
132 148 0
149 165 0
135 152 0
142 160 0
136 153 0
136 152 0
142 159 0
133 150 0
145 163 0
130 146 0
143 160 0
147 166 0
136 153 0
135 152 0
142 160 0
151 170 0
137 155 0
150 170 0
141 159 0
144 161 0
140 159 0
145 163 0
141 159 0
139 159 0
145 163 0
138 158 0
149 168 0
147 167 0
141 160 0
143 162 0
133 151 0
141 161 0
144 163 0
139 157 0
140 160 0
144 163 0
138 157 0
131 151 0
144 163 0
140 158 0
137 157 0
138 158 0
141 161 0
133 153 0
145 165 0
151 172 0
145 166 0
141 161 0
139 160 0
142 163 0
137 157 0
139 160 0
137 157 0
133 153 0
133 153 0
132 153 0
133 152 0
140 160 0
141 161 0
132 151 0
129 148 0
144 164 0
141 161 0
133 152 0
135 155 0
139 160 0
132 152 0
138 159 0
136 156 0
130 150 0
137 156 0
133 153 0
139 159 0
129 148 0
140 161 0
140 161 0
137 156 0
137 156 0
146 166 0
125 144 0
134 154 0
129 149 0
133 153 0
132 152 0
137 157 0
139 160 0
136 155 0
139 159 0
131 151 0
128 149 0
145 165 0
131 151 0
130 149 0
135 155 0
130 150 0
126 146 0
140 161 0
137 158 0
126 146 0
126 144 0
139 157 0
128 148 0
134 153 0
130 148 0
131 151 0
118 137 0
131 151 0
123 142 0
131 150 0
131 150 0
116 134 0
130 150 0
133 153 0
128 147 0
126 145 0
133 152 0
119 137 0
130 151 0
139 160 0
124 141 0
121 140 0
129 148 0
127 148 0
128 148 0
121 140 0
126 145 0
123 141 0
132 151 0
128 148 0
128 147 0
132 151 0
135 153 0
129 148 0
132 149 0
122 141 0
130 149 0
134 153 0
128 147 0
134 153 0
134 153 0
144 164 0
127 146 0
134 152 0
126 143 0
131 150 0
135 153 0
130 151 0
133 152 0
129 148 0
124 142 0
134 152 0
140 159 0
122 142 0
138 156 0
140 158 0
135 153 0
130 151 0
134 153 0
135 153 0
130 149 0
140 157 0
131 149 0
140 160 0
123 140 0
125 144 0
134 153 0
125 143 0
137 156 0
139 157 0
135 152 0
134 152 0
134 153 0
132 150 0
140 157 0
130 146 0
138 154 0
129 145 0
131 147 0
143 160 0
144 162 0
137 155 0
146 163 0
134 151 0
139 157 0
140 157 0
140 156 0
142 160 0
143 158 0
130 146 0
125 142 0
136 151 0
129 144 0
144 160 0
136 153 0
142 156 0
145 158 0
141 157 0
137 150 0
141 155 0
146 160 0
143 158 0
133 147 0
129 140 0
133 147 0
143 158 0
137 150 0
133 149 0
133 145 0
138 150 0
129 142 0
134 146 0
141 153 0
136 148 0
141 155 0
146 160 0
135 148 0
134 146 0
140 149 0
131 144 0
138 149 0
136 146 0
134 145 0
133 142 0
136 145 0
130 138 0
138 147 0
129 137 0
133 143 0
133 142 0
134 144 0
127 135 0
136 143 0
131 139 0
131 140 0
131 138 0
133 140 0
133 140 0
125 130 0
134 140 0
133 135 0
138 147 0
127 132 0
131 137 0
135 141 0
132 137 0
132 138 0
133 139 0
132 136 0
131 135 0
129 135 0
124 129 0
135 140 0
135 139 0
130 134 0
133 135 0
140 146 0
132 133 0
126 128 0
125 127 0
124 126 0
133 133 0
130 131 0
140 144 0
135 140 0
134 139 0
134 136 0
127 130 0
136 142 0
136 140 0
132 135 0
141 143 0
134 136 0
130 133 0
140 142 0
132 135 0
140 144 0
146 150 0
147 151 0
136 139 0
141 144 0
141 145 0
147 150 0
141 145 0
140 142 0
144 151 0
142 148 0
143 150 0
142 144 0
149 151 0
149 153 0
145 150 0
142 147 0
143 150 0
140 143 0
146 153 0
147 153 0
150 158 0
145 149 0
148 153 0
151 159 0
147 153 0
156 165 0
152 160 0
150 158 0
151 158 0
153 162 0
148 157 0
155 165 0
153 162 0
153 164 0
156 168 0
155 169 0
148 157 0
163 174 0
157 167 0
161 175 0
151 162 0
154 164 0
164 183 0
165 184 0
163 182 0
161 179 0
161 180 0
163 182 0
161 182 0
165 184 0
160 179 0
164 182 0
159 177 0
157 175 0
161 180 0
157 175 0
162 181 0
156 173 0
153 171 0
159 177 0
159 177 0
156 174 0
156 174 0
156 173 0
159 177 0
154 170 0
151 167 0
156 174 0
151 168 0
154 171 0
150 166 0
144 160 0
155 172 0
154 171 0
155 172 0
147 163 0
149 165 0
150 167 0
144 161 0
152 168 0
153 170 0
142 157 0
153 169 0
148 165 0
146 162 0
144 159 0
146 162 0
145 160 0
149 165 0
141 158 0
143 159 0
146 162 0
142 159 0
151 167 0
147 164 0
147 163 0
146 162 0
145 161 0
148 164 0
143 158 0
147 163 0
148 164 0
135 150 0
136 151 0
142 159 0
143 159 0
144 161 0
144 161 0
139 155 0
133 149 0
144 161 0
147 163 0
141 159 0
128 143 0
143 160 0
148 164 0
138 155 0
146 163 0
149 166 0
140 156 0
143 161 0
141 159 0
145 162 0
136 153 0
139 156 0
137 155 0
142 160 0
136 153 0
140 157 0
134 153 0
140 157 0
141 159 0
145 164 0
143 160 0
138 156 0
142 160 0
137 155 0
143 160 0
135 152 0
139 158 0
148 166 0
142 161 0
140 159 0
142 160 0
144 162 0
142 160 0
144 163 0
139 157 0
129 147 0
150 170 0
143 162 0
151 170 0
137 157 0
144 164 0
144 163 0
143 164 0
139 159 0
141 160 0
143 162 0
143 164 0
142 161 0
129 148 0
139 160 0
138 157 0
136 156 0
141 161 0
134 155 0
144 164 0
144 165 0
148 168 0
145 165 0
135 156 0
142 162 0
132 152 0
136 156 0
135 156 0
145 166 0
139 160 0
137 158 0
139 160 0
147 166 0
141 162 0
142 162 0
148 169 0
138 158 0
134 153 0
135 156 0
144 165 0
138 159 0
134 155 0
144 165 0
138 159 0
137 156 0
140 161 0
140 159 0
139 159 0
131 151 0
135 156 0
132 153 0
127 148 0
135 155 0
135 155 0
137 157 0
136 155 0
130 151 0
133 154 0
136 156 0
130 150 0
139 161 0
140 160 0
138 157 0
134 154 0
132 154 0
130 152 0
141 161 0
128 149 0
143 164 0
125 145 0
128 147 0
129 150 0
136 156 0
131 151 0
136 155 0
132 152 0
132 153 0
128 148 0
125 144 0
136 156 0
139 159 0
127 147 0
135 155 0
131 150 0
130 150 0
128 149 0
125 145 0
128 148 0
132 152 0
123 142 0
131 150 0
134 153 0
136 155 0
143 162 0
123 143 0
131 151 0
135 154 0
140 161 0
132 151 0
128 146 0
128 147 0
124 144 0
135 155 0
139 159 0
133 152 0
127 147 0
141 161 0
140 160 0
124 142 0
131 150 0
129 148 0
133 154 0
131 148 0
135 155 0
141 159 0
137 155 0
135 154 0
132 151 0
136 155 0
131 150 0
134 153 0
135 155 0
130 149 0
130 149 0
141 160 0
131 149 0
130 149 0
134 151 0
128 145 0
138 156 0
131 150 0
133 151 0
136 154 0
130 149 0
141 160 0
133 150 0
147 167 0
134 151 0
134 152 0
127 142 0
136 154 0
141 159 0
134 149 0
134 151 0
138 156 0
135 151 0
133 151 0
134 152 0
132 150 0
132 149 0
130 149 0
143 159 0
139 156 0
133 149 0
138 155 0
128 143 0
138 154 0
139 155 0
133 152 0
134 151 0
133 150 0
136 153 0
139 157 0
128 142 0
138 156 0
137 153 0
127 143 0
144 159 0
140 158 0
133 150 0
134 149 0
142 157 0
134 149 0
138 154 0
142 156 0
137 150 0
141 156 0
132 142 0
131 145 0
142 158 0
134 148 0
140 154 0
143 160 0
136 150 0
139 153 0
139 153 0
132 147 0
136 146 0
136 149 0
137 149 0
132 146 0
128 138 0
140 153 0
136 149 0
139 152 0
142 152 0
137 147 0
147 163 0
124 134 0
134 144 0
133 142 0
138 148 0
135 145 0
133 144 0
141 151 0
136 144 0
130 139 0
137 148 0
137 147 0
132 138 0
134 141 0
127 138 0
139 145 0
134 140 0
139 148 0
133 140 0
130 136 0
138 147 0
141 149 0
135 142 0
137 144 0
133 141 0
122 126 0
135 139 0
142 147 0
134 140 0
128 132 0
130 134 0
136 140 0
136 142 0
132 134 0
139 144 0
129 134 0
127 132 0
127 130 0
126 130 0
133 135 0
128 134 0
123 126 0
133 137 0
141 144 0
142 145 0
137 141 0
136 139 0
135 137 0
126 130 0
139 141 0
136 139 0
144 146 0
128 128 0
134 136 0
145 149 0
143 149 0
139 143 0
138 141 0
132 135 0
132 135 0
146 149 0
142 148 0
136 140 0
137 138 0
142 146 0
135 139 0
144 149 0
149 156 0
140 145 0
148 155 0
153 160 0
145 150 0
147 153 0
145 150 0
146 152 0
149 158 0
155 164 0
154 159 0
149 156 0
151 158 0
150 161 0
151 160 0
147 154 0
149 155 0
152 162 0
151 159 0
154 166 0
148 156 0
151 161 0
159 171 0
154 164 0
154 164 0
151 159 0
154 167 0
158 172 0
152 163 0
158 168 0
164 183 0
164 183 0
161 180 0
166 185 0
162 181 0
165 185 0
162 182 0
159 177 0
161 181 0
158 176 0
154 173 0
162 181 0
159 178 0
157 175 0
158 176 0
157 174 0
159 178 0
158 176 0
156 174 0
160 177 0
157 174 0
154 172 0
159 177 0
155 172 0
152 169 0
152 169 0
157 175 0
147 163 0
156 174 0
151 168 0
152 169 0
152 169 0
155 172 0
152 170 0
151 168 0
149 165 0
147 163 0
148 165 0
150 166 0
146 163 0
139 155 0
151 168 0
155 172 0
145 162 0
143 158 0
153 170 0
145 161 0
141 156 0
149 165 0
147 163 0
152 169 0
147 164 0
149 165 0
142 157 0
139 155 0
143 158 0
144 161 0
147 164 0
147 163 0
145 161 0
140 157 0
139 154 0
141 157 0
146 163 0
152 169 0
139 156 0
146 162 0
146 162 0
143 160 0
141 158 0
148 165 0
143 159 0
145 163 0
146 164 0
147 165 0
139 158 0
140 157 0
138 156 0
146 163 0
144 162 0
139 156 0
150 168 0
147 165 0
141 159 0
146 164 0
142 160 0
143 162 0
137 154 0
138 156 0
139 156 0
146 165 0
144 162 0
142 162 0
145 164 0
142 160 0
144 162 0
139 158 0
137 155 0
140 159 0
148 166 0
129 148 0
142 162 0
144 162 0
131 149 0
144 163 0
148 167 0
138 157 0
144 163 0
147 166 0
146 165 0
144 162 0
143 163 0
139 158 0
138 157 0
139 158 0
145 164 0
144 164 0
143 162 0
141 161 0
139 160 0
144 165 0
141 162 0
143 163 0
140 158 0
145 165 0
141 162 0
148 168 0
141 162 0
146 166 0
143 163 0
138 158 0
141 161 0
138 160 0
146 168 0
142 162 0
134 153 0
139 159 0
144 165 0
134 155 0
134 154 0
140 162 0
146 166 0
149 170 0
134 154 0
146 168 0
134 154 0
134 153 0
145 166 0
140 159 0
141 162 0
136 156 0
146 167 0
138 158 0
137 158 0
144 166 0
135 155 0
135 155 0
137 157 0
138 158 0
135 156 0
138 158 0
132 153 0
136 156 0
133 153 0
130 151 0
125 145 0
134 154 0
142 162 0
130 151 0
137 157 0
127 147 0
137 157 0
142 163 0
129 149 0
130 149 0
127 148 0
141 162 0
135 154 0
138 158 0
142 162 0
130 151 0
142 162 0
128 148 0
130 150 0
139 160 0
131 152 0
133 153 0
131 150 0
134 154 0
129 148 0
141 161 0
135 154 0
138 159 0
142 162 0
139 159 0
134 153 0
128 147 0
132 152 0
143 164 0
124 143 0
135 155 0
134 155 0
141 162 0
133 152 0
131 151 0
136 157 0
133 153 0
132 151 0
126 145 0
128 150 0
123 143 0
125 144 0
137 156 0
139 159 0
122 141 0
136 156 0
139 158 0
123 141 0
131 150 0
134 153 0
129 149 0
136 154 0
128 147 0
137 156 0
125 144 0
129 149 0
133 151 0
138 157 0
122 139 0
136 156 0
143 164 0
128 146 0
130 147 0
126 145 0
125 143 0
129 148 0
141 159 0
134 152 0
131 149 0
130 149 0
137 156 0
132 152 0
136 156 0
134 154 0
138 157 0
135 154 0
132 151 0
136 153 0
139 157 0
133 150 0
143 161 0
136 155 0
140 158 0
123 140 0
135 152 0
142 160 0
137 156 0
133 152 0
138 155 0
139 157 0
137 155 0
147 164 0
140 157 0
131 148 0
127 145 0
133 149 0
129 146 0
144 160 0
136 152 0
140 157 0
142 158 0
138 153 0
143 160 0
142 159 0
135 150 0
138 153 0
140 155 0
139 154 0
144 160 0
141 156 0
146 162 0
138 154 0
133 147 0
140 155 0
134 151 0
132 147 0
143 158 0
137 150 0
141 155 0
136 150 0
136 150 0
135 148 0
138 149 0
128 140 0
134 147 0
143 155 0
132 144 0
133 144 0
136 149 0
139 152 0
133 144 0
128 140 0
140 152 0
138 148 0
130 140 0
131 143 0
136 144 0
141 152 0
145 156 0
138 150 0
136 145 0
131 139 0
128 137 0
132 141 0
138 147 0
139 146 0
134 146 0
136 145 0
141 150 0
132 140 0
152 161 0
126 134 0
131 140 0
134 141 0
146 155 0
143 150 0
142 148 0
132 139 0
134 143 0
132 136 0
135 141 0
132 140 0
131 135 0
133 140 0
137 143 0
137 142 0
134 139 0
128 133 0
137 143 0
137 141 0
141 147 0
137 142 0
131 135 0
136 141 0
131 134 0
135 137 0
135 141 0
140 146 0
147 153 0
127 129 0
137 139 0
138 139 0
133 133 0
145 150 0
140 143 0
131 135 0
128 130 0
147 151 0
137 141 0
139 143 0
139 143 0
135 139 0
141 145 0
142 149 0
143 150 0
148 156 0
147 153 0
141 144 0
137 143 0
149 153 0
142 145 0
138 142 0
151 158 0
148 154 0
150 157 0
142 148 0
147 153 0
150 159 0
149 158 0
147 154 0
144 151 0
145 151 0
147 155 0
149 160 0
147 155 0
146 154 0
156 165 0
154 165 0
149 159 0
153 164 0
151 159 0
157 166 0
151 157 0
152 162 0
158 169 0
158 169 0
152 162 0
156 167 0
154 166 0
156 166 0
162 182 0
163 182 0
164 184 0
158 176 0
160 178 0
163 182 0
158 177 0
164 183 0
160 179 0
159 177 0
157 175 0
159 178 0
159 178 0
158 176 0
161 179 0
153 170 0
157 176 0
160 177 0
156 172 0
156 174 0
158 175 0
151 168 0
154 172 0
157 173 0
148 165 0
158 175 0
149 165 0
154 171 0
155 172 0
151 169 0
154 171 0
145 162 0
152 168 0
152 169 0
153 170 0
148 165 0
152 169 0
154 172 0
155 171 0
146 161 0
144 160 0
152 169 0
143 160 0
145 162 0
147 164 0
143 159 0
147 163 0
154 171 0
145 161 0
146 162 0
143 160 0
149 165 0
149 166 0
148 164 0
146 163 0
145 161 0
144 160 0
149 165 0
147 164 0
147 163 0
150 167 0
143 160 0
145 163 0
144 161 0
144 161 0
147 164 0
145 162 0
147 164 0
146 163 0
148 165 0
139 156 0
149 167 0
145 163 0
144 161 0
147 165 0
150 168 0
147 165 0
151 170 0
143 160 0
146 165 0
142 160 0
138 156 0
142 161 0
147 165 0
149 168 0
146 164 0
142 161 0
147 165 0
142 160 0
141 159 0
145 163 0
144 162 0
140 158 0
140 158 0
148 168 0
142 161 0
143 162 0
145 164 0
142 161 0
144 163 0
141 160 0
144 163 0
142 161 0
140 160 0
146 165 0
138 156 0
141 161 0
140 159 0
142 161 0
147 167 0
139 157 0
146 166 0
145 165 0
145 164 0
140 160 0
139 158 0
148 168 0
140 161 0
140 160 0
142 163 0
144 163 0
148 168 0
145 165 0
141 161 0
140 161 0
135 156 0
146 168 0
133 154 0
150 171 0
150 172 0
143 163 0
128 148 0
148 169 0
140 159 0
144 164 0
134 155 0
141 162 0
145 166 0
149 170 0
131 151 0
143 165 0
141 162 0
137 158 0
134 155 0
143 164 0
131 151 0
136 155 0
142 162 0
144 165 0
133 154 0
130 150 0
146 167 0
136 156 0
142 163 0
137 156 0
140 160 0
133 154 0
133 154 0
130 150 0
130 150 0
143 163 0
133 154 0
139 160 0
139 159 0
145 166 0
127 148 0
140 161 0
130 150 0
144 165 0
133 154 0
137 157 0
122 142 0
137 156 0
131 150 0
137 157 0
137 157 0
132 153 0
131 152 0
123 144 0
136 156 0
139 160 0
127 147 0
132 151 0
122 142 0
130 149 0
142 163 0
133 151 0
131 150 0
128 148 0
132 152 0
133 153 0
133 154 0
136 156 0
134 153 0
138 159 0
127 148 0
125 145 0
136 156 0
132 151 0
135 155 0
136 156 0
133 153 0
135 155 0
140 160 0
130 150 0
142 163 0
128 148 0
134 154 0
135 156 0
135 155 0
137 156 0
132 153 0
132 153 0
130 149 0
142 163 0
128 147 0
145 164 0
129 147 0
134 151 0
135 156 0
125 145 0
131 151 0
140 158 0
140 160 0
138 157 0
138 157 0
134 154 0
142 161 0
134 152 0
131 148 0
135 155 0
139 159 0
145 166 0
141 160 0
134 152 0
129 148 0
135 153 0
140 159 0
129 147 0
135 151 0
136 155 0
133 152 0
139 158 0
144 162 0
138 157 0
135 153 0
142 162 0
140 158 0
134 153 0
133 152 0
140 158 0
140 156 0
133 151 0
128 146 0
136 153 0
131 149 0
148 166 0
136 154 0
135 153 0
141 157 0
144 164 0
144 162 0
139 156 0
140 157 0
134 152 0
140 156 0
138 154 0
129 145 0
138 154 0
129 145 0
143 161 0
140 156 0
134 150 0
143 159 0
135 151 0
147 163 0
130 146 0
134 146 0
132 148 0
147 161 0
135 150 0
137 152 0
140 157 0
143 159 0
141 155 0
141 157 0
144 159 0
135 148 0
131 145 0
139 154 0
123 133 0
141 154 0
141 157 0
137 150 0
136 150 0
142 152 0
136 147 0
148 159 0
142 155 0
137 150 0
135 148 0
140 154 0
134 146 0
134 146 0
139 151 0
131 142 0
138 148 0
135 146 0
143 156 0
141 153 0
134 145 0
148 157 0
135 145 0
142 152 0
135 145 0
144 155 0
136 144 0
136 146 0
130 140 0
141 151 0
137 143 0
132 139 0
135 142 0
133 139 0
142 153 0
134 138 0
125 129 0
137 143 0
137 146 0
142 150 0
139 149 0
136 143 0
137 144 0
134 141 0
142 148 0
141 147 0
141 149 0
145 149 0
134 139 0
126 131 0
144 150 0
140 147 0
137 140 0
144 147 0
140 145 0
135 141 0
133 141 0
138 141 0
136 141 0
135 136 0
138 144 0
138 143 0
139 142 0
138 144 0
140 145 0
138 142 0
140 146 0
139 146 0
140 145 0
152 159 0
141 145 0
133 134 0
140 144 0
137 140 0
142 147 0
144 149 0
144 149 0
145 150 0
141 144 0
148 152 0
149 156 0
152 159 0
144 149 0
148 152 0
139 145 0
146 153 0
147 154 0
143 151 0
147 153 0
146 154 0
142 145 0
149 155 0
151 159 0
148 156 0
149 158 0
147 154 0
149 158 0
142 151 0
155 160 0
156 166 0
153 163 0
151 161 0
161 173 0
152 161 0
153 161 0
151 160 0
148 156 0
157 166 0
158 169 0
159 171 0
163 182 0
159 179 0
159 178 0
162 182 0
161 180 0
158 177 0
157 175 0
158 177 0
162 180 0
161 179 0
158 176 0
160 177 0
156 174 0
159 177 0
154 171 0
157 174 0
158 176 0
156 175 0
157 174 0
149 166 0
151 168 0
153 170 0
154 171 0
153 170 0
155 173 0
154 171 0
154 172 0
153 170 0
151 168 0
155 173 0
150 167 0
156 172 0
155 172 0
142 158 0
150 167 0
152 169 0
151 168 0
152 169 0
149 165 0
147 163 0
145 161 0
144 161 0
146 163 0
140 156 0
154 171 0
147 163 0
145 162 0
147 163 0
150 166 0
147 164 0
149 166 0
148 166 0
148 165 0
144 160 0
149 166 0
148 165 0
145 162 0
147 164 0
150 167 0
141 156 0
145 162 0
149 167 0
141 157 0
148 165 0
144 161 0
146 164 0
139 157 0
139 156 0
153 171 0
150 168 0
142 159 0
144 162 0
141 157 0
147 165 0
148 165 0
147 164 0
145 164 0
139 156 0
143 161 0
139 157 0
148 166 0
145 164 0
143 162 0
145 163 0
147 165 0
148 167 0
144 162 0
150 168 0
147 165 0
145 162 0
146 164 0
141 160 0
143 161 0
140 158 0
142 159 0
143 162 0
141 159 0
133 151 0
150 169 0
145 165 0
151 170 0
138 157 0
140 159 0
144 163 0
148 167 0
142 162 0
152 172 0
143 162 0
141 160 0
148 167 0
143 163 0
140 160 0
145 165 0
145 165 0
145 165 0
146 167 0
140 160 0
151 172 0
137 156 0
146 166 0
145 166 0
151 171 0
148 169 0
138 158 0
133 154 0
150 171 0
143 163 0
144 165 0
143 165 0
146 166 0
143 165 0
138 159 0
143 162 0
136 157 0
141 160 0
143 164 0
145 165 0
139 160 0
137 157 0
141 161 0
147 168 0
140 160 0
141 161 0
144 166 0
134 153 0
134 154 0
137 158 0
151 172 0
136 158 0
137 158 0
139 161 0
146 166 0
141 162 0
140 161 0
138 159 0
131 151 0
137 158 0
141 163 0
135 155 0
141 161 0
137 159 0
139 159 0
143 163 0
137 158 0
134 155 0
139 160 0
138 157 0
137 158 0
127 148 0
138 158 0
136 157 0
128 149 0
127 147 0
139 160 0
132 152 0
140 161 0
138 158 0
127 146 0
134 154 0
147 169 0
136 156 0
123 143 0
132 153 0
134 154 0
132 153 0
128 148 0
139 159 0
131 151 0
134 155 0
133 154 0
123 144 0
128 148 0
124 145 0
137 158 0
135 156 0
138 158 0
132 152 0
135 155 0
138 157 0
126 146 0
135 156 0
136 156 0
137 157 0
143 163 0
140 161 0
131 150 0
142 163 0
128 148 0
136 156 0
122 141 0
131 150 0
134 154 0
137 157 0
131 149 0
142 160 0
138 158 0
127 146 0
127 147 0
142 160 0
138 158 0
132 152 0
136 156 0
128 147 0
137 156 0
131 152 0
140 158 0
138 157 0
134 151 0
129 148 0
127 146 0
131 150 0
142 161 0
124 143 0
141 160 0
130 148 0
142 160 0
138 157 0
141 161 0
136 154 0
133 151 0
135 153 0
147 164 0
134 152 0
143 163 0
145 166 0
141 160 0
143 161 0
141 159 0
142 163 0
148 167 0
141 158 0
141 158 0
138 157 0
137 155 0
130 148 0
127 147 0
140 159 0
141 160 0
142 161 0
135 152 0
138 156 0
137 155 0
141 160 0
131 145 0
135 154 0
141 158 0
140 159 0
144 162 0
138 155 0
135 152 0
135 151 0
138 154 0
136 154 0
143 160 0
146 163 0
142 158 0
132 148 0
143 157 0
150 168 0
145 164 0
146 164 0
137 152 0
127 141 0
148 164 0
145 160 0
134 149 0
127 141 0
139 154 0
142 159 0
140 154 0
141 153 0
141 157 0
140 156 0
143 158 0
138 152 0
135 147 0
143 157 0
130 144 0
137 150 0
142 156 0
133 145 0
135 145 0
130 142 0
134 147 0
138 147 0
140 150 0
137 149 0
141 151 0
141 151 0
138 151 0
140 151 0
136 147 0
142 156 0
140 152 0
134 145 0
144 153 0
138 146 0
134 143 0
141 150 0
139 148 0
136 146 0
138 148 0
131 139 0
140 153 0
137 146 0
142 151 0
146 155 0
136 148 0
135 141 0
129 135 0
135 143 0
129 136 0
144 155 0
146 153 0
139 145 0
130 135 0
142 147 0
136 143 0
138 144 0
139 147 0
141 147 0
133 140 0
135 139 0
133 137 0
138 144 0
138 142 0
140 147 0
140 147 0
137 143 0
140 146 0
139 144 0
149 157 0
134 137 0
142 148 0
147 156 0
143 151 0
138 142 0
137 141 0
145 149 0
134 136 0
147 154 0
144 150 0
143 148 0
146 153 0
144 149 0
141 147 0
142 144 0
144 150 0
147 153 0
151 158 0
141 149 0
144 150 0
143 148 0
144 148 0
140 144 0
140 146 0
144 150 0
144 150 0
147 156 0
147 152 0
149 154 0
141 145 0
146 153 0
149 154 0
154 163 0
156 167 0
151 161 0
155 162 0
154 164 0
156 164 0
149 159 0
155 164 0
157 165 0
148 158 0
157 169 0
158 170 0
149 159 0
155 166 0
156 167 0
150 162 0
160 178 0
159 178 0
158 177 0
164 182 0
160 178 0
157 176 0
159 177 0
161 180 0
157 175 0
158 177 0
161 179 0
159 178 0
152 171 0
157 175 0
164 183 0
153 170 0
158 175 0
156 174 0
156 174 0
158 176 0
148 166 0
154 171 0
153 171 0
155 174 0
150 167 0
155 173 0
154 172 0
155 172 0
163 181 0
150 166 0
153 171 0
151 168 0
152 169 0
150 166 0
154 171 0
148 164 0
150 167 0
152 170 0
150 166 0
145 162 0
151 166 0
147 163 0
152 168 0
153 170 0
147 164 0
148 164 0
146 165 0
155 172 0
145 161 0
140 156 0
152 168 0
148 165 0
151 168 0
143 160 0
152 169 0
151 169 0
150 168 0
152 169 0
140 157 0
139 156 0
150 168 0
147 164 0
148 166 0
149 165 0
148 165 0
150 167 0
144 161 0
142 159 0
144 161 0
144 162 0
153 169 0
150 168 0
147 165 0
146 163 0
149 166 0
139 157 0
149 167 0
147 165 0
148 167 0
145 163 0
140 158 0
146 165 0
139 157 0
141 160 0
143 161 0
141 159 0
142 160 0
144 162 0
146 165 0
142 161 0
143 163 0
142 161 0
151 170 0
146 166 0
147 166 0
152 172 0
149 169 0
144 164 0
140 160 0
148 168 0
143 163 0
146 165 0
142 160 0
155 174 0
147 166 0
143 162 0
144 164 0
145 164 0
136 156 0
150 170 0
138 159 0
144 164 0
148 169 0
148 169 0
136 155 0
140 159 0
147 168 0
143 164 0
151 172 0
146 167 0
141 162 0
148 169 0
141 161 0
139 159 0
142 161 0
140 160 0
139 159 0
144 165 0
144 164 0
144 165 0
144 164 0
144 165 0
154 174 0
147 168 0
137 157 0
138 158 0
149 171 0
142 162 0
135 156 0
134 155 0
140 160 0
138 159 0
136 157 0
133 153 0
144 164 0
142 163 0
146 168 0
139 159 0
129 150 0
143 164 0
141 161 0
140 162 0
137 157 0
144 164 0
138 158 0
135 156 0
137 158 0
140 161 0
135 154 0
145 165 0
144 165 0
134 154 0
143 163 0
142 162 0
144 164 0
137 156 0
143 163 0
131 152 0
139 160 0
140 161 0
137 158 0
122 143 0
142 162 0
129 149 0
144 164 0
133 155 0
138 159 0
132 151 0
136 155 0
128 148 0
144 164 0
138 158 0
132 152 0
140 160 0
125 147 0
141 161 0
135 154 0
135 154 0
129 150 0
133 152 0
132 152 0
142 162 0
133 153 0
126 146 0
137 159 0
133 152 0
132 152 0
130 150 0
142 164 0
143 163 0
139 160 0
131 152 0
137 157 0
133 153 0
140 160 0
139 160 0
128 148 0
138 158 0
140 159 0
139 159 0
135 155 0
136 154 0
136 154 0
137 156 0
140 160 0
133 154 0
138 159 0
129 149 0
133 153 0
133 153 0
132 153 0
144 164 0
134 152 0
131 152 0
135 155 0
138 157 0
134 153 0
136 156 0
132 152 0
144 163 0
134 152 0
128 147 0
138 158 0
144 164 0
129 149 0
138 156 0
134 154 0
131 148 0
143 162 0
134 152 0
141 160 0
132 151 0
139 158 0
136 153 0
149 169 0
136 156 0
135 152 0
144 161 0
144 164 0
137 155 0
150 168 0
146 166 0
153 171 0
137 155 0
130 147 0
140 156 0
140 159 0
149 167 0
145 164 0
138 156 0
129 149 0
133 151 0
139 157 0
141 159 0
133 149 0
135 153 0
143 160 0
139 157 0
143 161 0
144 162 0
143 158 0
146 165 0
139 157 0
142 159 0
137 154 0
142 159 0
138 153 0
130 147 0
143 158 0
140 155 0
135 151 0
149 164 0
135 150 0
142 157 0
143 157 0
133 150 0
141 156 0
140 152 0
139 155 0
143 157 0
136 149 0
135 150 0
138 151 0
136 149 0
144 158 0
142 158 0
143 156 0
146 161 0
148 161 0
145 159 0
144 159 0
146 160 0
133 145 0
143 155 0
139 152 0
142 154 0
140 154 0
144 156 0
143 157 0
148 161 0
135 146 0
133 145 0
142 153 0
144 156 0
136 146 0
138 148 0
135 145 0
140 149 0
141 148 0
140 150 0
136 145 0
135 143 0
147 153 0
126 136 0
133 145 0
138 148 0
142 149 0
146 154 0
138 146 0
144 152 0
137 146 0
127 136 0
148 157 0
138 144 0
136 143 0
130 136 0
130 133 0
144 152 0
145 153 0
135 141 0
140 148 0
145 155 0
141 147 0
150 158 0
141 149 0
139 145 0
137 140 0
138 144 0
133 137 0
137 143 0
138 143 0
140 147 0
138 142 0
136 142 0
131 136 0
142 146 0
137 144 0
146 149 0
142 150 0
140 145 0
135 137 0
140 145 0
144 148 0
145 150 0
138 147 0
140 143 0
148 152 0
144 149 0
139 140 0
144 153 0
152 159 0
142 147 0
142 148 0
153 160 0
144 152 0
145 150 0
148 159 0
150 158 0
144 150 0
155 163 0
149 156 0
140 147 0
146 155 0
152 159 0
153 163 0
144 147 0
157 165 0
150 157 0
146 151 0
147 155 0
147 154 0
153 163 0
151 160 0
153 164 0
156 165 0
153 164 0
156 165 0
156 167 0
149 159 0
156 167 0
160 179 0
160 180 0
163 182 0
156 175 0
160 179 0
157 175 0
160 180 0
164 183 0
160 179 0
161 180 0
159 178 0
152 170 0
161 179 0
159 176 0
156 174 0
161 179 0
155 173 0
154 171 0
154 171 0
157 175 0
151 169 0
156 173 0
155 174 0
154 172 0
154 172 0
152 170 0
158 176 0
153 170 0
153 169 0
155 173 0
157 175 0
155 173 0
155 173 0
150 167 0
153 171 0
151 168 0
147 165 0
160 177 0
153 169 0
147 164 0
153 171 0
147 164 0
158 175 0
150 168 0
150 167 0
152 170 0
156 174 0
152 170 0
151 168 0
151 168 0
144 161 0
156 173 0
151 167 0
146 163 0
153 172 0
144 160 0
143 160 0
145 163 0
151 169 0
152 169 0
148 166 0
155 174 0
147 165 0
152 169 0
145 163 0
150 168 0
147 166 0
150 168 0
150 169 0
141 159 0
151 171 0
150 168 0
140 157 0
143 162 0
142 160 0
142 159 0
154 172 0
149 168 0
154 172 0
142 161 0
148 167 0
144 163 0
146 165 0
145 164 0
145 164 0
153 173 0
147 166 0
145 164 0
148 168 0
140 159 0
146 166 0
148 168 0
145 165 0
145 164 0
142 162 0
143 163 0
148 167 0
149 169 0
143 162 0
147 165 0
153 173 0
139 158 0
144 165 0
137 157 0
136 156 0
141 160 0
148 167 0
147 167 0
146 165 0
143 162 0
149 168 0
144 164 0
145 166 0
141 162 0
149 170 0
153 174 0
139 159 0
140 160 0
139 159 0
146 167 0
150 171 0
148 168 0
153 173 0
141 161 0
143 164 0
144 165 0
143 163 0
149 169 0
144 165 0
142 162 0
147 168 0
148 169 0
139 160 0
145 167 0
144 164 0
143 164 0
134 154 0
144 166 0
133 154 0
146 167 0
143 163 0
134 155 0
141 162 0
138 159 0
146 166 0
140 161 0
137 158 0
148 168 0
138 159 0
146 166 0
139 160 0
145 165 0
129 149 0
136 157 0
145 166 0
131 150 0
139 159 0
137 158 0
138 159 0
136 157 0
139 160 0
142 163 0
130 149 0
137 157 0
141 162 0
147 168 0
131 151 0
138 159 0
142 163 0
122 143 0
136 158 0
146 167 0
147 167 0
147 168 0
137 158 0
134 154 0
134 156 0
135 156 0
137 159 0
131 152 0
137 159 0
134 154 0
137 158 0
133 153 0
135 155 0
139 161 0
134 153 0
143 164 0
136 156 0
130 152 0
140 161 0
131 151 0
131 151 0
133 154 0
133 154 0
123 144 0
139 161 0
127 148 0
143 162 0
131 152 0
137 158 0
135 154 0
135 157 0
133 153 0
141 159 0
130 149 0
133 152 0
129 149 0
124 145 0
139 160 0
137 156 0
134 154 0
134 154 0
143 163 0
136 156 0
126 146 0
131 150 0
128 145 0
137 157 0
136 157 0
132 152 0
133 152 0
141 162 0
135 156 0
135 153 0
132 151 0
136 155 0
136 154 0
129 148 0
139 158 0
135 155 0
135 153 0
136 156 0
142 162 0
136 154 0
137 153 0
134 153 0
137 157 0
146 164 0
128 147 0
141 160 0
130 149 0
137 155 0
142 161 0
148 167 0
137 155 0
148 169 0
135 152 0
143 163 0
147 166 0
144 162 0
129 146 0
143 163 0
136 156 0
135 154 0
137 155 0
130 149 0
148 167 0
136 156 0
143 164 0
143 161 0
146 165 0
146 163 0
148 167 0
146 165 0
139 158 0
135 152 0
139 156 0
144 160 0
139 156 0
142 159 0
145 162 0
138 154 0
137 156 0
136 153 0
143 159 0
142 158 0
137 152 0
134 148 0
140 157 0
132 148 0
139 155 0
146 161 0
139 156 0
140 157 0
140 158 0
139 154 0
141 156 0
136 152 0
141 155 0
148 163 0
140 155 0
146 162 0
139 155 0
135 149 0
137 149 0
140 152 0
140 152 0
134 147 0
131 146 0
150 164 0
142 156 0
143 157 0
150 164 0
153 167 0
139 152 0
147 160 0
140 152 0
146 158 0
141 152 0
147 160 0
145 158 0
149 160 0
139 148 0
135 146 0
143 155 0
137 147 0
141 152 0
147 160 0
145 159 0
135 146 0
142 151 0
144 155 0
132 140 0
143 153 0
140 149 0
147 156 0
139 146 0
140 149 0
137 148 0
142 152 0
144 155 0
129 135 0
138 147 0
140 147 0
141 150 0
146 154 0
137 142 0
131 138 0
140 148 0
136 140 0
134 142 0
145 152 0
143 153 0
151 162 0
142 150 0
144 153 0
138 146 0
134 139 0
142 149 0
140 145 0
139 142 0
148 156 0
141 147 0
135 142 0
147 153 0
148 154 0
144 150 0
144 150 0
143 149 0
141 147 0
141 149 0
132 136 0
139 144 0
144 150 0
140 144 0
147 152 0
140 147 0
144 151 0
142 149 0
149 156 0
150 158 0
152 158 0
138 143 0
147 153 0
147 151 0
139 145 0
151 159 0
146 152 0
152 156 0
148 157 0
146 153 0
148 155 0
148 155 0
148 157 0
157 165 0
156 166 0
146 152 0
157 167 0
152 161 0
149 154 0
149 158 0
152 160 0
152 162 0
153 160 0
154 165 0
146 153 0
150 158 0
157 168 0
154 163 0
162 181 0
158 177 0
157 175 0
157 176 0
159 178 0
160 180 0
162 181 0
155 173 0
158 177 0
158 176 0
156 174 0
163 181 0
155 172 0
159 178 0
161 179 0
153 171 0
149 167 0
155 173 0
161 179 0
153 171 0
155 173 0
156 174 0
157 175 0
156 174 0
149 167 0
153 169 0
159 177 0
153 171 0
154 171 0
157 175 0
153 171 0
154 172 0
151 169 0
159 177 0
153 170 0
145 162 0
149 167 0
154 172 0
144 160 0
151 168 0
154 172 0
144 160 0
148 166 0
150 167 0
145 162 0
149 166 0
153 171 0
149 166 0
147 165 0
145 162 0
148 165 0
141 159 0
150 166 0
147 165 0
141 157 0
151 168 0
151 168 0
149 167 0
147 164 0
145 162 0
154 173 0
149 167 0
150 168 0
146 163 0
144 161 0
145 162 0
141 159 0
143 162 0
147 166 0
145 164 0
148 167 0
143 162 0
151 169 0
145 163 0
146 164 0
149 166 0
144 161 0
149 168 0
143 160 0
142 162 0
144 163 0
149 168 0
149 168 0
155 174 0
149 169 0
143 163 0
143 161 0
144 163 0
148 168 0
146 166 0
147 165 0
148 167 0
144 163 0
150 170 0
151 172 0
148 167 0
145 165 0
153 172 0
148 168 0
143 163 0
144 164 0
148 168 0
143 164 0
142 163 0
141 161 0
147 167 0
141 161 0
143 162 0
148 169 0
139 159 0
149 168 0
143 164 0
143 163 0
146 166 0
145 166 0
146 166 0
139 158 0
138 159 0
144 164 0
143 164 0
146 167 0
148 167 0
149 171 0
146 167 0
150 170 0
136 156 0
143 164 0
142 163 0
144 164 0
145 166 0
133 153 0
135 155 0
143 162 0
147 169 0
142 164 0
141 161 0
145 166 0
146 167 0
149 170 0
139 160 0
141 162 0
138 159 0
143 165 0
144 164 0
137 157 0
153 173 0
141 161 0
150 172 0
143 163 0
135 156 0
138 160 0
141 162 0
141 163 0
141 163 0
145 166 0
139 160 0
138 158 0
143 164 0
143 164 0
139 161 0
137 157 0
139 160 0
142 162 0
138 158 0
142 162 0
142 164 0
130 150 0
134 155 0
146 168 0
146 167 0
142 163 0
137 160 0
132 154 0
139 160 0
136 157 0
141 162 0
134 153 0
131 152 0
129 150 0
132 153 0
133 154 0
147 169 0
134 155 0
138 159 0
139 159 0
138 159 0
138 159 0
132 153 0
140 161 0
135 156 0
127 148 0
125 146 0
134 154 0
125 146 0
143 164 0
146 167 0
137 157 0
138 159 0
142 163 0
141 161 0
142 163 0
143 163 0
141 163 0
128 149 0
139 160 0
133 152 0
126 147 0
135 157 0
138 157 0
129 149 0
138 158 0
143 163 0
137 158 0
139 158 0
129 150 0
138 158 0
145 166 0
131 151 0
133 154 0
137 156 0
128 148 0
134 155 0
131 151 0
143 162 0
131 150 0
132 150 0
137 157 0
134 154 0
138 157 0
136 155 0
137 158 0
143 162 0
140 160 0
141 160 0
143 163 0
133 153 0
137 156 0
139 160 0
134 153 0
135 155 0
142 161 0
132 150 0
137 155 0
141 160 0
140 160 0
149 169 0
139 157 0
141 160 0
142 159 0
136 154 0
139 157 0
140 159 0
136 154 0
145 165 0
143 162 0
137 155 0
135 154 0
138 158 0
139 158 0
141 160 0
143 159 0
143 159 0
148 167 0
139 155 0
141 159 0
137 153 0
145 162 0
144 163 0
140 160 0
152 171 0
142 160 0
139 158 0
135 155 0
142 159 0
133 151 0
142 161 0
138 156 0
137 154 0
136 155 0
142 159 0
150 165 0
136 151 0
149 166 0
144 160 0
141 157 0
137 153 0
143 158 0
144 161 0
142 159 0
142 157 0
131 143 0
142 157 0
141 158 0
137 151 0
151 166 0
135 148 0
139 153 0
145 160 0
145 159 0
146 161 0
145 162 0
140 154 0
144 160 0
137 150 0
143 157 0
139 154 0
146 160 0
145 159 0
147 162 0
141 153 0
139 151 0
131 142 0
140 154 0
144 156 0
144 158 0
140 151 0
137 149 0
151 163 0
146 156 0
138 150 0
142 152 0
143 155 0
138 151 0
134 144 0
136 146 0
148 159 0
142 154 0
142 152 0
136 144 0
132 142 0
140 149 0
148 158 0
140 150 0
142 152 0
140 150 0
138 142 0
143 152 0
134 141 0
146 157 0
134 140 0
143 152 0
138 145 0
142 149 0
141 149 0
139 145 0
140 151 0
138 144 0
144 148 0
144 150 0
143 149 0
144 152 0
148 157 0
148 154 0
145 152 0
138 144 0
137 143 0
143 148 0
148 154 0
143 150 0
143 152 0
147 156 0
143 149 0
135 139 0
144 148 0
145 150 0
153 158 0
142 149 0
140 144 0
146 153 0
152 162 0
145 150 0
155 164 0
153 160 0
147 157 0
149 155 0
147 154 0
141 144 0
145 152 0
150 159 0
149 158 0
146 154 0
150 160 0
146 154 0
147 155 0
153 160 0
148 158 0
145 155 0
155 163 0
149 157 0
152 161 0
153 163 0
150 162 0
149 159 0
154 163 0
154 164 0
155 165 0
162 171 0
156 167 0
155 165 0
155 162 0
164 183 0
161 180 0
159 178 0
164 183 0
156 175 0
163 183 0
162 180 0
162 182 0
156 174 0
158 176 0
156 176 0
159 177 0
156 175 0
160 179 0
158 177 0
160 179 0
157 174 0
150 168 0
157 176 0
158 177 0
154 171 0
157 176 0
157 176 0
149 167 0
155 173 0
154 171 0
153 170 0
154 172 0
152 169 0
155 173 0
154 171 0
153 171 0
150 168 0
151 167 0
151 168 0
154 171 0
154 172 0
155 173 0
150 168 0
154 171 0
146 163 0
147 164 0
153 170 0
148 166 0
144 161 0
149 168 0
144 161 0
150 167 0
151 169 0
144 161 0
146 164 0
149 166 0
153 170 0
152 170 0
140 156 0
146 163 0
153 170 0
150 168 0
145 162 0
146 163 0
155 172 0
143 161 0
152 170 0
152 170 0
152 170 0
145 162 0
144 162 0
153 171 0
151 170 0
149 167 0
146 164 0
155 174 0
144 161 0
145 163 0
143 162 0
145 164 0
150 168 0
153 172 0
143 162 0
146 165 0
145 163 0
149 168 0
141 160 0
147 165 0
143 161 0
143 162 0
149 169 0
140 157 0
149 168 0
140 160 0
140 160 0
150 169 0
150 171 0
138 158 0
152 172 0
142 162 0
138 158 0
141 161 0
140 160 0
151 172 0
150 171 0
150 169 0
142 162 0
147 167 0
150 171 0
146 164 0
142 162 0
145 164 0
145 164 0
140 159 0
151 171 0
145 166 0
138 158 0
145 165 0
154 176 0
143 163 0
147 167 0
145 165 0
150 171 0
149 170 0
147 168 0
146 166 0
148 169 0
146 167 0
147 169 0
146 167 0
139 160 0
142 162 0
146 167 0
149 171 0
148 168 0
132 152 0
140 161 0
145 165 0
142 163 0
140 161 0
147 167 0
142 163 0
148 168 0
141 162 0
142 162 0
144 166 0
135 156 0
144 164 0
136 158 0
132 153 0
140 161 0
147 168 0
133 154 0
146 166 0
137 159 0
144 165 0
147 169 0
147 168 0
140 161 0
142 163 0
136 157 0
142 163 0
141 162 0
144 165 0
142 163 0
131 152 0
142 164 0
137 158 0
145 166 0
136 158 0
145 165 0
144 166 0
135 154 0
130 149 0
137 158 0
137 158 0
137 158 0
132 152 0
139 161 0
140 161 0
141 160 0
146 166 0
137 159 0
134 156 0
131 151 0
141 163 0
139 158 0
137 158 0
138 159 0
141 161 0
138 161 0
141 163 0
139 160 0
139 159 0
130 150 0
142 162 0
151 171 0
141 161 0
130 151 0
146 166 0
123 143 0
133 153 0
133 153 0
139 160 0
131 151 0
132 154 0
142 162 0
140 160 0
132 151 0
138 158 0
140 161 0
141 161 0
142 161 0
135 156 0
141 163 0
131 150 0
137 158 0
136 154 0
135 155 0
141 162 0
137 157 0
135 154 0
144 164 0
136 156 0
141 159 0
136 154 0
141 161 0
139 159 0
131 151 0
130 149 0
142 161 0
130 149 0
129 147 0
135 156 0
139 158 0
143 163 0
139 160 0
133 151 0
131 149 0
144 164 0
142 161 0
131 149 0
145 165 0
125 144 0
134 152 0
143 161 0
143 162 0
137 158 0
139 159 0
137 156 0
142 160 0
149 169 0
137 155 0
139 158 0
140 159 0
133 151 0
138 156 0
135 151 0
135 154 0
146 164 0
135 155 0
146 165 0
134 152 0
141 158 0
137 155 0
141 159 0
141 159 0
142 159 0
150 169 0
138 157 0
131 148 0
147 164 0
144 162 0
147 166 0
148 166 0
144 160 0
134 150 0
147 164 0
142 161 0
141 154 0
141 157 0
144 162 0
146 163 0
127 143 0
140 159 0
140 159 0
141 160 0
140 157 0
143 161 0
144 163 0
141 158 0
136 151 0
145 161 0
139 153 0
143 160 0
145 161 0
135 151 0
150 166 0
143 156 0
140 155 0
141 157 0
140 151 0
133 148 0
139 153 0
137 149 0
146 160 0
139 153 0
143 157 0
146 161 0
138 151 0
147 159 0
143 156 0
145 160 0
139 153 0
141 155 0
143 155 0
134 147 0
145 157 0
137 149 0
141 154 0
143 154 0
134 146 0
134 144 0
152 164 0
130 140 0
145 156 0
147 159 0
142 154 0
145 155 0
143 154 0
138 147 0
135 146 0
140 150 0
138 148 0
141 150 0
141 152 0
140 148 0
140 149 0
146 154 0
139 150 0
144 157 0
139 151 0
147 158 0
152 162 0
137 145 0
144 153 0
146 152 0
141 151 0
145 152 0
140 146 0
144 153 0
141 149 0
140 145 0
148 156 0
137 144 0
143 151 0
143 152 0
140 148 0
139 144 0
151 160 0
147 156 0
144 152 0
145 154 0
147 155 0
150 158 0
140 146 0
143 150 0
144 151 0
141 150 0
143 149 0
142 147 0
149 155 0
146 154 0
150 160 0
145 152 0
134 141 0
146 151 0
152 158 0
148 156 0
153 163 0
153 162 0
147 157 0
140 148 0
152 159 0
146 151 0
157 165 0
147 155 0
145 152 0
146 154 0
149 157 0
150 159 0
158 167 0
152 160 0
142 152 0
151 158 0
152 162 0
156 164 0
148 155 0
155 166 0
155 168 0
151 161 0
153 163 0
154 166 0
150 161 0
163 182 0
156 174 0
159 178 0
158 177 0
162 181 0
161 180 0
156 174 0
154 171 0
155 173 0
157 175 0
152 170 0
159 179 0
150 167 0
165 184 0
161 179 0
154 172 0
161 179 0
161 180 0
157 176 0
156 174 0
156 174 0
155 172 0
162 181 0
157 174 0
156 173 0
150 167 0
156 174 0
153 171 0
152 169 0
154 172 0
156 174 0
153 170 0
154 172 0
153 170 0
156 174 0
150 166 0
158 177 0
154 171 0
160 179 0
146 163 0
154 172 0
145 164 0
144 161 0
152 170 0
153 172 0
150 168 0
151 170 0
150 168 0
148 166 0
152 170 0
153 171 0
148 167 0
156 175 0
153 170 0
157 175 0
144 162 0
144 162 0
153 171 0
143 161 0
146 165 0
149 167 0
151 169 0
153 171 0
147 165 0
150 169 0
149 168 0
151 169 0
150 167 0
150 169 0
151 169 0
145 163 0
147 166 0
147 166 0
148 168 0
147 166 0
144 163 0
146 166 0
152 171 0
146 165 0
148 167 0
149 168 0
150 169 0
147 166 0
150 170 0
150 170 0
151 170 0
149 168 0
147 166 0
155 175 0
142 162 0
148 167 0
139 158 0
157 177 0
144 165 0
151 171 0
140 160 0
151 171 0
147 166 0
146 165 0
146 166 0
149 170 0
145 165 0
152 173 0
147 167 0
146 167 0
150 171 0
141 161 0
146 165 0
146 166 0
149 170 0
146 166 0
150 170 0
152 172 0
137 158 0
145 166 0
146 167 0
143 162 0
147 168 0
145 165 0
151 172 0
144 165 0
151 172 0
144 165 0
144 166 0
144 165 0
147 168 0
137 157 0
146 167 0
139 159 0
147 168 0
145 167 0
142 163 0
142 160 0
147 167 0
151 172 0
152 173 0
140 160 0
156 177 0
139 160 0
140 160 0
142 164 0
140 161 0
148 169 0
149 171 0
147 169 0
134 155 0
140 161 0
149 171 0
149 169 0
146 167 0
149 171 0
142 163 0
133 154 0
141 162 0
138 160 0
141 161 0
144 165 0
134 154 0
150 171 0
138 158 0
146 167 0
138 159 0
134 155 0
137 158 0
138 159 0
151 171 0
134 155 0
140 161 0
140 162 0
141 161 0
137 158 0
140 161 0
140 161 0
138 160 0
138 159 0
140 161 0
135 155 0
140 159 0
136 156 0
135 155 0
138 159 0
140 162 0
138 157 0
134 155 0
148 168 0
132 154 0
132 153 0
139 160 0
142 162 0
138 159 0
137 155 0
137 158 0
148 169 0
136 157 0
142 162 0
141 161 0
132 151 0
138 160 0
139 161 0
136 156 0
141 162 0
143 164 0
141 162 0
141 163 0
138 159 0
139 160 0
137 156 0
142 163 0
133 152 0
136 155 0
135 154 0
133 153 0
140 160 0
139 159 0
136 157 0
133 152 0
135 155 0
136 156 0
131 151 0
132 150 0
128 148 0
137 157 0
141 160 0
148 169 0
145 165 0
142 163 0
139 159 0
145 165 0
137 157 0
136 153 0
133 153 0
142 163 0
129 148 0
132 152 0
140 160 0
134 152 0
139 159 0
142 162 0
150 169 0
139 159 0
139 159 0
147 166 0
137 156 0
135 155 0
134 154 0
140 160 0
141 159 0
141 160 0
143 161 0
135 152 0
141 161 0
138 159 0
148 168 0
147 165 0
146 164 0
140 159 0
142 159 0
135 154 0
139 157 0
148 166 0
145 162 0
134 152 0
141 158 0
147 167 0
143 161 0
145 164 0
148 166 0
143 161 0
137 155 0
138 155 0
144 164 0
140 157 0
139 157 0
144 163 0
146 165 0
145 162 0
141 160 0
144 163 0
144 161 0
141 159 0
140 156 0
148 165 0
137 153 0
138 156 0
143 158 0
137 152 0
137 152 0
139 156 0
142 158 0
137 153 0
140 156 0
144 160 0
146 162 0
144 158 0
150 166 0
137 151 0
141 157 0
146 160 0
149 166 0
137 151 0
145 160 0
143 158 0
146 161 0
140 152 0
144 157 0
142 155 0
143 155 0
136 151 0
147 161 0
137 151 0
147 160 0
147 160 0
135 148 0
133 144 0
144 155 0
148 161 0
144 156 0
150 165 0
145 160 0
146 161 0
155 167 0
143 155 0
144 156 0
144 154 0
137 150 0
140 147 0
145 155 0
143 153 0
148 160 0
139 148 0
138 148 0
148 160 0
141 152 0
144 155 0
145 155 0
149 162 0
148 159 0
157 169 0
154 164 0
149 160 0
148 159 0
137 147 0
139 145 0
139 149 0
144 154 0
139 146 0
146 156 0
147 155 0
132 138 0
145 156 0
144 152 0
143 150 0
141 149 0
143 149 0
150 158 0
137 144 0
147 156 0
141 149 0
141 148 0
152 161 0
145 151 0
131 137 0
134 139 0
147 151 0
145 154 0
143 150 0
145 154 0
144 152 0
151 158 0
144 151 0
150 156 0
150 156 0
153 161 0
140 147 0
145 151 0
143 150 0
144 151 0
148 159 0
149 159 0
148 156 0
153 162 0
146 156 0
150 160 0
145 149 0
152 161 0
150 158 0
153 162 0
149 156 0
152 161 0
147 155 0
154 161 0
156 165 0
143 151 0
152 163 0
150 159 0
153 163 0
153 161 0
154 162 0
150 159 0
155 164 0
160 178 0
162 181 0
161 180 0
154 174 0
164 183 0
151 169 0
156 174 0
154 172 0
159 178 0
157 176 0
159 177 0
157 175 0
160 179 0
157 174 0
154 171 0
150 167 0
163 182 0
154 173 0
159 177 0
156 174 0
155 172 0
154 171 0
151 169 0
152 170 0
159 179 0
152 170 0
150 167 0
160 178 0
155 174 0
153 170 0
149 167 0
155 174 0
147 165 0
146 164 0
148 165 0
152 171 0
148 164 0
153 171 0
154 173 0
152 170 0
154 171 0
152 169 0
147 166 0
154 172 0
146 164 0
153 172 0
150 168 0
152 170 0
152 171 0
151 168 0
153 170 0
146 163 0
155 173 0
150 167 0
154 172 0
146 166 0
149 168 0
151 171 0
149 168 0
153 171 0
153 171 0
147 166 0
148 168 0
147 166 0
151 169 0
145 163 0
155 175 0
146 164 0
153 173 0
151 170 0
148 167 0
147 166 0
150 168 0
152 170 0
151 170 0
144 163 0
150 170 0
154 173 0
153 171 0
149 168 0
148 166 0
148 167 0
142 160 0
147 166 0
144 164 0
145 164 0
148 168 0
149 169 0
143 162 0
151 170 0
148 168 0
143 162 0
138 158 0
141 161 0
152 172 0
147 167 0
144 164 0
146 165 0
149 170 0
150 170 0
144 164 0
149 171 0
144 164 0
143 164 0
152 172 0
149 171 0
146 166 0
146 167 0
137 157 0
145 166 0
149 168 0
146 167 0
156 177 0
149 170 0
143 163 0
145 166 0
146 167 0
148 169 0
150 171 0
146 167 0
144 164 0
145 166 0
141 163 0
142 164 0
140 161 0
147 169 0
148 169 0
146 168 0
153 173 0
154 175 0
144 165 0
142 164 0
144 164 0
140 161 0
148 169 0
150 172 0
138 159 0
147 169 0
146 168 0
140 160 0
137 159 0
145 167 0
142 162 0
156 178 0
141 162 0
143 163 0
148 169 0
146 167 0
148 168 0
134 155 0
139 159 0
139 160 0
144 166 0
138 159 0
140 161 0
145 166 0
142 164 0
141 162 0
143 163 0
139 159 0
135 156 0
145 166 0
143 164 0
148 170 0
151 173 0
143 165 0
147 169 0
138 159 0
144 165 0
141 162 0
139 159 0
137 157 0
141 161 0
140 161 0
136 156 0
135 156 0
134 156 0
139 160 0
134 155 0
137 158 0
139 160 0
142 161 0
141 162 0
136 155 0
150 172 0
143 164 0
128 148 0
138 159 0
141 161 0
144 164 0
129 149 0
147 167 0
140 161 0
131 153 0
134 156 0
142 164 0
138 157 0
137 157 0
133 154 0
132 152 0
148 167 0
141 163 0
154 174 0
144 164 0
140 160 0
146 166 0
146 165 0
128 147 0
144 166 0
136 155 0
137 158 0
135 155 0
131 150 0
143 162 0
143 164 0
131 150 0
138 158 0
141 161 0
144 163 0
140 161 0
141 161 0
139 161 0
142 163 0
145 164 0
137 157 0
138 157 0
135 156 0
137 155 0
149 169 0
142 161 0
141 161 0
143 162 0
138 157 0
130 150 0
130 149 0
148 168 0
144 164 0
148 167 0
137 157 0
143 162 0
138 157 0
140 159 0
140 159 0
141 160 0
139 159 0
135 156 0
149 169 0
134 151 0
138 157 0
143 161 0
142 162 0
147 166 0
139 159 0
146 165 0
142 162 0
142 161 0
135 153 0
146 166 0
140 158 0
142 160 0
140 158 0
142 161 0
145 164 0
147 165 0
142 161 0
141 160 0
139 155 0
140 159 0
142 160 0
133 151 0
150 168 0
138 156 0
139 157 0
146 161 0
149 166 0
139 159 0
136 153 0
143 162 0
146 163 0
130 144 0
139 157 0
134 149 0
143 161 0
140 156 0
146 165 0
143 160 0
144 163 0
150 167 0
138 152 0
146 161 0
139 154 0
146 164 0
136 152 0
137 152 0
147 165 0
148 166 0
147 162 0
141 157 0
137 151 0
142 155 0
146 160 0
133 147 0
143 156 0
146 161 0
139 153 0
141 155 0
144 158 0
141 151 0
146 161 0
139 156 0
140 152 0
145 158 0
148 163 0
146 157 0
149 164 0
147 159 0
139 153 0
148 160 0
146 159 0
137 147 0
139 151 0
142 153 0
145 160 0
142 155 0
139 152 0
145 158 0
132 139 0
142 153 0
142 153 0
139 150 0
146 156 0
147 157 0
143 154 0
145 157 0
142 152 0
142 150 0
153 166 0
134 140 0
137 147 0
143 156 0
148 160 0
144 153 0
146 153 0
141 152 0
148 157 0
150 159 0
140 147 0
141 149 0
139 147 0
142 150 0
146 155 0
145 155 0
144 152 0
145 154 0
145 155 0
140 148 0
140 148 0
142 146 0
149 156 0
148 155 0
141 146 0
144 151 0
140 148 0
138 143 0
145 155 0
147 154 0
145 155 0
153 165 0
141 148 0
149 156 0
148 158 0
145 153 0
150 159 0
153 162 0
151 159 0
144 150 0
154 166 0
143 152 0
147 155 0
153 164 0
153 163 0
148 158 0
149 155 0
145 155 0
149 159 0
153 162 0
154 161 0
145 154 0
150 160 0
149 158 0
154 163 0
155 166 0
155 163 0
150 157 0
144 153 0
151 159 0
154 163 0
150 161 0
153 162 0
155 167 0
157 176 0
161 180 0
162 181 0
161 180 0
153 172 0
155 174 0
159 178 0
158 177 0
162 181 0
154 172 0
155 172 0
162 181 0
156 175 0
157 175 0
160 178 0
157 175 0
156 175 0
153 171 0
161 180 0
154 173 0
159 178 0
157 176 0
157 175 0
160 179 0
154 172 0
150 168 0
152 170 0
158 176 0
157 175 0
150 168 0
160 178 0
162 180 0
149 166 0
155 173 0
155 173 0
156 174 0
146 163 0
153 170 0
149 167 0
150 168 0
149 167 0
151 169 0
151 169 0
153 172 0
158 176 0
147 165 0
151 170 0
152 170 0
158 177 0
150 168 0
149 167 0
151 169 0
148 167 0
154 174 0
152 170 0
156 174 0
149 167 0
150 168 0
153 172 0
145 163 0
147 165 0
147 165 0
154 173 0
152 170 0
146 165 0
150 169 0
143 162 0
152 173 0
152 171 0
151 170 0
151 169 0
150 169 0
149 169 0
151 170 0
145 163 0
144 163 0
152 171 0
151 170 0
148 167 0
142 162 0
150 168 0
149 168 0
141 160 0
153 172 0
153 172 0
157 178 0
149 170 0
139 159 0
144 163 0
154 174 0
153 173 0
153 174 0
144 164 0
149 169 0
142 162 0
146 166 0
150 171 0
138 158 0
145 165 0
154 175 0
150 171 0
154 175 0
142 163 0
150 169 0
147 167 0
141 162 0
145 166 0
150 171 0
142 162 0
141 161 0
150 171 0
148 169 0
143 165 0
144 166 0
153 174 0
147 168 0
148 169 0
143 163 0
140 161 0
139 160 0
148 168 0
150 171 0
146 166 0
141 161 0
152 172 0
151 172 0
145 165 0
139 160 0
146 167 0
141 161 0
141 162 0
151 172 0
144 165 0
151 172 0
139 159 0
132 153 0
148 169 0
140 160 0
145 166 0
135 155 0
142 162 0
142 164 0
145 166 0
141 162 0
145 166 0
147 169 0
143 165 0
146 168 0
140 162 0
149 170 0
139 159 0
144 166 0
145 166 0
149 171 0
136 157 0
147 167 0
142 163 0
145 166 0
141 162 0
141 163 0
137 159 0
147 168 0
138 158 0
143 164 0
140 161 0
141 163 0
143 163 0
139 160 0
144 165 0
138 159 0
139 160 0
137 157 0
142 163 0
141 161 0
141 164 0
149 171 0
143 164 0
140 160 0
144 166 0
142 163 0
147 168 0
136 156 0
138 157 0
140 163 0
141 162 0
144 165 0
134 154 0
132 151 0
149 169 0
135 156 0
133 153 0
138 158 0
143 165 0
141 162 0
143 163 0
143 165 0
130 151 0
135 156 0
122 140 0
135 155 0
145 166 0
145 165 0
137 157 0
144 165 0
141 161 0
131 151 0
143 163 0
143 165 0
142 163 0
144 165 0
135 156 0
137 158 0
143 164 0
141 162 0
143 166 0
130 152 0
140 159 0
144 163 0
138 158 0
142 161 0
144 165 0
141 161 0
139 161 0
140 160 0
136 156 0
128 149 0
138 159 0
132 152 0
139 159 0
137 156 0
142 160 0
141 160 0
133 152 0
145 166 0
141 159 0
137 156 0
142 161 0
138 157 0
148 167 0
141 162 0
136 156 0
144 162 0
142 160 0
141 161 0
139 157 0
138 157 0
140 161 0
134 153 0
142 161 0
147 166 0
139 159 0
143 162 0
138 155 0
145 165 0
136 155 0
140 160 0
139 159 0
146 166 0
145 165 0
140 159 0
138 156 0
132 151 0
141 161 0
139 158 0
140 157 0
150 170 0
143 162 0
142 160 0
133 151 0
137 154 0
134 153 0
143 162 0
138 154 0
130 149 0
143 162 0
142 161 0
143 162 0
147 164 0
138 156 0
138 155 0
144 162 0
144 162 0
140 157 0
153 169 0
146 165 0
145 162 0
130 145 0
130 146 0
146 163 0
141 157 0
142 158 0
139 154 0
144 161 0
145 162 0
136 151 0
145 160 0
141 155 0
148 166 0
149 165 0
147 163 0
136 152 0
149 166 0
148 162 0
149 166 0
146 161 0
145 159 0
145 158 0
136 150 0
140 155 0
150 164 0
147 161 0
139 153 0
140 153 0
141 155 0
139 154 0
137 152 0
142 155 0
144 156 0
147 159 0
146 159 0
140 153 0
147 161 0
146 160 0
142 154 0
136 148 0
139 155 0
139 149 0
140 149 0
144 157 0
142 152 0
146 160 0
136 148 0
144 156 0
146 158 0
148 159 0
148 158 0
134 142 0
138 147 0
154 165 0
146 154 0
141 150 0
136 147 0
141 150 0
138 150 0
148 158 0
151 162 0
143 152 0
138 147 0
142 151 0
146 155 0
148 156 0
146 157 0
139 147 0
141 148 0
146 156 0
145 154 0
146 155 0
144 152 0
148 157 0
142 149 0
150 162 0
144 151 0
141 146 0
147 157 0
145 154 0
142 152 0
145 151 0
144 153 0
144 151 0
142 150 0
141 150 0
154 165 0
146 153 0
147 156 0
142 150 0
143 152 0
144 152 0
152 158 0
148 157 0
150 158 0
151 161 0
156 164 0
145 154 0
148 154 0
151 161 0
154 164 0
146 154 0
157 169 0
152 163 0
148 158 0
154 162 0
155 167 0
149 157 0
150 159 0
150 160 0
151 161 0
154 160 0
150 159 0
151 160 0
149 157 0
157 177 0
159 178 0
162 181 0
156 174 0
160 178 0
158 177 0
158 177 0
159 178 0
159 178 0
160 179 0
152 170 0
159 177 0
155 173 0
156 173 0
157 175 0
156 174 0
157 176 0
150 168 0
155 174 0
156 174 0
155 173 0
159 178 0
152 170 0
156 174 0
153 172 0
154 171 0
156 175 0
156 174 0
156 175 0
152 169 0
154 172 0
152 170 0
153 173 0
155 174 0
153 170 0
152 171 0
149 166 0
150 167 0
154 173 0
158 177 0
142 160 0
156 174 0
151 169 0
147 165 0
153 171 0
151 168 0
154 173 0
148 165 0
144 163 0
152 170 0
154 172 0
148 166 0
150 169 0
150 169 0
152 170 0
150 169 0
148 166 0
157 176 0
150 169 0
149 169 0
147 166 0
150 169 0
150 169 0
155 174 0
150 169 0
149 168 0
149 168 0
147 166 0
150 169 0
147 167 0
148 167 0
150 169 0
153 172 0
150 169 0
148 166 0
150 170 0
150 169 0
149 169 0
146 166 0
145 164 0
150 170 0
152 172 0
152 173 0
145 164 0
149 168 0
145 164 0
153 173 0
150 171 0
149 168 0
155 175 0
150 170 0
146 167 0
149 170 0
149 169 0
149 169 0
147 167 0
147 168 0
142 162 0
145 165 0
142 162 0
149 168 0
151 172 0
153 174 0
145 165 0
145 166 0
143 163 0
152 173 0
162 183 0
146 167 0
145 167 0
151 172 0
148 168 0
144 166 0
147 168 0
153 175 0
142 162 0
141 161 0
140 161 0
147 167 0
146 168 0
146 168 0
140 161 0
146 167 0
143 163 0
142 163 0
141 162 0
145 166 0
145 166 0
143 164 0
153 174 0
149 169 0
149 170 0
149 172 0
141 162 0
149 171 0
141 163 0
149 170 0
152 174 0
147 169 0
145 166 0
147 169 0
148 169 0
138 158 0
143 164 0
146 167 0
143 163 0
138 159 0
141 163 0
140 161 0
143 164 0
141 162 0
145 166 0
143 164 0
140 161 0
145 167 0
143 164 0
149 170 0
139 160 0
141 162 0
138 159 0
140 162 0
143 164 0
143 164 0
136 156 0
149 171 0
147 170 0
137 157 0
141 162 0
147 168 0
140 162 0
139 159 0
140 162 0
146 167 0
142 163 0
142 164 0
145 167 0
145 166 0
148 168 0
144 165 0
138 159 0
140 162 0
137 158 0
143 165 0
130 151 0
149 170 0
130 151 0
142 163 0
144 165 0
141 162 0
142 163 0
138 158 0
142 162 0
137 158 0
139 160 0
134 154 0
143 163 0
141 162 0
135 156 0
137 159 0
138 157 0
143 165 0
140 159 0
138 157 0
138 160 0
139 160 0
138 160 0
138 160 0
138 159 0
148 169 0
144 163 0
141 161 0
132 151 0
147 169 0
143 164 0
141 164 0
152 173 0
134 154 0
142 161 0
135 155 0
134 154 0
139 160 0
138 157 0
133 153 0
130 151 0
148 168 0
140 160 0
144 166 0
144 165 0
137 157 0
139 158 0
132 150 0
143 163 0
139 159 0
130 150 0
144 163 0
140 159 0
139 157 0
141 162 0
140 159 0
137 158 0
133 152 0
136 156 0
139 160 0
138 156 0
137 156 0
146 165 0
146 167 0
145 163 0
145 165 0
149 169 0
143 162 0
139 158 0
141 161 0
139 159 0
138 157 0
150 171 0
138 158 0
145 164 0
143 163 0
139 157 0
147 167 0
145 163 0
143 159 0
141 160 0
144 165 0
135 153 0
147 165 0
146 167 0
141 160 0
143 161 0
139 158 0
141 159 0
138 156 0
135 152 0
142 161 0
150 169 0
144 163 0
147 164 0
143 162 0
141 162 0
141 161 0
138 155 0
143 160 0
146 164 0
141 158 0
140 156 0
137 156 0
148 166 0
145 160 0
145 161 0
139 153 0
143 159 0
148 166 0
141 158 0
143 159 0
150 165 0
148 164 0
140 157 0
144 160 0
136 150 0
152 167 0
141 155 0
143 157 0
141 156 0
142 158 0
145 161 0
142 157 0
139 150 0
144 156 0
146 162 0
142 158 0
139 153 0
145 159 0
145 158 0
148 163 0
142 154 0
141 155 0
139 152 0
138 149 0
142 152 0
150 162 0
140 155 0
140 153 0
150 161 0
141 154 0
135 146 0
146 156 0
146 157 0
141 153 0
150 163 0
144 158 0
147 158 0
144 156 0
137 150 0
146 159 0
147 156 0
137 149 0
138 148 0
144 153 0
150 161 0
142 152 0
143 153 0
149 160 0
142 150 0
148 161 0
146 154 0
153 165 0
145 156 0
149 160 0
149 160 0
144 155 0
141 148 0
147 159 0
145 156 0
146 156 0
147 156 0
142 152 0
141 152 0
155 167 0
143 151 0
143 152 0
147 156 0
142 150 0
147 158 0
148 157 0
148 157 0
148 157 0
149 158 0
152 162 0
152 158 0
148 156 0
150 160 0
147 155 0
149 158 0
149 157 0
152 161 0
153 164 0
145 153 0
144 151 0
147 154 0
155 165 0
147 153 0
155 162 0
148 156 0
148 156 0
148 156 0
153 160 0
154 166 0
154 165 0
151 157 0
147 156 0
152 163 0
145 154 0
152 162 0
152 160 0
152 163 0
151 158 0
158 168 0
155 165 0
156 163 0
161 180 0
162 180 0
158 177 0
163 183 0
161 180 0
163 183 0
156 175 0
162 181 0
157 176 0
155 173 0
154 172 0
156 173 0
158 178 0
152 171 0
160 178 0
156 174 0
158 177 0
155 174 0
158 175 0
157 175 0
154 173 0
155 173 0
155 173 0
159 178 0
150 168 0
156 174 0
156 174 0
156 174 0
159 178 0
154 173 0
154 172 0
153 171 0
156 175 0
155 174 0
152 170 0
157 175 0
148 166 0
153 172 0
161 180 0
150 167 0
151 169 0
154 171 0
143 161 0
154 173 0
154 173 0
155 175 0
152 171 0
153 171 0
152 170 0
150 169 0
150 169 0
147 165 0
148 167 0
150 168 0
153 171 0
150 170 0
155 174 0
153 173 0
145 163 0
148 165 0
146 165 0
144 163 0
155 174 0
154 173 0
145 164 0
148 168 0
151 170 0
145 164 0
155 174 0
156 176 0
151 170 0
148 168 0
153 173 0
148 167 0
152 172 0
145 163 0
151 171 0
144 164 0
148 167 0
145 164 0
149 169 0
152 171 0
142 162 0
149 169 0
153 173 0
147 167 0
148 168 0
154 175 0
147 168 0
149 169 0
144 163 0
153 174 0
152 173 0
161 182 0
154 175 0
149 169 0
146 167 0
151 171 0
142 162 0
136 156 0
147 167 0
157 177 0
149 170 0
146 166 0
153 174 0
145 165 0
150 170 0
145 166 0
153 174 0
138 158 0
142 163 0
145 165 0
153 174 0
138 158 0
136 156 0
150 171 0
135 154 0
148 169 0
152 173 0
153 174 0
148 170 0
151 173 0
153 174 0
147 167 0
148 170 0
142 162 0
145 166 0
131 152 0
144 165 0
145 167 0
142 164 0
145 166 0
137 158 0
145 165 0
153 174 0
153 172 0
142 164 0
150 170 0
140 161 0
145 165 0
151 173 0
137 158 0
148 169 0
149 170 0
146 167 0
141 162 0
140 161 0
147 168 0
150 172 0
145 165 0
147 168 0
134 155 0
149 169 0
148 169 0
150 170 0
137 158 0
149 170 0
144 164 0
147 169 0
143 164 0
138 159 0
141 163 0
146 167 0
144 165 0
141 162 0
143 163 0
141 161 0
147 168 0
142 164 0
145 167 0
138 158 0
147 168 0
136 157 0
148 169 0
140 161 0
137 159 0
141 161 0
139 159 0
136 157 0
147 168 0
136 156 0
140 161 0
149 170 0
143 164 0
143 164 0
136 157 0
143 165 0
143 164 0
140 160 0
138 159 0
136 156 0
150 171 0
134 155 0
138 158 0
143 164 0
139 161 0
145 166 0
148 169 0
144 165 0
138 158 0
151 173 0
144 164 0
135 156 0
136 156 0
147 168 0
145 166 0
133 152 0
151 171 0
139 159 0
142 162 0
148 169 0
144 163 0
145 166 0
138 158 0
129 150 0
144 163 0
140 160 0
130 150 0
147 168 0
143 164 0
144 164 0
141 161 0
140 160 0
145 165 0
137 156 0
153 173 0
131 149 0
145 166 0
150 170 0
136 156 0
140 160 0
137 156 0
142 163 0
143 165 0
141 161 0
145 166 0
146 164 0
136 156 0
136 156 0
147 168 0
134 151 0
147 167 0
142 162 0
137 157 0
146 165 0
142 161 0
139 159 0
138 156 0
142 160 0
131 150 0
145 165 0
152 172 0
144 161 0
143 163 0
143 163 0
146 167 0
140 159 0
149 168 0
139 158 0
149 169 0
142 159 0
146 167 0
139 155 0
144 163 0
143 160 0
145 162 0
145 164 0
142 162 0
144 162 0
147 165 0
145 164 0
148 167 0
148 165 0
143 159 0
143 163 0
141 159 0
141 160 0
151 167 0
148 166 0
152 169 0
143 161 0
143 160 0
143 160 0
146 164 0
139 156 0
133 150 0
145 159 0
145 162 0
144 161 0
135 153 0
144 163 0
149 166 0
141 157 0
152 170 0
140 156 0
141 158 0
146 162 0
131 146 0
152 167 0
144 161 0
148 162 0
151 168 0
146 163 0
140 156 0
146 163 0
146 160 0
149 166 0
145 161 0
140 154 0
146 163 0
147 163 0
145 159 0
150 166 0
154 168 0
143 157 0
144 157 0
136 150 0
139 149 0
149 164 0
142 153 0
141 156 0
146 160 0
149 164 0
138 149 0
147 159 0
144 157 0
142 154 0
141 155 0
143 156 0
142 155 0
150 162 0
145 155 0
150 163 0
145 157 0
139 151 0
138 150 0
140 153 0
144 155 0
151 164 0
143 155 0
152 166 0
143 154 0
146 154 0
140 153 0
144 154 0
150 161 0
145 158 0
130 141 0
146 152 0
149 159 0
149 161 0
146 159 0
146 158 0
144 157 0
152 162 0
150 162 0
143 152 0
145 156 0
151 163 0
149 160 0
147 155 0
151 161 0
146 157 0
150 161 0
146 155 0
146 154 0
150 160 0
142 149 0
150 160 0
143 153 0
147 157 0
146 156 0
148 158 0
147 155 0
154 164 0
146 156 0
153 164 0
151 161 0
153 163 0
151 158 0
145 152 0
155 166 0
151 162 0
156 165 0
151 160 0
150 157 0
151 159 0
145 154 0
149 158 0
154 164 0
159 168 0
143 149 0
154 165 0
153 164 0
159 170 0
149 159 0
155 163 0
160 173 0
152 162 0
151 160 0
158 176 0
158 177 0
162 181 0
161 180 0
157 176 0
163 183 0
155 174 0
164 182 0
159 178 0
156 175 0
158 176 0
155 172 0
156 175 0
159 177 0
156 174 0
152 170 0
155 174 0
152 171 0
155 174 0
157 175 0
159 178 0
157 174 0
157 176 0
156 175 0
155 174 0
153 172 0
159 177 0
156 174 0
150 167 0
154 172 0
152 171 0
162 180 0
152 171 0
153 171 0
158 176 0
156 175 0
154 173 0
148 167 0
154 171 0
156 174 0
150 169 0
149 167 0
149 167 0
152 170 0
159 178 0
151 170 0
156 175 0
154 172 0
151 169 0
155 174 0
155 175 0
153 171 0
152 171 0
154 172 0
159 179 0
159 179 0
153 172 0
148 167 0
155 174 0
147 166 0
155 174 0
152 171 0
156 175 0
155 175 0
150 170 0
155 174 0
148 166 0
151 170 0
149 168 0
152 173 0
151 171 0
146 166 0
153 173 0
148 168 0
148 168 0
151 170 0
152 172 0
144 164 0
157 178 0
149 169 0
150 170 0
151 171 0
151 172 0
155 175 0
150 169 0
158 179 0
153 173 0
144 165 0
146 166 0
159 179 0
147 167 0
135 154 0
148 168 0
147 167 0
150 171 0
145 164 0
144 164 0
149 170 0
153 174 0
151 171 0
158 179 0
154 176 0
149 169 0
145 165 0
144 165 0
149 170 0
152 173 0
146 167 0
150 170 0
149 169 0
146 167 0
149 170 0
149 170 0
145 166 0
146 167 0
150 170 0
151 172 0
153 174 0
149 170 0
153 173 0
135 156 0
147 168 0
144 164 0
150 172 0
157 179 0
154 175 0
149 170 0
151 173 0
146 166 0
144 165 0
151 173 0
156 178 0
145 166 0
147 169 0
151 172 0
150 171 0
149 170 0
147 168 0
145 167 0
140 162 0
148 169 0
147 169 0
145 166 0
149 170 0
143 165 0
150 172 0
148 172 0
138 160 0
147 168 0
143 165 0
141 162 0
147 168 0
151 172 0
142 163 0
144 166 0
135 156 0
145 166 0
135 156 0
142 163 0
133 154 0
145 166 0
137 157 0
148 170 0
148 169 0
138 159 0
149 170 0
143 164 0
146 168 0
142 163 0
145 167 0
151 174 0
141 163 0
137 158 0
145 165 0
141 163 0
140 161 0
144 165 0
139 160 0
145 166 0
147 170 0
147 169 0
140 162 0
145 165 0
138 157 0
140 161 0
142 163 0
140 160 0
140 159 0
135 156 0
139 160 0
137 158 0
150 172 0
138 160 0
149 170 0
143 166 0
141 163 0
133 154 0
146 167 0
140 160 0
136 156 0
139 160 0
148 168 0
141 162 0
141 161 0
135 154 0
136 156 0
143 164 0
140 162 0
135 155 0
144 164 0
138 158 0
146 166 0
135 155 0
143 162 0
136 156 0
138 158 0
137 157 0
143 163 0
144 165 0
140 160 0
138 158 0
135 154 0
139 160 0
143 162 0
136 155 0
147 167 0
138 158 0
143 164 0
139 158 0
143 163 0
136 154 0
136 156 0
146 165 0
137 156 0
153 173 0
137 157 0
151 172 0
148 169 0
144 165 0
146 166 0
145 164 0
139 160 0
148 166 0
139 159 0
136 153 0
148 166 0
145 167 0
145 166 0
135 155 0
146 166 0
141 161 0
143 162 0
142 161 0
154 175 0
145 165 0
137 153 0
148 166 0
145 166 0
150 171 0
147 165 0
145 165 0
146 165 0
137 155 0
138 156 0
139 158 0
141 157 0
141 159 0
151 171 0
145 164 0
146 164 0
141 161 0
135 153 0
144 163 0
150 169 0
145 164 0
149 168 0
150 169 0
152 170 0
144 164 0
146 164 0
150 170 0
141 158 0
146 164 0
144 163 0
153 171 0
138 153 0
137 153 0
139 157 0
144 160 0
147 165 0
148 166 0
142 159 0
145 163 0
151 168 0
146 162 0
147 164 0
147 163 0
149 166 0
144 160 0
149 166 0
149 164 0
138 155 0
141 156 0
137 155 0
142 158 0
147 165 0
145 161 0
146 160 0
143 157 0
147 163 0
142 158 0
141 157 0
142 157 0
146 161 0
140 154 0
144 161 0
143 158 0
144 158 0
147 159 0
148 160 0
147 162 0
138 153 0
143 157 0
147 159 0
148 161 0
152 164 0
144 157 0
142 156 0
144 159 0
150 164 0
143 155 0
142 155 0
147 161 0
141 154 0
149 163 0
146 157 0
149 160 0
150 162 0
149 161 0
143 154 0
153 166 0
154 166 0
141 151 0
145 155 0
142 154 0
145 155 0
141 150 0
154 166 0
141 152 0
149 161 0
147 155 0
147 157 0
152 164 0
150 161 0
149 160 0
149 159 0
145 155 0
151 160 0
151 161 0
155 167 0
144 154 0
145 155 0
144 154 0
146 156 0
142 151 0
148 156 0
142 151 0
149 158 0
143 150 0
148 158 0
140 149 0
147 156 0
152 162 0
150 160 0
145 152 0
149 157 0
150 159 0
149 158 0
151 160 0
149 158 0
147 155 0
149 158 0
153 162 0
148 157 0
149 158 0
154 162 0
149 158 0
150 158 0
152 160 0
159 172 0
156 164 0
140 149 0
146 154 0
162 175 0
145 152 0
153 160 0
151 161 0
146 154 0
155 166 0
160 171 0
162 181 0
162 181 0
156 174 0
161 180 0
161 180 0
161 181 0
160 178 0
159 178 0
158 177 0
156 175 0
150 168 0
154 173 0
158 177 0
158 177 0
163 182 0
155 173 0
154 173 0
157 176 0
155 175 0
161 180 0
154 172 0
153 172 0
160 178 0
155 174 0
153 171 0
158 177 0
161 180 0
156 175 0
154 172 0
158 176 0
159 177 0
155 173 0
157 177 0
149 167 0
155 174 0
155 174 0
158 176 0
154 173 0
148 167 0
145 163 0
154 173 0
157 177 0
143 161 0
153 172 0
147 165 0
154 174 0
152 170 0
151 170 0
146 164 0
150 168 0
154 174 0
149 168 0
154 174 0
153 172 0
152 171 0
151 171 0
153 172 0
150 170 0
154 174 0
148 167 0
150 169 0
150 169 0
153 172 0
150 170 0
148 167 0
154 173 0
144 163 0
147 166 0
148 168 0
153 173 0
153 172 0
148 168 0
135 154 0
151 171 0
154 175 0
158 177 0
149 169 0
148 168 0
147 166 0
150 170 0
143 162 0
153 173 0
149 169 0
148 168 0
151 173 0
146 165 0
150 171 0
152 171 0
149 169 0
159 179 0
153 175 0
153 174 0
154 175 0
150 171 0
152 173 0
149 170 0
154 173 0
139 159 0
143 163 0
144 164 0
141 161 0
148 168 0
148 169 0
148 168 0
151 172 0
157 178 0
145 167 0
147 167 0
143 164 0
148 167 0
155 176 0
144 165 0
139 160 0
145 166 0
145 167 0
148 170 0
147 167 0
148 170 0
138 158 0
149 170 0
142 162 0
150 172 0
148 170 0
153 175 0
159 180 0
149 171 0
149 170 0
146 167 0
153 176 0
145 168 0
149 171 0
150 171 0
147 168 0
146 168 0
150 171 0
146 168 0
143 165 0
146 168 0
154 175 0
140 161 0
148 169 0
140 161 0
138 160 0
144 165 0
142 164 0
148 170 0
140 160 0
141 161 0
145 167 0
140 163 0
153 174 0
150 172 0
143 164 0
151 172 0
143 164 0
149 170 0
147 169 0
145 166 0
144 165 0
139 160 0
149 171 0
136 156 0
143 164 0
143 164 0
143 165 0
143 163 0
143 164 0
146 167 0
147 169 0
146 167 0
151 173 0
136 157 0
147 168 0
145 166 0
138 159 0
149 169 0
138 159 0
142 163 0
134 154 0
139 159 0
149 170 0
137 158 0
150 171 0
136 157 0
141 161 0
143 164 0
140 161 0
144 166 0
133 153 0
143 164 0
139 159 0
155 177 0
143 164 0
140 161 0
147 168 0
143 165 0
148 169 0
147 169 0
138 159 0
150 171 0
151 173 0
144 164 0
142 163 0
135 155 0
136 157 0
135 156 0
135 154 0
142 162 0
145 165 0
141 161 0
145 167 0
141 162 0
134 154 0
134 155 0
137 158 0
136 154 0
148 168 0
140 160 0
147 166 0
145 166 0
142 162 0
141 160 0
144 165 0
139 159 0
138 158 0
141 159 0
145 165 0
153 173 0
142 163 0
139 158 0
139 160 0
139 160 0
144 164 0
144 162 0
144 165 0
137 155 0
144 165 0
143 163 0
144 165 0
141 162 0
141 160 0
145 165 0
140 159 0
149 169 0
143 161 0
152 174 0
140 159 0
149 169 0
148 167 0
137 157 0
148 168 0
143 163 0
147 168 0
144 163 0
140 158 0
153 174 0
139 158 0
141 161 0
146 166 0
138 154 0
145 164 0
148 166 0
151 171 0
143 162 0
143 164 0
140 160 0
143 162 0
148 165 0
147 164 0
146 165 0
137 155 0
146 164 0
149 167 0
143 159 0
140 159 0
137 156 0
147 168 0
143 161 0
151 169 0
150 168 0
140 159 0
145 162 0
149 167 0
143 162 0
145 160 0
141 159 0
145 163 0
149 167 0
148 166 0
149 165 0
148 166 0
145 160 0
144 161 0
142 159 0
139 157 0
145 162 0
146 161 0
144 161 0
137 154 0
148 165 0
140 155 0
147 164 0
146 163 0
141 156 0
149 164 0
138 152 0
143 157 0
156 174 0
139 154 0
144 161 0
149 166 0
151 165 0
151 166 0
146 163 0
140 156 0
147 161 0
146 160 0
143 158 0
154 169 0
149 163 0
143 157 0
147 163 0
156 171 0
148 163 0
146 160 0
136 147 0
147 160 0
147 162 0
150 161 0
146 158 0
141 154 0
143 155 0
151 164 0
142 155 0
146 159 0
149 162 0
151 167 0
149 162 0
151 164 0
141 152 0
147 158 0
150 162 0
149 162 0
148 161 0
148 159 0
144 154 0
143 155 0
145 155 0
144 157 0
149 161 0
141 151 0
152 165 0
148 161 0
147 158 0
147 159 0
148 158 0
146 155 0
138 148 0
145 155 0
149 161 0
150 162 0
143 150 0
148 159 0
152 162 0
148 158 0
146 160 0
148 158 0
148 157 0
142 151 0
146 157 0
156 164 0
151 161 0
154 166 0
154 165 0
145 155 0
147 155 0
146 156 0
153 163 0
147 157 0
151 159 0
148 158 0
151 163 0
155 166 0
153 163 0
148 157 0
152 160 0
155 163 0
153 165 0
150 157 0
156 165 0
153 164 0
152 159 0
153 163 0
150 162 0
151 161 0
150 161 0
156 166 0
156 168 0
151 160 0
153 165 0
161 180 0
154 172 0
163 181 0
157 176 0
163 182 0
158 178 0
155 174 0
159 178 0
158 176 0
163 182 0
155 174 0
161 180 0
158 177 0
155 174 0
157 175 0
157 176 0
160 179 0
158 177 0
155 174 0
157 176 0
157 176 0
159 178 0
153 172 0
157 175 0
157 176 0
157 175 0
157 176 0
156 175 0
156 174 0
153 171 0
159 178 0
162 180 0
154 173 0
156 175 0
147 166 0
154 174 0
159 177 0
161 181 0
154 172 0
156 175 0
149 166 0
159 177 0
152 172 0
154 174 0
164 183 0
153 171 0
158 178 0
147 166 0
153 172 0
157 177 0
152 172 0
150 169 0
151 171 0
143 163 0
154 172 0
149 167 0
148 166 0
150 170 0
152 172 0
153 174 0
153 174 0
151 171 0
151 170 0
146 165 0
155 174 0
157 177 0
146 166 0
156 177 0
141 160 0
151 170 0
153 174 0
145 164 0
151 169 0
150 170 0
153 172 0
152 171 0
144 163 0
150 169 0
151 171 0
149 169 0
156 176 0
151 171 0
149 169 0
148 167 0
156 177 0
152 173 0
148 167 0
150 170 0
147 167 0
149 169 0
142 163 0
146 166 0
153 174 0
152 172 0
151 171 0
145 165 0
144 165 0
152 172 0
155 177 0
146 165 0
143 163 0
155 176 0
148 169 0
155 176 0
153 175 0
149 169 0
153 173 0
145 166 0
156 177 0
146 166 0
153 175 0
147 168 0
152 173 0
150 170 0
151 173 0
151 174 0
144 165 0
153 175 0
151 172 0
151 173 0
153 175 0
143 164 0
147 168 0
151 172 0
149 171 0
152 172 0
150 172 0
148 170 0
148 169 0
152 173 0
145 166 0
145 168 0
143 164 0
151 172 0
150 172 0
146 169 0
149 170 0
143 164 0
145 167 0
146 168 0
149 171 0
147 169 0
151 173 0
142 163 0
143 164 0
142 164 0
150 172 0
148 168 0
144 165 0
136 158 0
148 169 0
152 173 0
143 165 0
150 172 0
143 165 0
145 166 0
148 168 0
138 160 0
142 164 0
147 168 0
143 164 0
143 164 0
139 162 0
142 164 0
151 172 0
149 171 0
137 158 0
147 169 0
145 166 0
144 166 0
160 181 0
141 161 0
147 167 0
136 156 0
137 158 0
138 160 0
147 169 0
137 159 0
145 166 0
146 167 0
142 164 0
149 170 0
148 168 0
148 170 0
142 164 0
148 170 0
143 165 0
140 160 0
144 165 0
136 157 0
145 166 0
145 167 0
144 167 0
144 164 0
134 154 0
139 160 0
136 158 0
143 165 0
143 165 0
144 166 0
135 155 0
144 166 0
145 166 0
143 165 0
146 167 0
134 154 0
142 161 0
149 170 0
140 162 0
135 155 0
129 149 0
139 160 0
139 158 0
143 164 0
141 163 0
141 161 0
143 163 0
149 170 0
144 165 0
139 158 0
146 167 0
133 153 0
146 167 0
134 156 0
138 158 0
140 160 0
143 164 0
142 163 0
141 161 0
140 159 0
146 165 0
141 161 0
142 162 0
150 171 0
144 164 0
145 165 0
141 161 0
139 158 0
142 162 0
137 156 0
145 166 0
151 171 0
149 170 0
145 165 0
144 164 0
146 166 0
140 159 0
142 161 0
141 160 0
142 161 0
148 166 0
143 163 0
146 166 0
144 165 0
144 162 0
147 166 0
143 163 0
142 160 0
151 170 0
151 172 0
144 162 0
149 168 0
137 154 0
148 168 0
143 161 0
146 167 0
145 165 0
147 167 0
144 163 0
142 160 0
142 160 0
135 151 0
146 165 0
146 165 0
147 166 0
148 165 0
137 156 0
136 154 0
146 164 0
154 171 0
138 155 0
147 167 0
146 166 0
148 167 0
141 158 0
148 166 0
151 169 0
150 168 0
147 165 0
146 163 0
139 156 0
145 162 0
148 166 0
145 162 0
147 165 0
144 162 0
138 153 0
145 162 0
149 165 0
148 165 0
148 164 0
147 165 0
146 162 0
149 165 0
150 167 0
148 163 0
139 153 0
141 156 0
139 151 0
148 165 0
147 162 0
144 158 0
143 159 0
145 160 0
146 160 0
148 164 0
139 152 0
144 160 0
153 168 0
140 154 0
148 164 0
150 164 0
148 163 0
144 158 0
143 157 0
147 162 0
146 161 0
134 148 0
143 157 0
140 150 0
145 157 0
143 158 0
150 165 0
149 164 0
149 163 0
145 160 0
152 165 0
146 160 0
151 166 0
149 162 0
148 161 0
154 168 0
136 149 0
141 153 0
148 159 0
148 161 0
151 164 0
150 161 0
150 160 0
145 155 0
144 157 0
147 160 0
153 167 0
145 155 0
146 158 0
155 168 0
145 156 0
148 159 0
149 161 0
145 155 0
154 168 0
147 160 0
150 158 0
151 163 0
150 160 0
141 151 0
156 167 0
148 157 0
149 161 0
151 163 0
152 163 0
151 161 0
153 163 0
149 158 0
154 165 0
153 164 0
154 163 0
147 157 0
146 155 0
147 158 0
151 157 0
153 163 0
149 158 0
156 167 0
153 164 0
141 150 0
155 165 0
148 158 0
159 168 0
156 167 0
152 161 0
150 160 0
154 162 0
160 174 0
158 167 0
153 164 0
148 158 0
150 158 0
152 159 0
153 163 0
158 176 0
159 178 0
157 175 0
158 177 0
159 177 0
160 179 0
160 179 0
159 179 0
159 178 0
158 176 0
154 173 0
157 176 0
159 177 0
153 172 0
158 177 0
160 179 0
154 173 0
155 174 0
159 178 0
156 174 0
157 175 0
154 173 0
157 176 0
154 172 0
157 177 0
157 176 0
151 169 0
158 178 0
154 172 0
156 175 0
156 175 0
158 177 0
158 178 0
157 176 0
155 174 0
152 171 0
161 181 0
151 171 0
157 175 0
161 181 0
154 173 0
153 171 0
155 173 0
157 177 0
156 174 0
151 169 0
148 166 0
150 169 0
146 164 0
153 172 0
151 170 0
150 171 0
153 172 0
150 170 0
151 170 0
160 181 0
146 165 0
155 174 0
156 175 0
147 168 0
151 169 0
154 174 0
145 165 0
154 175 0
150 168 0
157 177 0
154 173 0
147 167 0
147 167 0
149 169 0
154 175 0
156 175 0
141 161 0
154 175 0
152 173 0
155 176 0
148 167 0
143 163 0
146 166 0
148 168 0
148 167 0
152 172 0
151 172 0
148 169 0
154 173 0
152 174 0
152 172 0
153 173 0
154 175 0
147 167 0
142 161 0
147 167 0
151 173 0
155 175 0
161 182 0
150 171 0
152 173 0
147 169 0
146 168 0
153 173 0
152 172 0
153 174 0
146 166 0
144 165 0
155 176 0
148 169 0
145 166 0
152 173 0
146 167 0
144 165 0
151 174 0
142 163 0
147 169 0
157 178 0
142 163 0
154 174 0
150 172 0
143 165 0
157 180 0
144 167 0
148 170 0
148 169 0
151 172 0
153 174 0
137 159 0
144 166 0
150 170 0
153 175 0
152 174 0
148 169 0
148 169 0
153 175 0
151 172 0
144 165 0
147 167 0
151 173 0
150 172 0
151 174 0
148 170 0
148 170 0
137 159 0
144 166 0
145 166 0
140 161 0
141 162 0
150 170 0
145 167 0
148 169 0
148 169 0
140 162 0
149 171 0
148 170 0
146 166 0
145 166 0
149 170 0
134 156 0
149 170 0
150 172 0
149 172 0
142 165 0
149 171 0
146 167 0
142 164 0
142 163 0
132 152 0
146 169 0
147 168 0
139 161 0
149 172 0
141 162 0
142 164 0
147 169 0
144 166 0
147 168 0
151 172 0
148 170 0
149 170 0
148 170 0
143 165 0
136 158 0
146 167 0
144 166 0
151 173 0
147 169 0
151 171 0
135 156 0
139 160 0
141 160 0
143 164 0
145 165 0
140 162 0
147 169 0
148 169 0
137 158 0
139 160 0
147 168 0
145 166 0
140 161 0
122 142 0
143 164 0
136 158 0
143 163 0
146 168 0
144 165 0
139 160 0
139 160 0
145 163 0
141 161 0
140 161 0
146 168 0
135 155 0
149 171 0
136 156 0
139 160 0
145 166 0
145 165 0
146 167 0
138 159 0
136 156 0
139 159 0
145 164 0
139 159 0
143 165 0
148 169 0
151 171 0
145 165 0
149 170 0
141 161 0
144 164 0
143 163 0
151 173 0
138 158 0
151 172 0
141 161 0
138 157 0
144 164 0
151 171 0
156 176 0
149 169 0
140 159 0
147 167 0
142 161 0
151 172 0
144 164 0
150 170 0
139 159 0
149 168 0
148 168 0
144 163 0
148 169 0
146 168 0
146 167 0
146 165 0
143 162 0
143 161 0
140 158 0
149 168 0
144 164 0
148 166 0
148 169 0
142 162 0
147 166 0
147 165 0
143 160 0
150 170 0
142 161 0
144 164 0
146 165 0
148 167 0
145 165 0
137 156 0
146 163 0
148 167 0
150 169 0
151 169 0
149 166 0
141 157 0
147 165 0
148 167 0
141 156 0
148 165 0
150 170 0
149 168 0
138 155 0
149 168 0
147 167 0
149 167 0
145 162 0
138 155 0
150 168 0
154 172 0
143 163 0
149 169 0
146 163 0
150 166 0
148 165 0
142 158 0
153 170 0
143 160 0
151 169 0
152 168 0
143 161 0
143 161 0
154 171 0
145 161 0
145 161 0
145 161 0
150 166 0
146 162 0
149 167 0
152 171 0
146 160 0
148 164 0
151 167 0
145 161 0
143 156 0
147 164 0
147 163 0
149 165 0
150 165 0
145 158 0
145 158 0
148 163 0
155 168 0
142 157 0
140 152 0
151 166 0
147 163 0
144 159 0
145 158 0
151 165 0
143 158 0
146 159 0
146 158 0
146 160 0
149 162 0
147 160 0
150 163 0
144 155 0
139 150 0
144 155 0
150 161 0
148 159 0
157 172 0
151 163 0
145 157 0
146 157 0
152 166 0
144 154 0
147 161 0
150 163 0
152 164 0
149 161 0
140 152 0
149 161 0
146 158 0
147 158 0
149 160 0
146 157 0
144 151 0
144 155 0
145 157 0
150 164 0
152 162 0
153 164 0
152 159 0
149 161 0
148 159 0
142 153 0
154 165 0
147 157 0
148 158 0
150 161 0
143 151 0
150 164 0
144 153 0
150 158 0
144 152 0
148 157 0
147 154 0
149 158 0
151 162 0
154 163 0
156 167 0
148 161 0
150 160 0
154 163 0
149 158 0
143 152 0
152 161 0
154 162 0
155 165 0
149 158 0
148 157 0
147 160 0
157 169 0
148 157 0
156 168 0
154 162 0
154 164 0
161 180 0
156 175 0
160 180 0
160 179 0
157 176 0
159 178 0
158 178 0
164 183 0
160 180 0
159 179 0
157 176 0
158 177 0
158 176 0
158 177 0
149 167 0
148 166 0
155 175 0
158 178 0
150 170 0
151 171 0
156 175 0
158 178 0
157 176 0
156 175 0
155 173 0
160 179 0
152 171 0
154 174 0
151 170 0
156 176 0
154 173 0
156 176 0
158 176 0
153 172 0
154 172 0
152 171 0
151 171 0
158 178 0
154 173 0
153 171 0
159 178 0
154 173 0
144 162 0
156 176 0
150 169 0
150 169 0
153 173 0
149 167 0
154 174 0
156 176 0
158 178 0
155 175 0
155 175 0
157 178 0
158 178 0
154 173 0
154 174 0
151 171 0
154 174 0
153 173 0
149 169 0
157 177 0
156 177 0
150 170 0
153 174 0
152 172 0
150 168 0
160 182 0
155 175 0
153 174 0
150 170 0
154 174 0
148 167 0
148 168 0
154 173 0
154 175 0
147 167 0
152 171 0
153 174 0
149 170 0
154 174 0
146 167 0
144 163 0
153 173 0
150 171 0
151 172 0
146 166 0
154 175 0
155 176 0
155 176 0
152 173 0
149 169 0
147 169 0
149 170 0
150 170 0
144 165 0
157 177 0
159 179 0
147 167 0
147 167 0
154 175 0
141 162 0
153 173 0
146 166 0
150 172 0
148 168 0
154 175 0
151 172 0
153 174 0
142 163 0
143 164 0
152 173 0
151 173 0
150 171 0
148 170 0
148 169 0
142 164 0
150 172 0
141 162 0
153 174 0
155 177 0
148 171 0
151 173 0
151 173 0
142 163 0
152 174 0
145 167 0
149 170 0
145 166 0
156 177 0
150 173 0
156 179 0
142 164 0
146 167 0
137 158 0
151 172 0
152 174 0
148 169 0
157 179 0
140 161 0
141 163 0
145 167 0
149 170 0
148 171 0
152 174 0
154 176 0
142 162 0
143 164 0
150 172 0
152 174 0
143 165 0
148 169 0
143 164 0
152 173 0
149 170 0
152 174 0
149 171 0
149 170 0
150 172 0
145 168 0
143 164 0
143 163 0
149 171 0
138 159 0
147 168 0
153 175 0
147 170 0
149 171 0
147 168 0
151 172 0
140 163 0
145 165 0
145 167 0
150 172 0
147 169 0
141 162 0
147 168 0
148 169 0
145 167 0
139 159 0
146 168 0
144 166 0
144 165 0
141 163 0
144 165 0
146 167 0
143 164 0
148 169 0
144 166 0
142 164 0
141 163 0
148 170 0
141 161 0
145 165 0
145 166 0
141 164 0
146 168 0
146 167 0
146 165 0
148 168 0
146 166 0
147 168 0
141 163 0
142 164 0
142 164 0
145 165 0
143 163 0
149 169 0
139 161 0
144 166 0
145 167 0
139 160 0
148 170 0
151 171 0
142 162 0
145 167 0
153 173 0
141 161 0
139 159 0
146 166 0
135 155 0
153 174 0
150 170 0
145 165 0
148 169 0
133 153 0
145 166 0
141 161 0
144 164 0
146 166 0
133 154 0
150 171 0
140 161 0
135 156 0
143 164 0
136 155 0
146 166 0
154 173 0
140 160 0
149 168 0
143 162 0
137 155 0
147 168 0
150 170 0
152 173 0
149 168 0
151 169 0
144 165 0
144 164 0
140 159 0
144 165 0
146 166 0
149 169 0
145 164 0
135 156 0
146 167 0
141 163 0
147 167 0
141 160 0
146 164 0
148 168 0
141 160 0
145 166 0
145 165 0
150 170 0
149 168 0
148 169 0
144 163 0
139 159 0
149 169 0
143 164 0
153 172 0
152 171 0
146 164 0
150 169 0
143 162 0
151 169 0
145 165 0
146 166 0
147 166 0
146 164 0
147 166 0
148 166 0
139 156 0
146 164 0
144 160 0
141 158 0
148 165 0
147 163 0
148 168 0
156 173 0
147 164 0
150 169 0
153 171 0
151 170 0
152 170 0
151 171 0
152 170 0
147 164 0
145 161 0
155 173 0
148 163 0
136 153 0
146 162 0
148 165 0
148 164 0
145 162 0
148 164 0
148 164 0
146 164 0
133 148 0
150 164 0
143 158 0
146 163 0
148 164 0
145 160 0
144 162 0
145 160 0
155 171 0
151 166 0
152 170 0
143 154 0
148 166 0
148 164 0
141 155 0
154 170 0
141 155 0
151 166 0
147 162 0
142 156 0
142 156 0
148 161 0
144 159 0
143 158 0
140 154 0
150 164 0
142 155 0
145 159 0
145 155 0
149 163 0
153 168 0
150 165 0
150 164 0
154 169 0
144 158 0
147 159 0
154 168 0
147 158 0
150 162 0
147 159 0
148 160 0
154 168 0
147 160 0
141 152 0
150 162 0
154 165 0
144 154 0
147 159 0
150 163 0
152 164 0
147 159 0
148 158 0
146 155 0
138 148 0
153 164 0
145 158 0
154 167 0
152 165 0
152 168 0
150 161 0
149 159 0
156 169 0
151 163 0
146 157 0
147 157 0
153 165 0
149 160 0
149 164 0
148 159 0
155 168 0
152 161 0
152 162 0
147 158 0
158 171 0
150 160 0
152 163 0
157 169 0
151 160 0
154 161 0
152 163 0
147 157 0
152 163 0
154 166 0
148 157 0
154 165 0
151 161 0
153 163 0
152 162 0
154 165 0
155 165 0
157 177 0
159 177 0
163 182 0
153 171 0
157 176 0
159 178 0
163 182 0
161 179 0
157 176 0
160 181 0
158 177 0
159 178 0
158 178 0
156 175 0
160 180 0
158 177 0
157 176 0
153 171 0
155 173 0
153 172 0
160 179 0
158 177 0
155 175 0
158 178 0
157 176 0
152 171 0
159 179 0
155 174 0
155 175 0
160 179 0
159 179 0
159 179 0
158 178 0
161 180 0
159 179 0
148 167 0
152 171 0
158 178 0
152 172 0
158 177 0
150 169 0
155 175 0
154 173 0
155 175 0
160 180 0
150 169 0
158 178 0
161 181 0
149 168 0
158 178 0
147 167 0
145 166 0
157 177 0
157 176 0
156 176 0
154 174 0
152 172 0
151 169 0
152 172 0
155 175 0
156 177 0
153 174 0
155 175 0
152 173 0
152 171 0
154 175 0
153 174 0
148 168 0
154 174 0
150 171 0
153 174 0
152 172 0
156 177 0
151 172 0
152 172 0
154 174 0
157 178 0
151 172 0
149 168 0
157 178 0
152 172 0
151 171 0
150 170 0
148 168 0
147 169 0
149 169 0
150 170 0
151 172 0
154 176 0
153 175 0
152 173 0
151 172 0
157 178 0
148 168 0
156 177 0
150 170 0
157 179 0
146 167 0
152 174 0
152 175 0
156 176 0
150 171 0
148 169 0
151 173 0
149 169 0
155 177 0
146 167 0
155 176 0
158 180 0
147 168 0
154 175 0
155 176 0
153 175 0
148 169 0
144 164 0
149 171 0
146 168 0
160 182 0
151 172 0
158 179 0
146 167 0
149 169 0
148 168 0
144 165 0
140 161 0
147 169 0
138 160 0
141 164 0
148 170 0
149 171 0
148 170 0
150 172 0
150 172 0
150 171 0
149 171 0
147 168 0
151 174 0
140 162 0
153 175 0
151 174 0
137 157 0
144 167 0
139 161 0
146 168 0
145 167 0
141 162 0
147 169 0
144 165 0
148 170 0
147 170 0
143 165 0
144 165 0
149 169 0
150 171 0
148 171 0
150 171 0
143 165 0
144 165 0
151 172 0
146 167 0
156 179 0
152 174 0
142 164 0
148 169 0
146 167 0
147 169 0
141 162 0
142 164 0
143 164 0
151 172 0
145 166 0
141 164 0
145 166 0
153 175 0
148 170 0
145 166 0
144 166 0
144 165 0
144 165 0
148 169 0
152 172 0
138 157 0
140 162 0
154 175 0
154 174 0
144 164 0
141 161 0
138 159 0
145 168 0
139 160 0
146 166 0
147 169 0
137 158 0
143 164 0
140 160 0
146 167 0
144 165 0
149 170 0
138 159 0
146 167 0
147 169 0
147 166 0
139 160 0
153 175 0
136 158 0
144 165 0
148 169 0
146 167 0
144 166 0
146 167 0
152 173 0
149 170 0
140 161 0
136 156 0
147 168 0
147 169 0
148 168 0
146 167 0
139 160 0
135 153 0
152 171 0
153 174 0
149 169 0
142 163 0
145 166 0
133 150 0
138 159 0
149 170 0
146 167 0
140 159 0
139 158 0
145 164 0
143 164 0
147 168 0
142 163 0
148 167 0
146 168 0
149 169 0
138 159 0
143 162 0
146 165 0
136 155 0
141 160 0
139 159 0
149 170 0
151 172 0
144 163 0
148 170 0
150 171 0
145 166 0
151 171 0
144 165 0
143 162 0
139 160 0
149 169 0
150 170 0
150 169 0
150 169 0
147 167 0
143 164 0
145 164 0
148 168 0
151 171 0
143 161 0
144 163 0
142 159 0
147 166 0
146 166 0
146 165 0
139 159 0
140 160 0
151 170 0
149 169 0
139 157 0
141 160 0
142 161 0
144 162 0
147 164 0
158 178 0
146 164 0
147 168 0
150 167 0
142 160 0
142 161 0
148 166 0
147 167 0
146 165 0
142 160 0
150 168 0
150 170 0
152 170 0
145 164 0
150 168 0
151 171 0
142 159 0
146 162 0
137 154 0
150 169 0
137 153 0
149 167 0
149 167 0
145 163 0
151 168 0
145 164 0
145 160 0
140 156 0
148 166 0
144 161 0
149 164 0
149 166 0
144 159 0
152 169 0
146 160 0
149 165 0
141 157 0
143 160 0
144 161 0
148 165 0
144 159 0
152 168 0
149 165 0
145 160 0
147 164 0
155 171 0
141 157 0
148 161 0
151 166 0
143 155 0
147 162 0
155 169 0
151 166 0
150 166 0
155 169 0
146 160 0
146 159 0
141 155 0
152 165 0
147 160 0
141 155 0
144 157 0
149 162 0
150 164 0
148 163 0
145 157 0
150 165 0
150 164 0
155 169 0
151 165 0
146 158 0
147 160 0
154 170 0
145 157 0
145 159 0
153 167 0
153 167 0
140 153 0
157 171 0
145 158 0
147 160 0
154 170 0
156 169 0
152 165 0
149 161 0
150 161 0
153 163 0
147 158 0
148 159 0
143 155 0
152 161 0
147 159 0
153 163 0
155 167 0
149 163 0
151 164 0
152 166 0
146 157 0
157 169 0
151 161 0
154 164 0
154 164 0
150 161 0
148 157 0
148 156 0
150 160 0
151 162 0
151 162 0
157 166 0
155 165 0
154 164 0
153 164 0
156 164 0
153 162 0
156 168 0
160 170 0
151 162 0
152 163 0
152 163 0
155 165 0
152 162 0
150 162 0
156 176 0
158 177 0
160 179 0
156 174 0
159 177 0
159 179 0
157 177 0
160 179 0
158 177 0
160 179 0
159 179 0
161 180 0
161 180 0
162 180 0
161 180 0
157 176 0
151 170 0
155 174 0
152 172 0
158 178 0
159 178 0
160 179 0
153 173 0
161 180 0
161 180 0
156 174 0
151 170 0
152 171 0
150 168 0
155 174 0
157 178 0
158 179 0
157 176 0
154 172 0
152 171 0
159 180 0
153 171 0
155 174 0
159 178 0
151 171 0
155 175 0
155 175 0
156 175 0
151 171 0
157 178 0
151 171 0
151 171 0
146 165 0
158 176 0
151 170 0
150 169 0
156 177 0
159 179 0
152 172 0
151 172 0
152 171 0
156 175 0
153 172 0
149 169 0
153 173 0
150 169 0
149 168 0
152 171 0
149 168 0
150 170 0
157 177 0
154 175 0
151 171 0
152 172 0
153 174 0
151 172 0
151 171 0
155 176 0
151 172 0
148 168 0
152 173 0
153 174 0
154 174 0
150 170 0
149 169 0
156 178 0
150 171 0
150 172 0
146 167 0
153 174 0
148 169 0
151 173 0
146 167 0
150 171 0
157 179 0
147 168 0
151 171 0
153 175 0
148 170 0
153 175 0
152 173 0
153 173 0
150 171 0
146 166 0
148 169 0
147 170 0
148 170 0
153 173 0
149 171 0
151 171 0
152 172 0
156 178 0
149 170 0
149 171 0
145 167 0
157 178 0
147 168 0
152 174 0
148 170 0
143 164 0
151 172 0
143 164 0
150 172 0
150 171 0
149 170 0
147 169 0
148 169 0
152 173 0
149 170 0
146 167 0
155 177 0
148 170 0
144 165 0
156 178 0
151 172 0
149 171 0
142 164 0
146 168 0
143 164 0
148 170 0
150 171 0
143 165 0
147 169 0
139 160 0
144 167 0
153 173 0
148 169 0
150 172 0
145 166 0
148 169 0
142 164 0
139 160 0
146 167 0
157 179 0
147 169 0
145 163 0
143 164 0
147 168 0
147 168 0
143 164 0
146 169 0
145 167 0
147 168 0
145 168 0
146 168 0
143 165 0
142 164 0
150 172 0
148 169 0
148 170 0
146 167 0
149 171 0
147 167 0
146 167 0
142 164 0
140 161 0
147 168 0
142 162 0
149 171 0
142 164 0
149 170 0
146 167 0
145 167 0
134 155 0
147 169 0
132 154 0
143 165 0
143 166 0
138 158 0
145 167 0
140 163 0
150 171 0
142 163 0
145 166 0
152 174 0
141 163 0
133 154 0
138 159 0
151 172 0
139 159 0
138 159 0
138 159 0
138 159 0
144 166 0
146 168 0
141 162 0
146 167 0
145 165 0
147 169 0
135 155 0
146 167 0
141 163 0
148 168 0
153 174 0
145 167 0
149 169 0
134 155 0
143 164 0
139 159 0
146 166 0
153 174 0
139 160 0
146 168 0
143 163 0
146 167 0
147 167 0
144 166 0
146 166 0
150 170 0
146 165 0
143 163 0
143 164 0
155 177 0
148 169 0
150 170 0
138 160 0
146 166 0
144 164 0
143 163 0
141 161 0
142 163 0
137 157 0
144 162 0
146 165 0
146 165 0
146 168 0
135 156 0
139 160 0
146 164 0
146 166 0
153 172 0
148 169 0
149 169 0
149 169 0
148 169 0
149 170 0
147 166 0
148 168 0
147 166 0
147 168 0
155 176 0
149 169 0
142 162 0
149 170 0
142 160 0
147 166 0
152 170 0
147 166 0
154 173 0
147 166 0
143 163 0
144 164 0
137 157 0
142 162 0
152 170 0
136 155 0
146 165 0
137 156 0
149 170 0
149 168 0
145 163 0
143 159 0
141 159 0
141 161 0
148 168 0
139 156 0
149 169 0
150 168 0
148 166 0
149 169 0
156 176 0
147 166 0
150 168 0
149 168 0
140 157 0
148 167 0
147 165 0
150 168 0
143 160 0
143 161 0
146 163 0
152 171 0
145 164 0
144 163 0
144 160 0
147 165 0
149 165 0
140 156 0
148 167 0
145 162 0
145 161 0
140 157 0
149 165 0
145 163 0
147 165 0
155 172 0
146 162 0
147 161 0
153 170 0
150 165 0
145 163 0
148 165 0
147 164 0
151 168 0
147 162 0
133 147 0
148 163 0
155 173 0
145 159 0
146 162 0
147 160 0
144 161 0
139 153 0
145 158 0
156 172 0
142 156 0
148 163 0
146 161 0
149 164 0
145 160 0
142 155 0
152 166 0
154 170 0
154 170 0
148 164 0
152 164 0
145 157 0
148 161 0
146 159 0
149 163 0
155 170 0
136 147 0
146 159 0
141 156 0
157 170 0
144 157 0
152 166 0
149 163 0
141 152 0
149 162 0
140 150 0
150 167 0
154 169 0
142 151 0
153 166 0
149 162 0
152 166 0
143 154 0
153 168 0
148 158 0
149 159 0
154 165 0
150 163 0
158 169 0
149 161 0
152 167 0
150 161 0
147 158 0
151 162 0
153 166 0
152 163 0
155 167 0
156 168 0
154 168 0
156 168 0
153 165 0
150 161 0
154 165 0
154 169 0
148 159 0
158 169 0
154 165 0
154 165 0
148 156 0
155 168 0
146 157 0
154 166 0
155 168 0
155 165 0
151 160 0
154 164 0
155 167 0
153 165 0
160 171 0
157 169 0
159 178 0
160 179 0
163 183 0
157 176 0
157 177 0
158 177 0
157 177 0
160 180 0
157 176 0
154 172 0
158 178 0
161 180 0
159 178 0
155 175 0
158 177 0
156 174 0
158 177 0
157 177 0
158 178 0
156 175 0
157 177 0
154 173 0
160 180 0
158 177 0
155 175 0
150 169 0
159 178 0
161 182 0
162 181 0
158 176 0
159 178 0
151 170 0
152 172 0
156 175 0
151 170 0
154 173 0
152 171 0
159 179 0
160 180 0
157 177 0
153 173 0
155 175 0
156 176 0
152 172 0
152 172 0
153 173 0
150 170 0
159 179 0
158 178 0
156 176 0
154 174 0
155 174 0
156 175 0
151 171 0
153 173 0
161 180 0
157 177 0
153 173 0
151 170 0
155 175 0
154 174 0
154 174 0
149 168 0
148 168 0
152 173 0
151 170 0
161 182 0
151 170 0
154 174 0
151 172 0
149 170 0
158 178 0
148 168 0
145 166 0
144 164 0
151 172 0
151 171 0
152 173 0
148 169 0
150 171 0
156 177 0
156 179 0
153 174 0
155 176 0
155 176 0
138 157 0
150 172 0
153 175 0
151 172 0
148 169 0
153 174 0
153 173 0
148 169 0
153 174 0
156 177 0
151 172 0
153 175 0
159 181 0
145 166 0
149 170 0
152 173 0
153 173 0
153 174 0
144 164 0
145 166 0
153 175 0
156 178 0
148 169 0
146 167 0
150 171 0
151 171 0
144 165 0
149 170 0
144 165 0
151 174 0
149 172 0
152 173 0
145 165 0
153 175 0
150 172 0
146 168 0
153 174 0
149 171 0
142 164 0
149 170 0
143 164 0
145 168 0
152 174 0
152 173 0
152 175 0
151 172 0
155 176 0
156 178 0
149 171 0
141 163 0
152 174 0
151 173 0
143 165 0
153 174 0
149 171 0
153 174 0
143 164 0
145 167 0
149 170 0
150 173 0
148 170 0
150 172 0
151 173 0
148 171 0
151 172 0
148 170 0
137 159 0
147 170 0
148 169 0
143 163 0
153 174 0
142 164 0
148 169 0
154 175 0
156 178 0
147 169 0
147 168 0
140 161 0
144 164 0
147 168 0
141 162 0
150 173 0
147 169 0
150 171 0
148 169 0
146 167 0
141 162 0
141 162 0
151 173 0
148 170 0
139 159 0
135 157 0
150 171 0
143 164 0
148 170 0
132 153 0
139 160 0
142 164 0
147 169 0
151 173 0
145 166 0
148 169 0
147 169 0
153 176 0
139 161 0
139 161 0
141 162 0
147 168 0
145 167 0
150 170 0
144 164 0
141 163 0
138 158 0
142 164 0
145 164 0
150 172 0
145 165 0
153 175 0
147 168 0
146 168 0
140 161 0
152 173 0
137 158 0
143 165 0
141 162 0
144 165 0
141 162 0
149 170 0
138 159 0
150 170 0
145 166 0
141 163 0
149 170 0
143 165 0
140 161 0
152 174 0
150 172 0
146 168 0
141 161 0
156 176 0
142 162 0
145 164 0
142 163 0
152 172 0
147 168 0
148 171 0
136 159 0
145 165 0
141 161 0
151 172 0
137 159 0
144 166 0
138 160 0
147 169 0
150 172 0
147 169 0
144 165 0
150 169 0
143 163 0
141 160 0
146 166 0
150 170 0
152 171 0
150 170 0
147 168 0
148 169 0
146 165 0
143 161 0
140 159 0
150 169 0
149 169 0
145 164 0
142 161 0
138 158 0
144 164 0
146 166 0
152 172 0
144 165 0
151 172 0
150 169 0
140 160 0
154 174 0
151 171 0
148 167 0
139 159 0
148 167 0
144 162 0
147 166 0
149 167 0
140 158 0
146 164 0
149 167 0
142 159 0
142 160 0
139 157 0
149 167 0
150 169 0
159 177 0
153 171 0
145 164 0
145 165 0
141 160 0
149 169 0
145 164 0
146 163 0
147 166 0
151 171 0
156 174 0
152 171 0
146 164 0
148 166 0
146 164 0
150 168 0
143 160 0
145 164 0
152 169 0
150 168 0
151 168 0
148 166 0
150 167 0
154 171 0
153 171 0
152 166 0
149 166 0
157 173 0
139 156 0
145 160 0
147 164 0
145 160 0
151 169 0
152 170 0
150 167 0
145 161 0
147 162 0
154 169 0
147 164 0
150 166 0
151 166 0
151 167 0
155 172 0
148 163 0
150 165 0
151 166 0
149 164 0
144 160 0
149 164 0
149 164 0
147 161 0
147 162 0
152 166 0
150 164 0
159 174 0
143 158 0
147 159 0
145 161 0
153 167 0
150 163 0
144 159 0
144 158 0
151 164 0
150 164 0
156 170 0
149 160 0
144 158 0
141 154 0
145 156 0
149 163 0
147 158 0
140 153 0
153 167 0
147 160 0
149 162 0
153 164 0
150 162 0
144 156 0
150 163 0
151 165 0
151 163 0
149 162 0
148 161 0
147 159 0
145 154 0
148 159 0
156 170 0
147 160 0
148 161 0
150 162 0
156 169 0
147 160 0
151 162 0
154 167 0
150 163 0
147 159 0
148 159 0
144 156 0
155 168 0
159 172 0
148 160 0
149 159 0
148 157 0
155 169 0
150 164 0
156 169 0
153 165 0
154 167 0
153 165 0
148 160 0
157 169 0
159 172 0
158 170 0
153 163 0
151 162 0
154 165 0
146 156 0
156 168 0
162 182 0
162 181 0
160 178 0
160 181 0
160 179 0
157 176 0
154 174 0
161 181 0
154 173 0
155 173 0
159 178 0
161 181 0
156 175 0
160 180 0
158 177 0
163 182 0
161 180 0
164 183 0
155 174 0
152 172 0
159 179 0
160 179 0
158 177 0
156 176 0
157 177 0
158 178 0
153 172 0
159 179 0
160 180 0
157 177 0
153 173 0
159 179 0
155 173 0
156 176 0
153 173 0
154 174 0
156 176 0
156 175 0
156 177 0
155 174 0
154 175 0
151 170 0
153 173 0
156 177 0
152 171 0
147 166 0
151 171 0
155 175 0
156 176 0
154 173 0
153 172 0
153 173 0
155 174 0
158 178 0
157 178 0
157 178 0
151 171 0
156 176 0
151 171 0
152 173 0
154 175 0
155 176 0
150 170 0
152 173 0
152 172 0
152 172 0
154 176 0
150 169 0
153 172 0
152 172 0
149 170 0
146 167 0
157 177 0
156 176 0
150 171 0
153 175 0
143 164 0
156 177 0
144 164 0
157 179 0
155 176 0
149 169 0
147 168 0
154 174 0
150 172 0
156 178 0
153 174 0
156 177 0
149 171 0
152 174 0
150 172 0
148 169 0
156 176 0
148 169 0
140 161 0
150 171 0
153 174 0
155 176 0
153 173 0
147 168 0
144 165 0
155 176 0
142 162 0
149 170 0
148 169 0
149 171 0
153 175 0
147 169 0
153 174 0
147 169 0
146 168 0
155 177 0
149 169 0
148 169 0
147 168 0
151 174 0
150 171 0
147 169 0
150 172 0
145 167 0
153 175 0
150 173 0
150 171 0
151 173 0
155 176 0
152 173 0
143 164 0
154 175 0
147 169 0
148 170 0
150 172 0
155 175 0
149 171 0
153 174 0
147 169 0
152 175 0
148 169 0
142 164 0
148 171 0
150 172 0
151 173 0
152 174 0
145 166 0
148 170 0
146 168 0
150 171 0
152 174 0
147 169 0
154 176 0
147 168 0
141 162 0
150 172 0
157 179 0
149 170 0
148 170 0
146 168 0
155 177 0
147 168 0
140 161 0
140 162 0
147 169 0
145 166 0
158 179 0
151 173 0
145 165 0
154 176 0
138 160 0
151 173 0
151 173 0
148 168 0
140 161 0
158 179 0
149 171 0
151 173 0
149 171 0
143 164 0
145 166 0
136 158 0
144 165 0
151 172 0
146 168 0
151 172 0
142 164 0
145 166 0
147 169 0
150 171 0
142 163 0
138 160 0
141 162 0
145 168 0
145 167 0
146 168 0
146 168 0
150 170 0
147 167 0
141 163 0
147 168 0
147 169 0
140 161 0
143 165 0
145 166 0
139 161 0
144 166 0
145 165 0
152 174 0
145 165 0
148 169 0
145 167 0
154 174 0
140 161 0
144 164 0
144 165 0
145 165 0
153 175 0
152 173 0
140 160 0
142 163 0
149 169 0
151 173 0
143 165 0
145 165 0
146 168 0
150 171 0
151 173 0
150 170 0
146 166 0
144 164 0
142 163 0
147 168 0
146 166 0
149 169 0
145 166 0
143 163 0
146 166 0
146 166 0
145 165 0
151 171 0
150 173 0
160 180 0
146 165 0
141 162 0
150 172 0
143 163 0
146 167 0
140 161 0
144 164 0
147 168 0
149 171 0
150 168 0
155 175 0
151 171 0
143 162 0
149 168 0
154 175 0
138 156 0
148 166 0
155 177 0
155 176 0
142 161 0
154 174 0
155 176 0
146 166 0
151 170 0
143 161 0
155 174 0
142 161 0
145 165 0
153 173 0
154 175 0
142 162 0
157 177 0
144 162 0
146 164 0
148 168 0
148 167 0
150 169 0
143 162 0
146 167 0
145 161 0
148 167 0
147 166 0
152 169 0
154 173 0
148 166 0
146 165 0
148 165 0
150 167 0
152 169 0
154 173 0
149 167 0
150 169 0
145 164 0
154 175 0
147 164 0
141 159 0
145 164 0
150 167 0
149 166 0
151 170 0
151 169 0
152 168 0
144 162 0
152 168 0
142 162 0
146 164 0
149 165 0
139 157 0
157 175 0
150 167 0
147 165 0
149 165 0
142 160 0
153 170 0
151 168 0
149 166 0
151 166 0
147 163 0
150 166 0
149 166 0
143 160 0
150 166 0
155 171 0
144 160 0
150 168 0
151 167 0
154 171 0
154 171 0
150 165 0
151 168 0
151 166 0
142 156 0
148 162 0
144 159 0
151 168 0
147 163 0
149 165 0
153 168 0
156 171 0
150 165 0
154 169 0
148 161 0
148 161 0
142 153 0
153 165 0
146 159 0
148 162 0
146 160 0
150 164 0
151 163 0
150 161 0
144 157 0
150 162 0
144 155 0
155 169 0
159 172 0
153 167 0
153 166 0
155 166 0
157 171 0
156 170 0
145 156 0
145 157 0
149 162 0
146 155 0
145 156 0
153 167 0
149 158 0
152 166 0
150 161 0
153 167 0
144 157 0
149 161 0
151 161 0
149 160 0
151 165 0
155 168 0
150 161 0
154 167 0
151 163 0
154 170 0
153 164 0
149 161 0
145 155 0
148 159 0
156 167 0
153 164 0
151 162 0
149 161 0
150 161 0
155 165 0
152 164 0
156 166 0
161 173 0
164 179 0
151 162 0
152 162 0
154 166 0
149 159 0
154 168 0
158 169 0
160 180 0
157 177 0
162 182 0
161 181 0
162 181 0
156 175 0
154 175 0
155 174 0
157 176 0
154 173 0
152 172 0
164 184 0
159 179 0
153 172 0
157 177 0
158 178 0
161 179 0
155 175 0
159 178 0
162 182 0
156 177 0
160 179 0
155 175 0
159 180 0
157 175 0
163 182 0
151 170 0
154 173 0
158 178 0
154 174 0
154 173 0
163 183 0
155 176 0
161 180 0
155 174 0
152 171 0
161 180 0
156 176 0
149 169 0
154 174 0
151 171 0
157 176 0
150 170 0
156 176 0
153 173 0
157 177 0
155 175 0
154 174 0
155 175 0
148 166 0
155 175 0
153 174 0
157 178 0
154 174 0
155 176 0
160 179 0
156 177 0
150 169 0
149 169 0
146 166 0
152 171 0
148 169 0
156 176 0
155 175 0
150 170 0
162 184 0
155 177 0
150 169 0
149 169 0
157 177 0
153 172 0
150 171 0
142 162 0
148 168 0
153 174 0
154 175 0
158 180 0
153 174 0
153 175 0
154 176 0
149 170 0
155 175 0
152 173 0
153 174 0
145 165 0
151 173 0
156 177 0
151 172 0
159 180 0
152 174 0
148 169 0
152 175 0
147 168 0
152 173 0
151 171 0
152 171 0
153 174 0
154 174 0
150 172 0
150 171 0
152 174 0
150 170 0
148 170 0
149 170 0
151 173 0
155 177 0
147 169 0
151 172 0
149 171 0
149 171 0
148 169 0
150 172 0
144 166 0
151 173 0
150 172 0
145 167 0
156 177 0
152 174 0
147 168 0
150 171 0
155 176 0
154 175 0
143 164 0
151 173 0
152 174 0
151 173 0
154 174 0
150 171 0
150 173 0
143 164 0
149 171 0
139 159 0
147 168 0
146 167 0
149 170 0
150 170 0
148 169 0
155 177 0
141 161 0
147 168 0
146 168 0
143 164 0
142 164 0
149 171 0
146 168 0
150 173 0
144 164 0
142 161 0
152 174 0
146 167 0
151 173 0
144 166 0
153 175 0
149 172 0
144 166 0
146 169 0
146 167 0
156 178 0
143 163 0
150 172 0
155 176 0
139 159 0
151 172 0
148 170 0
155 178 0
143 164 0
151 173 0
136 157 0
143 165 0
146 167 0
142 163 0
142 163 0
135 157 0
148 169 0
145 166 0
152 174 0
143 165 0
140 161 0
146 167 0
139 161 0
146 167 0
152 174 0
136 158 0
147 168 0
147 169 0
137 159 0
143 164 0
150 170 0
148 168 0
148 170 0
149 170 0
148 169 0
141 162 0
150 173 0
147 169 0
146 166 0
149 169 0
137 157 0
150 172 0
153 174 0
146 167 0
146 166 0
143 165 0
141 161 0
142 163 0
147 168 0
146 167 0
140 162 0
150 172 0
146 168 0
145 166 0
137 158 0
146 168 0
147 167 0
147 168 0
152 174 0
147 168 0
142 163 0
151 172 0
143 164 0
145 166 0
146 168 0
138 158 0
151 173 0
145 165 0
145 165 0
150 172 0
149 169 0
150 172 0
139 161 0
147 167 0
151 172 0
139 160 0
145 166 0
152 172 0
137 159 0
143 163 0
153 174 0
142 161 0
143 163 0
154 174 0
140 161 0
153 174 0
148 169 0
151 173 0
146 167 0
146 167 0
153 173 0
142 163 0
150 171 0
148 168 0
141 161 0
147 167 0
149 169 0
152 173 0
143 162 0
147 168 0
153 172 0
150 170 0
146 167 0
151 172 0
146 166 0
151 171 0
143 163 0
149 169 0
147 167 0
147 167 0
150 169 0
142 160 0
149 169 0
145 164 0
135 157 0
154 174 0
144 164 0
150 170 0
154 174 0
142 161 0
154 173 0
148 168 0
150 168 0
149 169 0
151 171 0
145 166 0
140 159 0
156 174 0
151 167 0
145 163 0
154 173 0
153 173 0
139 156 0
158 176 0
150 167 0
144 163 0
137 156 0
148 167 0
148 169 0
152 168 0
148 167 0
143 162 0
149 167 0
151 169 0
144 161 0
148 167 0
153 171 0
154 171 0
146 163 0
154 173 0
148 164 0
148 165 0
151 170 0
157 173 0
147 164 0
144 162 0
148 166 0
149 167 0
150 169 0
157 174 0
146 162 0
151 167 0
143 161 0
153 171 0
153 169 0
151 166 0
150 167 0
154 171 0
152 168 0
143 159 0
151 165 0
154 172 0
149 163 0
152 170 0
162 177 0
152 169 0
151 166 0
157 172 0
154 171 0
152 167 0
149 164 0
152 166 0
148 163 0
144 157 0
158 172 0
150 165 0
151 166 0
155 167 0
152 166 0
146 159 0
150 165 0
151 165 0
162 178 0
153 165 0
157 173 0
149 163 0
147 160 0
149 164 0
144 156 0
149 165 0
143 155 0
143 151 0
156 168 0
149 161 0
153 166 0
149 163 0
154 169 0
148 162 0
150 161 0
155 170 0
152 163 0
156 171 0
160 174 0
150 160 0
151 166 0
157 170 0
146 160 0
154 165 0
153 166 0
151 165 0
158 171 0
156 165 0
149 161 0
148 161 0
155 167 0
152 163 0
150 160 0
156 170 0
151 162 0
145 157 0
161 174 0
142 153 0
151 162 0
154 166 0
152 163 0
159 174 0
153 166 0
154 167 0
153 164 0
152 164 0
153 164 0
151 160 0
155 166 0
166 187 0
159 177 0
160 179 0
160 179 0
160 179 0
162 182 0
161 180 0
160 180 0
159 180 0
162 181 0
151 171 0
156 176 0
155 174 0
157 177 0
151 170 0
155 173 0
159 179 0
160 179 0
151 170 0
153 172 0
155 175 0
163 183 0
153 171 0
149 168 0
157 177 0
156 176 0
157 176 0
159 179 0
155 175 0
156 177 0
158 178 0
156 176 0
153 173 0
159 179 0
161 181 0
160 180 0
156 176 0
155 176 0
152 171 0
158 178 0
153 173 0
155 175 0
151 170 0
154 175 0
154 173 0
151 169 0
159 179 0
155 174 0
155 174 0
158 179 0
151 172 0
151 171 0
156 177 0
154 174 0
153 175 0
154 174 0
156 177 0
143 163 0
149 169 0
153 174 0
156 176 0
150 170 0
153 175 0
153 172 0
150 171 0
156 177 0
152 172 0
155 175 0
155 176 0
150 171 0
151 171 0
161 183 0
147 167 0
147 167 0
160 181 0
156 177 0
154 174 0
158 180 0
154 174 0
159 180 0
153 174 0
153 175 0
154 175 0
153 173 0
155 176 0
151 173 0
145 166 0
149 170 0
156 177 0
156 178 0
152 174 0
153 175 0
152 173 0
147 170 0
150 171 0
156 178 0
152 173 0
148 170 0
154 175 0
149 171 0
150 170 0
148 170 0
153 174 0
154 176 0
156 178 0
156 177 0
152 174 0
147 168 0
146 168 0
154 177 0
151 172 0
148 168 0
153 175 0
151 174 0
152 174 0
150 171 0
145 167 0
152 173 0
149 169 0
143 164 0
148 170 0
149 171 0
157 178 0
160 182 0
149 169 0
154 175 0
153 175 0
145 166 0
145 166 0
151 173 0
152 174 0
152 174 0
154 175 0
152 174 0
148 169 0
145 166 0
153 175 0
147 168 0
146 167 0
149 171 0
145 167 0
144 166 0
152 174 0
152 174 0
149 171 0
147 168 0
146 167 0
152 174 0
146 167 0
148 170 0
145 166 0
152 173 0
149 172 0
155 177 0
154 176 0
151 174 0
146 167 0
149 171 0
152 174 0
147 167 0
142 164 0
150 170 0
149 171 0
138 160 0
146 168 0
153 175 0
145 168 0
146 168 0
147 169 0
146 168 0
145 166 0
148 168 0
149 170 0
146 166 0
150 171 0
143 165 0
153 174 0
147 170 0
149 170 0
140 161 0
152 174 0
149 172 0
148 170 0
143 164 0
144 164 0
151 171 0
146 165 0
149 171 0
148 170 0
146 167 0
145 165 0
152 173 0
150 171 0
150 171 0
151 174 0
147 167 0
144 165 0
142 163 0
146 166 0
143 165 0
149 169 0
145 165 0
149 171 0
151 172 0
144 165 0
145 167 0
146 165 0
147 167 0
154 177 0
145 166 0
150 172 0
141 162 0
145 166 0
153 174 0
151 173 0
153 174 0
147 167 0
141 162 0
148 167 0
139 157 0
143 164 0
145 166 0
141 163 0
143 163 0
137 157 0
139 158 0
142 162 0
153 173 0
143 164 0
146 167 0
142 162 0
144 165 0
144 163 0
151 171 0
150 172 0
152 172 0
146 167 0
150 171 0
147 168 0
146 166 0
148 170 0
143 162 0
149 171 0
146 166 0
150 172 0
148 167 0
148 168 0
149 170 0
147 168 0
147 168 0
145 166 0
152 171 0
147 167 0
146 168 0
146 165 0
149 169 0
140 161 0
150 171 0
150 169 0
145 164 0
146 166 0
152 171 0
152 170 0
141 160 0
148 169 0
141 159 0
147 166 0
141 159 0
152 173 0
149 168 0
145 163 0
150 169 0
140 159 0
153 175 0
154 174 0
138 157 0
153 174 0
154 174 0
148 167 0
148 168 0
156 176 0
147 166 0
153 171 0
147 166 0
157 178 0
152 173 0
152 174 0
149 168 0
142 160 0
148 166 0
144 161 0
154 173 0
149 167 0
152 168 0
144 162 0
138 156 0
149 166 0
150 169 0
152 171 0
150 169 0
153 173 0
150 166 0
150 168 0
153 171 0
153 171 0
147 164 0
151 169 0
146 164 0
154 172 0
150 168 0
147 162 0
153 169 0
150 166 0
147 164 0
146 163 0
147 165 0
146 162 0
150 165 0
152 168 0
156 171 0
150 165 0
149 164 0
143 159 0
148 164 0
146 160 0
148 163 0
155 170 0
146 163 0
148 164 0
143 157 0
153 169 0
151 168 0
152 168 0
148 165 0
147 161 0
157 173 0
150 167 0
147 164 0
146 163 0
151 165 0
146 160 0
153 167 0
147 162 0
151 164 0
153 169 0
148 162 0
152 168 0
156 172 0
152 166 0
149 163 0
145 156 0
148 164 0
152 167 0
150 166 0
155 166 0
154 167 0
145 159 0
151 164 0
150 162 0
152 167 0
144 158 0
147 161 0
152 163 0
152 164 0
149 161 0
149 162 0
156 170 0
150 163 0
146 158 0
155 167 0
152 166 0
151 166 0
151 165 0
149 161 0
151 164 0
154 166 0
154 165 0
153 164 0
146 158 0
145 157 0
149 159 0
148 163 0
153 163 0
149 161 0
158 171 0
157 169 0
159 172 0
158 170 0
155 168 0
151 162 0
152 166 0
154 165 0
151 160 0
153 165 0
149 161 0
153 163 0
148 160 0
152 164 0
152 161 0
154 166 0
160 181 0
156 176 0
160 180 0
159 177 0
159 179 0
162 182 0
150 170 0
162 183 0
160 180 0
159 179 0
164 183 0
159 180 0
159 178 0
156 175 0
157 177 0
155 174 0
160 179 0
157 177 0
157 176 0
159 178 0
154 174 0
157 176 0
151 170 0
157 177 0
159 180 0
155 175 0
160 180 0
156 176 0
155 174 0
155 175 0
156 176 0
153 173 0
158 178 0
156 176 0
156 176 0
155 176 0
155 175 0
154 175 0
157 178 0
155 176 0
149 168 0
157 177 0
159 179 0
157 177 0
157 178 0
154 175 0
162 183 0
161 182 0
154 175 0
159 178 0
153 173 0
155 175 0
160 182 0
155 176 0
159 179 0
151 172 0
160 181 0
151 169 0
148 167 0
152 173 0
149 170 0
151 173 0
157 177 0
157 178 0
150 170 0
154 174 0
154 175 0
147 167 0
153 174 0
154 176 0
153 173 0
156 177 0
152 173 0
156 177 0
159 179 0
152 173 0
151 172 0
151 171 0
153 174 0
147 167 0
153 174 0
149 169 0
149 170 0
153 174 0
155 177 0
152 173 0
154 176 0
156 177 0
150 171 0
155 177 0
149 171 0
158 179 0
149 170 0
143 165 0
157 180 0
154 176 0
153 175 0
151 172 0
150 170 0
151 174 0
151 173 0
155 176 0
157 179 0
151 173 0
151 173 0
150 172 0
152 173 0
154 175 0
151 173 0
150 172 0
155 177 0
142 161 0
148 169 0
142 163 0
157 177 0
153 173 0
157 179 0
141 163 0
153 174 0
148 171 0
148 170 0
145 167 0
152 172 0
144 165 0
151 173 0
152 174 0
151 173 0
147 169 0
151 174 0
147 169 0
139 161 0
142 164 0
147 170 0
151 173 0
155 178 0
156 177 0
153 175 0
151 172 0
145 166 0
151 173 0
143 166 0
146 168 0
150 172 0
144 167 0
142 163 0
149 170 0
147 169 0
146 167 0
154 176 0
146 167 0
147 168 0
148 171 0
151 174 0
141 163 0
151 173 0
153 174 0
149 169 0
147 168 0
143 166 0
149 171 0
157 179 0
142 163 0
147 168 0
145 166 0
149 170 0
143 164 0
156 177 0
152 173 0
148 169 0
146 168 0
156 178 0
150 172 0
150 172 0
140 161 0
141 163 0
152 174 0
147 166 0
151 174 0
150 171 0
140 161 0
143 165 0
146 166 0
141 162 0
140 161 0
139 162 0
157 179 0
145 167 0
150 172 0
145 167 0
144 166 0
151 172 0
144 164 0
145 166 0
145 167 0
151 173 0
153 175 0
146 167 0
147 169 0
152 173 0
145 167 0
152 173 0
150 171 0
149 170 0
149 171 0
153 174 0
151 173 0
143 165 0
151 173 0
150 170 0
136 158 0
139 161 0
150 171 0
145 165 0
146 167 0
154 174 0
149 169 0
146 167 0
145 168 0
145 167 0
148 169 0
146 167 0
151 172 0
140 162 0
144 164 0
145 166 0
145 165 0
149 169 0
151 171 0
139 160 0
153 174 0
144 164 0
138 158 0
143 162 0
146 167 0
145 166 0
153 174 0
145 165 0
148 169 0
143 164 0
145 167 0
147 167 0
144 165 0
148 168 0
152 172 0
142 163 0
146 167 0
155 177 0
147 168 0
150 170 0
146 167 0
144 164 0
144 162 0
140 160 0
146 166 0
148 169 0
145 165 0
143 165 0
146 165 0
149 170 0
147 170 0
154 175 0
153 170 0
143 163 0
157 177 0
150 169 0
144 162 0
152 171 0
148 167 0
150 170 0
145 165 0
149 169 0
150 170 0
139 157 0
143 162 0
139 158 0
148 167 0
145 164 0
152 172 0
150 170 0
146 167 0
151 170 0
155 174 0
147 166 0
147 164 0
148 166 0
145 164 0
151 170 0
148 168 0
157 177 0
158 176 0
143 161 0
156 176 0
150 170 0
150 168 0
143 162 0
147 165 0
147 164 0
157 176 0
148 165 0
151 170 0
143 161 0
155 173 0
144 160 0
150 169 0
145 160 0
149 168 0
142 157 0
154 171 0
143 162 0
150 169 0
151 167 0
158 173 0
150 169 0
150 168 0
146 163 0
150 168 0
158 174 0
143 162 0
150 167 0
145 164 0
151 167 0
157 173 0
150 166 0
159 176 0
152 168 0
154 170 0
149 166 0
149 165 0
145 160 0
146 163 0
152 169 0
144 160 0
145 159 0
146 160 0
156 172 0
156 173 0
147 163 0
150 164 0
151 168 0
157 170 0
153 168 0
148 163 0
145 162 0
152 167 0
139 154 0
153 170 0
152 166 0
146 159 0
154 169 0
152 167 0
152 167 0
147 160 0
154 167 0
150 163 0
152 169 0
151 165 0
148 160 0
158 173 0
153 166 0
148 160 0
154 165 0
152 165 0
154 168 0
145 160 0
153 164 0
151 165 0
146 159 0
147 160 0
154 168 0
143 156 0
156 171 0
145 155 0
151 164 0
155 170 0
153 165 0
148 160 0
148 162 0
150 161 0
152 165 0
155 171 0
150 161 0
152 165 0
155 169 0
160 174 0
152 165 0
153 164 0
150 163 0
150 161 0
150 162 0
151 162 0
157 171 0
157 171 0
154 167 0
156 169 0
154 168 0
157 167 0
158 170 0
155 168 0
154 168 0
158 172 0
160 180 0
155 175 0
157 176 0
162 182 0
156 175 0
162 182 0
160 180 0
157 176 0
161 182 0
157 177 0
153 172 0
157 176 0
160 180 0
157 176 0
160 179 0
162 181 0
158 178 0
161 181 0
159 179 0
158 178 0
159 179 0
158 178 0
158 177 0
154 174 0
154 174 0
157 176 0
154 175 0
155 175 0
159 178 0
154 174 0
159 179 0
153 173 0
154 174 0
155 174 0
155 176 0
159 180 0
155 176 0
159 180 0
155 175 0
156 177 0
153 173 0
153 174 0
157 178 0
156 177 0
153 173 0
155 175 0
155 175 0
155 176 0
156 177 0
144 163 0
153 175 0
157 178 0
152 173 0
161 181 0
158 179 0
155 176 0
156 177 0
153 174 0
159 180 0
156 177 0
157 178 0
147 168 0
152 173 0
153 174 0
150 171 0
158 179 0
152 173 0
163 185 0
151 171 0
151 173 0
150 172 0
158 180 0
154 175 0
154 174 0
156 177 0
154 173 0
159 181 0
146 167 0
149 170 0
151 173 0
151 172 0
153 175 0
149 171 0
146 166 0
151 172 0
150 172 0
154 175 0
158 180 0
146 167 0
156 177 0
154 175 0
153 173 0
151 172 0
148 169 0
153 173 0
155 176 0
151 172 0
150 171 0
154 175 0
150 170 0
147 169 0
156 177 0
156 178 0
143 165 0
156 178 0
152 174 0
158 179 0
147 169 0
150 171 0
157 178 0
149 170 0
145 166 0
151 173 0
157 178 0
148 169 0
150 172 0
157 179 0
155 177 0
158 181 0
156 177 0
149 170 0
150 171 0
147 169 0
146 168 0
150 171 0
151 172 0
152 174 0
153 175 0
158 178 0
144 165 0
150 174 0
152 175 0
156 177 0
156 179 0
156 178 0
142 162 0
151 172 0
150 172 0
150 172 0
145 167 0
142 164 0
145 167 0
159 181 0
150 171 0
147 169 0
153 175 0
150 172 0
151 172 0
145 167 0
152 173 0
147 170 0
146 168 0
150 173 0
148 170 0
147 169 0
150 171 0
146 169 0
146 168 0
143 164 0
143 164 0
150 169 0
146 168 0
147 168 0
147 169 0
159 181 0
148 170 0
147 169 0
147 169 0
154 176 0
142 164 0
140 162 0
150 173 0
141 163 0
148 170 0
152 174 0
139 161 0
142 163 0
148 170 0
142 163 0
149 171 0
148 171 0
144 165 0
151 173 0
139 159 0
143 164 0
142 164 0
133 154 0
149 171 0
145 167 0
147 168 0
146 168 0
154 174 0
149 171 0
141 163 0
150 172 0
149 171 0
143 164 0
145 167 0
147 168 0
153 175 0
146 167 0
151 172 0
151 173 0
147 168 0
147 168 0
139 160 0
153 175 0
154 174 0
145 165 0
147 167 0
150 172 0
153 175 0
149 170 0
146 167 0
159 181 0
151 172 0
146 166 0
150 172 0
148 169 0
142 162 0
146 167 0
154 176 0
142 161 0
146 168 0
146 166 0
143 164 0
144 165 0
147 168 0
139 160 0
147 167 0
155 177 0
154 176 0
140 159 0
152 173 0
135 156 0
144 164 0
145 166 0
144 163 0
150 170 0
150 171 0
154 176 0
142 161 0
146 165 0
141 162 0
159 179 0
145 166 0
155 177 0
148 168 0
143 161 0
148 168 0
144 164 0
149 169 0
144 163 0
150 168 0
147 166 0
152 173 0
147 169 0
146 167 0
148 169 0
148 169 0
155 176 0
149 168 0
143 163 0
156 177 0
152 172 0
147 168 0
148 167 0
153 173 0
147 168 0
147 168 0
156 176 0
157 176 0
145 163 0
152 172 0
149 169 0
155 173 0
150 168 0
149 168 0
148 168 0
145 163 0
149 168 0
148 168 0
152 172 0
145 164 0
153 174 0
150 170 0
153 174 0
143 162 0
148 167 0
150 170 0
147 165 0
144 161 0
153 172 0
150 168 0
153 172 0
149 167 0
148 167 0
144 161 0
151 168 0
144 161 0
147 163 0
149 167 0
146 163 0
145 161 0
149 167 0
146 163 0
148 167 0
148 163 0
144 160 0
147 165 0
150 166 0
149 166 0
147 163 0
153 171 0
156 172 0
151 169 0
147 164 0
153 171 0
147 164 0
150 167 0
145 160 0
151 167 0
155 174 0
148 165 0
147 162 0
147 165 0
147 165 0
149 166 0
154 170 0
143 159 0
151 168 0
156 172 0
152 168 0
148 165 0
151 168 0
147 163 0
150 166 0
150 164 0
148 162 0
150 166 0
147 164 0
144 159 0
151 166 0
149 163 0
156 172 0
152 168 0
156 173 0
145 160 0
143 158 0
149 163 0
143 158 0
154 166 0
150 166 0
150 165 0
153 169 0
156 170 0
148 162 0
150 166 0
149 163 0
149 161 0
154 169 0
151 165 0
154 165 0
146 160 0
150 163 0
146 161 0
154 167 0
155 169 0
151 168 0
156 170 0
149 164 0
143 155 0
150 164 0
148 160 0
152 164 0
156 170 0
153 167 0
155 171 0
151 164 0
153 166 0
157 170 0
149 160 0
157 171 0
154 171 0
153 167 0
153 165 0
148 159 0
154 167 0
154 165 0
154 170 0
152 164 0
150 163 0
154 165 0
160 174 0
150 163 0
155 168 0
157 170 0
160 173 0
157 169 0
152 164 0
157 176 0
161 181 0
158 178 0
161 182 0
160 180 0
158 178 0
159 180 0
159 180 0
159 179 0
160 180 0
158 179 0
156 176 0
154 174 0
155 176 0
163 184 0
160 180 0
154 174 0
157 177 0
157 177 0
154 174 0
154 174 0
159 180 0
161 182 0
157 177 0
153 174 0
158 179 0
156 175 0
157 177 0
155 175 0
161 182 0
150 170 0
153 174 0
157 177 0
154 174 0
153 173 0
157 177 0
155 175 0
156 177 0
154 174 0
153 174 0
159 180 0
157 177 0
155 176 0
156 177 0
158 179 0
154 175 0
156 177 0
154 176 0
152 171 0
156 177 0
157 178 0
156 177 0
153 174 0
151 171 0
158 178 0
152 173 0
157 178 0
156 175 0
155 176 0
156 177 0
158 178 0
153 174 0
151 170 0
155 176 0
153 174 0
152 172 0
154 174 0
157 178 0
156 176 0
157 178 0
157 178 0
146 166 0
157 177 0
154 174 0
154 175 0
149 170 0
153 174 0
150 171 0
156 178 0
155 176 0
154 175 0
146 166 0
153 175 0
159 181 0
157 180 0
149 169 0
155 175 0
157 178 0
152 173 0
150 172 0
147 168 0
158 179 0
149 170 0
158 179 0
152 174 0
151 172 0
151 172 0
149 170 0
157 178 0
156 176 0
151 172 0
149 171 0
154 177 0
153 176 0
153 175 0
147 168 0
151 172 0
156 179 0
147 168 0
149 170 0
146 168 0
152 174 0
146 167 0
155 177 0
155 177 0
155 178 0
149 171 0
154 177 0
155 177 0
144 165 0
146 168 0
147 169 0
147 168 0
144 166 0
153 174 0
152 173 0
149 171 0
151 173 0
150 172 0
148 168 0
143 165 0
160 182 0
155 177 0
153 176 0
145 167 0
152 174 0
146 168 0
154 176 0
156 178 0
149 171 0
158 179 0
151 173 0
148 170 0
147 168 0
143 164 0
145 168 0
150 172 0
142 164 0
150 171 0
147 168 0
152 173 0
159 181 0
155 177 0
147 170 0
147 169 0
147 168 0
153 175 0
151 173 0
150 172 0
141 163 0
151 173 0
149 170 0
149 171 0
147 170 0
150 172 0
150 172 0
148 170 0
144 165 0
149 171 0
152 174 0
150 172 0
145 166 0
149 171 0
150 171 0
143 163 0
141 161 0
150 171 0
151 174 0
142 164 0
151 172 0
146 168 0
152 174 0
148 169 0
141 162 0
147 168 0
147 168 0
142 163 0
145 167 0
148 170 0
149 170 0
142 164 0
152 172 0
145 166 0
151 173 0
153 174 0
151 172 0
150 172 0
148 169 0
150 172 0
148 169 0
140 161 0
146 169 0
149 170 0
144 167 0
146 168 0
152 174 0
144 166 0
140 161 0
150 172 0
143 164 0
144 166 0
144 165 0
150 173 0
148 170 0
151 173 0
140 161 0
147 169 0
147 168 0
148 168 0
153 175 0
143 164 0
150 170 0
146 166 0
151 172 0
153 174 0
143 164 0
154 173 0
145 168 0
148 170 0
140 162 0
150 171 0
147 168 0
153 172 0
148 167 0
137 158 0
148 168 0
150 169 0
136 157 0
146 166 0
150 174 0
145 165 0
150 171 0
145 165 0
140 160 0
149 170 0
141 161 0
152 173 0
149 169 0
152 172 0
140 160 0
154 175 0
145 166 0
145 164 0
147 167 0
146 165 0
155 176 0
148 168 0
150 168 0
150 172 0
140 158 0
152 172 0
147 166 0
151 170 0
147 167 0
147 167 0
144 164 0
155 175 0
147 167 0
153 173 0
146 165 0
147 168 0
153 173 0
144 163 0
160 181 0
147 163 0
145 165 0
149 168 0
142 162 0
150 169 0
145 163 0
145 165 0
146 165 0
147 165 0
149 167 0
143 162 0
142 162 0
140 158 0
141 160 0
155 175 0
144 163 0
154 170 0
151 170 0
150 166 0
147 165 0
147 165 0
152 171 0
154 173 0
152 171 0
153 172 0
156 176 0
156 175 0
148 167 0
152 170 0
143 162 0
152 170 0
158 178 0
156 174 0
146 163 0
150 167 0
152 170 0
157 174 0
150 166 0
149 169 0
148 166 0
146 165 0
142 157 0
158 173 0
152 169 0
154 171 0
154 172 0
150 163 0
152 169 0
143 158 0
156 173 0
151 168 0
146 163 0
148 167 0
161 178 0
153 168 0
153 171 0
150 167 0
156 173 0
154 170 0
153 170 0
156 176 0
153 170 0
150 165 0
150 164 0
151 168 0
152 169 0
155 172 0
149 164 0
151 167 0
150 166 0
153 170 0
151 166 0
144 159 0
146 160 0
154 168 0
146 160 0
153 171 0
153 169 0
152 168 0
149 164 0
152 167 0
150 164 0
150 166 0
142 156 0
155 171 0
155 172 0
156 170 0
149 165 0
151 167 0
146 160 0
149 163 0
156 168 0
144 156 0
150 164 0
157 172 0
150 163 0
149 162 0
151 165 0
149 160 0
154 168 0
154 167 0
158 173 0
153 165 0
160 174 0
143 157 0
152 163 0
154 167 0
153 167 0
159 172 0
153 166 0
157 172 0
157 169 0
151 161 0
157 171 0
152 163 0
151 164 0
147 159 0
147 161 0
161 174 0
156 169 0
152 166 0
148 158 0
152 164 0
148 159 0
157 170 0
149 163 0
158 178 0
161 182 0
158 177 0
161 181 0
159 179 0
161 180 0
163 184 0
165 184 0
159 178 0
160 181 0
153 173 0
155 175 0
161 181 0
161 181 0
153 171 0
159 180 0
160 180 0
157 177 0
157 177 0
156 176 0
160 181 0
161 180 0
159 180 0
155 175 0
155 175 0
159 181 0
155 176 0
152 172 0
157 178 0
154 174 0
155 176 0
158 178 0
161 182 0
165 186 0
155 176 0
156 177 0
159 180 0
155 175 0
159 180 0
150 170 0
158 178 0
151 172 0
159 181 0
159 179 0
155 176 0
147 168 0
163 184 0
153 174 0
151 171 0
155 177 0
150 170 0
158 180 0
150 171 0
153 174 0
148 169 0
151 171 0
150 171 0
153 173 0
149 169 0
156 177 0
154 175 0
153 174 0
143 164 0
158 179 0
151 171 0
159 181 0
151 172 0
155 177 0
158 180 0
157 178 0
157 181 0
152 173 0
162 183 0
152 173 0
151 173 0
153 175 0
152 171 0
154 175 0
154 175 0
162 184 0
157 178 0
153 175 0
156 177 0
146 166 0
159 181 0
156 178 0
155 177 0
152 173 0
156 178 0
152 174 0
149 170 0
157 178 0
150 172 0
148 170 0
152 174 0
156 179 0
144 165 0
150 171 0
158 180 0
154 175 0
151 173 0
155 177 0
158 179 0
159 181 0
153 175 0
146 168 0
146 168 0
150 171 0
150 172 0
153 175 0
156 178 0
154 175 0
154 176 0
156 177 0
151 172 0
154 176 0
151 173 0
153 174 0
156 179 0
153 175 0
148 171 0
158 180 0
148 170 0
154 175 0
154 176 0
150 172 0
153 174 0
157 178 0
150 171 0
147 169 0
154 176 0
147 170 0
156 176 0
141 163 0
150 171 0
152 175 0
148 170 0
151 172 0
148 169 0
151 173 0
147 170 0
146 167 0
154 176 0
144 165 0
157 180 0
153 175 0
151 173 0
152 174 0
149 171 0
153 175 0
152 173 0
151 173 0
151 173 0
144 165 0
153 175 0
147 169 0
150 172 0
145 167 0
149 172 0
157 179 0
150 172 0
146 168 0
139 161 0
154 176 0
148 169 0
154 174 0
152 174 0
147 169 0
148 170 0
156 178 0
147 167 0
149 170 0
145 168 0
154 175 0
149 171 0
146 168 0
146 168 0
158 179 0
148 170 0
149 171 0
135 156 0
150 172 0
149 171 0
148 170 0
147 169 0
149 170 0
150 172 0
151 173 0
146 168 0
152 172 0
146 167 0
155 176 0
144 166 0
153 174 0
148 171 0
143 165 0
153 175 0
152 174 0
151 172 0
142 164 0
149 169 0
147 168 0
151 174 0
148 168 0
154 177 0
143 165 0
156 178 0
144 166 0
152 173 0
149 171 0
146 167 0
154 176 0
143 165 0
149 171 0
137 157 0
151 171 0
143 163 0
149 171 0
137 160 0
149 171 0
146 168 0
153 175 0
151 172 0
148 169 0
147 168 0
148 167 0
152 172 0
151 172 0
143 164 0
146 167 0
151 171 0
151 173 0
141 162 0
151 172 0
145 165 0
157 179 0
152 173 0
150 171 0
146 165 0
150 172 0
147 168 0
145 167 0
147 167 0
149 170 0
148 170 0
147 169 0
146 166 0
147 169 0
148 167 0
148 168 0
147 168 0
150 171 0
151 172 0
150 170 0
152 171 0
144 162 0
155 174 0
150 170 0
144 164 0
145 166 0
154 175 0
148 167 0
143 161 0
150 170 0
144 163 0
152 172 0
153 174 0
149 169 0
152 171 0
151 171 0
142 162 0
149 167 0
150 170 0
151 169 0
153 173 0
142 162 0
143 163 0
150 169 0
149 168 0
151 172 0
154 173 0
145 164 0
153 174 0
138 160 0
146 164 0
151 171 0
160 179 0
145 163 0
151 171 0
147 166 0
148 167 0
155 174 0
148 168 0
154 174 0
152 171 0
152 171 0
153 168 0
153 171 0
155 174 0
149 168 0
151 170 0
152 169 0
147 167 0
141 157 0
151 171 0
153 170 0
147 165 0
154 173 0
150 169 0
153 172 0
140 158 0
152 169 0
148 166 0
147 164 0
146 164 0
153 171 0
148 166 0
149 167 0
153 171 0
146 163 0
149 165 0
148 164 0
150 169 0
149 163 0
148 165 0
142 159 0
154 173 0
154 171 0
154 173 0
149 165 0
151 169 0
154 171 0
145 161 0
148 164 0
149 165 0
153 172 0
156 173 0
153 171 0
151 168 0
144 158 0
150 166 0
147 163 0
149 167 0
148 162 0
149 165 0
145 160 0
150 164 0
158 173 0
151 168 0
152 165 0
154 169 0
157 174 0
153 168 0
151 168 0
153 167 0
154 168 0
155 169 0
149 164 0
148 163 0
157 172 0
155 170 0
154 169 0
156 170 0
148 162 0
150 163 0
150 161 0
149 163 0
159 175 0
147 163 0
154 168 0
152 164 0
149 163 0
155 169 0
159 174 0
149 164 0
151 164 0
150 162 0
153 167 0
151 165 0
147 161 0
158 169 0
156 169 0
157 168 0
153 166 0
163 176 0
155 169 0
154 168 0
148 162 0
155 169 0
149 163 0
152 167 0
153 169 0
149 162 0
153 164 0
154 167 0
157 170 0
151 163 0
152 164 0
148 159 0
152 165 0
159 178 0
155 175 0
157 177 0
155 175 0
156 176 0
161 182 0
160 180 0
161 181 0
160 181 0
162 181 0
157 176 0
156 176 0
155 174 0
158 178 0
158 178 0
160 180 0
156 174 0
163 183 0
156 177 0
160 180 0
157 177 0
158 179 0
151 171 0
152 171 0
156 176 0
158 178 0
157 178 0
158 178 0
157 178 0
152 172 0
160 180 0
152 172 0
160 180 0
159 180 0
155 174 0
156 176 0
154 175 0
160 180 0
161 182 0
157 178 0
160 182 0
153 173 0
152 173 0
151 171 0
160 181 0
153 173 0
154 174 0
154 173 0
152 172 0
159 180 0
160 181 0
148 169 0
147 167 0
150 171 0
153 173 0
158 180 0
154 174 0
156 177 0
153 174 0
151 171 0
147 167 0
152 174 0
162 183 0
154 176 0
157 179 0
156 177 0
156 177 0
150 170 0
152 174 0
151 174 0
154 175 0
154 176 0
152 173 0
151 172 0
153 175 0
152 173 0
152 173 0
155 176 0
144 166 0
151 172 0
155 176 0
152 173 0
156 177 0
155 177 0
155 177 0
153 174 0
150 171 0
152 173 0
156 177 0
156 177 0
161 184 0
153 175 0
153 174 0
155 177 0
152 172 0
150 172 0
151 173 0
154 175 0
150 171 0
147 169 0
155 177 0
155 178 0
150 172 0
152 174 0
146 169 0
152 173 0
154 176 0
154 176 0
154 175 0
155 177 0
155 177 0
152 174 0
153 175 0
147 168 0
152 174 0
159 180 0
156 178 0
156 178 0
153 175 0
155 177 0
156 179 0
158 180 0
148 170 0
151 174 0
148 168 0
151 172 0
153 176 0
153 174 0
157 180 0
153 175 0
152 175 0
149 172 0
148 170 0
152 173 0
155 177 0
147 167 0
161 183 0
149 171 0
145 166 0
150 172 0
156 177 0
151 172 0
147 168 0
143 165 0
145 166 0
153 176 0
156 178 0
154 176 0
151 173 0
145 167 0
152 174 0
147 168 0
150 172 0
148 170 0
143 165 0
152 174 0
157 179 0
153 174 0
145 166 0
143 164 0
159 183 0
148 170 0
144 165 0
152 174 0
146 168 0
153 174 0
149 171 0
154 176 0
148 169 0
146 168 0
153 175 0
151 173 0
152 174 0
147 168 0
152 173 0
149 171 0
147 167 0
148 171 0
148 168 0
147 168 0
150 172 0
155 178 0
146 169 0
154 175 0
144 167 0
151 174 0
150 173 0
148 171 0
152 174 0
152 173 0
149 171 0
151 171 0
144 166 0
143 165 0
153 175 0
149 170 0
151 173 0
149 172 0
152 173 0
152 174 0
146 166 0
137 158 0
158 178 0
149 171 0
153 174 0
142 164 0
154 176 0
155 177 0
153 173 0
151 171 0
146 167 0
150 170 0
150 172 0
154 175 0
149 171 0
146 168 0
148 169 0
146 165 0
155 177 0
154 175 0
154 176 0
141 161 0
151 173 0
142 162 0
159 181 0
145 165 0
150 173 0
148 169 0
152 175 0
143 165 0
148 168 0
151 172 0
139 160 0
152 173 0
144 165 0
149 170 0
154 175 0
151 172 0
154 176 0
150 171 0
152 173 0
143 164 0
147 165 0
144 164 0
155 175 0
144 165 0
149 170 0
144 164 0
141 161 0
151 173 0
151 172 0
149 169 0
144 164 0
144 163 0
140 160 0
150 172 0
148 169 0
152 172 0
146 166 0
153 173 0
147 167 0
152 173 0
146 166 0
149 169 0
147 168 0
144 166 0
148 167 0
150 169 0
146 167 0
145 164 0
145 165 0
146 166 0
154 174 0
153 172 0
148 169 0
152 173 0
153 174 0
145 164 0
148 166 0
152 170 0
150 170 0
144 163 0
156 176 0
156 174 0
148 168 0
150 170 0
149 168 0
150 170 0
147 165 0
148 166 0
155 175 0
148 167 0
153 172 0
157 178 0
145 164 0
148 167 0
149 168 0
148 166 0
150 169 0
153 172 0
146 164 0
157 175 0
148 167 0
146 165 0
153 172 0
143 161 0
150 169 0
149 167 0
158 178 0
146 162 0
149 167 0
151 169 0
149 167 0
141 158 0
157 177 0
149 169 0
158 178 0
151 166 0
151 169 0
157 176 0
148 166 0
145 162 0
154 173 0
152 170 0
156 172 0
154 174 0
154 171 0
150 167 0
152 169 0
149 166 0
152 169 0
148 163 0
158 176 0
151 168 0
146 163 0
150 164 0
146 161 0
150 168 0
145 160 0
146 160 0
150 165 0
151 168 0
154 168 0
157 173 0
158 169 0
146 162 0
156 171 0
152 167 0
160 177 0
155 172 0
150 162 0
155 171 0
154 170 0
157 174 0
156 173 0
150 164 0
158 174 0
154 168 0
152 165 0
149 163 0
150 164 0
152 168 0
154 168 0
153 168 0
157 173 0
155 170 0
157 172 0
156 171 0
154 165 0
153 169 0
149 164 0
156 170 0
151 166 0
157 172 0
149 164 0
154 167 0
157 172 0
161 177 0
156 172 0
156 169 0
155 169 0
147 161 0
150 162 0
157 172 0
151 162 0
150 166 0
154 169 0
152 167 0
155 167 0
154 169 0
155 168 0
150 162 0
154 167 0
154 170 0
150 163 0
152 166 0
153 165 0
158 173 0
155 167 0
155 168 0
162 183 0
161 181 0
160 180 0
159 178 0
162 181 0
162 183 0
161 182 0
159 179 0
156 175 0
159 179 0
160 180 0
159 180 0
154 174 0
156 176 0
163 183 0
159 179 0
161 181 0
161 181 0
154 173 0
162 181 0
155 175 0
161 182 0
157 178 0
154 175 0
156 176 0
155 176 0
159 178 0
155 175 0
160 180 0
159 179 0
153 174 0
157 178 0
154 174 0
161 182 0
160 179 0
155 175 0
145 164 0
147 167 0
154 174 0
162 183 0
151 172 0
157 177 0
155 176 0
155 175 0
158 179 0
157 179 0
153 174 0
158 179 0
156 178 0
154 175 0
153 173 0
154 174 0
157 179 0
155 177 0
156 177 0
151 172 0
149 168 0
155 176 0
159 180 0
146 167 0
154 175 0
152 174 0
158 179 0
154 176 0
147 169 0
149 170 0
157 178 0
153 175 0
153 175 0
151 174 0
160 181 0
151 172 0
156 178 0
149 170 0
150 171 0
155 177 0
148 170 0
154 175 0
155 177 0
153 175 0
153 174 0
156 177 0
150 172 0
154 174 0
148 168 0
140 161 0
151 172 0
149 171 0
149 171 0
156 177 0
146 168 0
154 176 0
155 176 0
151 173 0
155 177 0
151 172 0
158 179 0
156 178 0
153 175 0
154 175 0
146 168 0
155 177 0
151 173 0
159 181 0
153 176 0
148 169 0
148 169 0
156 179 0
154 176 0
146 168 0
152 175 0
149 170 0
155 177 0
151 173 0
155 176 0
157 179 0
155 177 0
153 174 0
150 171 0
154 175 0
157 180 0
151 172 0
158 180 0
151 173 0
148 170 0
157 179 0
155 177 0
149 170 0
153 174 0
144 166 0
153 176 0
149 171 0
146 167 0
151 173 0
151 173 0
150 172 0
150 173 0
150 173 0
151 172 0
149 171 0
147 169 0
154 176 0
150 172 0
154 177 0
147 170 0
152 173 0
139 161 0
149 171 0
150 171 0
153 176 0
147 170 0
147 169 0
151 173 0
149 171 0
144 165 0
157 179 0
127 148 0
151 172 0
149 171 0
146 167 0
151 173 0
148 169 0
144 166 0
154 175 0
152 175 0
146 168 0
152 174 0
145 168 0
147 169 0
147 169 0
149 171 0
152 173 0
150 171 0
147 169 0
152 173 0
151 174 0
153 175 0
149 171 0
149 170 0
151 174 0
145 166 0
148 171 0
150 172 0
155 176 0
143 164 0
150 170 0
148 170 0
149 170 0
145 166 0
148 169 0
157 178 0
151 172 0
149 171 0
145 167 0
151 173 0
152 173 0
143 166 0
152 173 0
149 170 0
146 168 0
156 178 0
154 176 0
144 164 0
151 171 0
145 166 0
134 154 0
150 172 0
148 168 0
149 170 0
147 167 0
147 169 0
152 173 0
151 174 0
152 173 0
144 164 0
150 172 0
161 183 0
150 172 0
145 166 0
154 175 0
145 166 0
151 171 0
147 167 0
149 169 0
150 172 0
147 168 0
143 163 0
153 176 0
153 174 0
151 171 0
145 164 0
142 163 0
151 172 0
152 175 0
150 170 0
147 169 0
152 173 0
150 171 0
147 167 0
144 165 0
145 165 0
154 175 0
155 176 0
149 172 0
150 169 0
146 166 0
146 167 0
142 162 0
147 167 0
145 165 0
151 172 0
139 157 0
150 170 0
149 171 0
152 174 0
149 170 0
150 170 0
147 167 0
150 170 0
150 170 0
140 161 0
155 175 0
145 165 0
142 162 0
143 162 0
139 160 0
148 170 0
150 170 0
151 171 0
148 170 0
154 173 0
155 175 0
148 168 0
147 169 0
155 177 0
154 175 0
150 170 0
153 172 0
155 176 0
152 172 0
146 165 0
147 165 0
148 166 0
150 170 0
150 170 0
153 173 0
152 171 0
144 162 0
154 175 0
144 162 0
147 166 0
141 159 0
146 165 0
142 162 0
152 172 0
148 166 0
153 170 0
150 168 0
152 172 0
151 170 0
141 158 0
143 161 0
149 168 0
148 166 0
153 172 0
156 174 0
149 168 0
151 170 0
152 171 0
146 163 0
144 161 0
143 159 0
149 167 0
153 172 0
142 158 0
152 169 0
155 174 0
153 168 0
149 167 0
152 168 0
156 174 0
152 170 0
146 163 0
150 169 0
156 173 0
153 170 0
153 172 0
144 162 0
150 167 0
152 169 0
153 171 0
160 178 0
146 163 0
154 171 0
157 173 0
153 170 0
155 173 0
148 165 0
148 163 0
153 168 0
149 167 0
151 167 0
144 159 0
149 165 0
153 169 0
154 171 0
155 170 0
152 166 0
160 175 0
153 170 0
153 167 0
148 163 0
150 166 0
152 167 0
147 163 0
161 177 0
159 174 0
147 161 0
149 166 0
152 167 0
155 170 0
152 166 0
145 161 0
151 165 0
152 165 0
148 164 0
154 170 0
154 168 0
154 170 0
159 175 0
149 162 0
149 165 0
140 151 0
143 154 0
152 166 0
156 171 0
155 168 0
154 168 0
151 165 0
156 171 0
153 168 0
150 164 0
155 171 0
156 170 0
147 159 0
156 168 0
149 161 0
150 164 0
155 170 0
152 167 0
151 166 0
156 170 0
157 171 0
157 170 0
157 170 0
153 166 0
150 162 0
151 161 0
147 157 0
156 170 0
163 184 0
161 182 0
157 178 0
161 181 0
159 179 0
157 177 0
164 184 0
157 176 0
156 176 0
161 182 0
157 178 0
155 176 0
155 175 0
159 179 0
157 177 0
152 172 0
161 181 0
157 177 0
155 175 0
158 178 0
161 181 0
161 182 0
161 181 0
158 179 0
160 181 0
159 180 0
157 177 0
159 179 0
159 181 0
153 173 0
156 177 0
162 182 0
155 174 0
156 177 0
163 183 0
156 178 0
158 178 0
158 178 0
154 175 0
153 174 0
161 182 0
155 176 0
155 175 0
154 174 0
151 172 0
159 179 0
152 173 0
149 170 0
153 173 0
152 173 0
158 178 0
152 173 0
154 175 0
154 176 0
156 176 0
154 175 0
152 172 0
150 171 0
150 170 0
160 180 0
157 178 0
158 179 0
154 175 0
154 175 0
152 173 0
159 181 0
147 168 0
154 175 0
155 176 0
155 176 0
156 177 0
157 178 0
156 178 0
158 179 0
155 175 0
156 177 0
152 174 0
155 176 0
156 177 0
153 174 0
156 177 0
150 172 0
152 173 0
157 178 0
148 170 0
154 175 0
156 178 0
151 174 0
154 175 0
159 181 0
157 179 0
154 175 0
154 176 0
156 179 0
151 172 0
151 173 0
158 179 0
152 173 0
152 174 0
153 174 0
156 178 0
153 175 0
156 178 0
144 165 0
154 175 0
151 172 0
152 173 0
145 166 0
149 171 0
150 173 0
155 178 0
152 175 0
155 177 0
154 175 0
151 173 0
150 170 0
154 176 0
158 180 0
145 166 0
151 173 0
143 166 0
155 178 0
155 177 0
149 170 0
150 172 0
153 173 0
151 172 0
155 177 0
155 176 0
157 179 0
146 168 0
160 182 0
154 176 0
154 177 0
150 172 0
155 176 0
158 180 0
156 178 0
148 171 0
155 177 0
154 175 0
147 168 0
147 168 0
147 169 0
150 171 0
154 177 0
142 164 0
149 170 0
154 176 0
149 171 0
143 164 0
151 173 0
147 168 0
145 167 0
151 172 0
154 176 0
151 172 0
150 172 0
149 171 0
147 169 0
142 163 0
144 165 0
146 168 0
148 170 0
152 175 0
152 174 0
151 172 0
143 165 0
158 179 0
148 170 0
153 175 0
150 172 0
144 166 0
154 176 0
150 172 0
146 168 0
151 174 0
144 166 0
148 169 0
151 172 0
158 180 0
149 169 0
147 168 0
147 170 0
150 172 0
148 170 0
144 167 0
152 173 0
154 175 0
144 165 0
155 177 0
151 171 0
147 168 0
150 172 0
153 175 0
145 166 0
150 173 0
148 168 0
151 174 0
142 162 0
150 173 0
151 173 0
152 173 0
145 165 0
149 170 0
150 172 0
151 173 0
145 166 0
147 169 0
142 164 0
148 170 0
146 167 0
147 168 0
148 171 0
152 173 0
153 175 0
150 172 0
148 169 0
150 172 0
152 172 0
147 168 0
146 166 0
146 167 0
142 165 0
152 174 0
147 168 0
144 165 0
150 169 0
153 175 0
158 180 0
145 165 0
151 172 0
150 171 0
147 169 0
150 172 0
148 169 0
151 172 0
147 168 0
153 173 0
146 166 0
144 166 0
149 171 0
156 178 0
147 169 0
149 171 0
146 168 0
149 169 0
149 170 0
154 175 0
145 167 0
151 173 0
143 164 0
151 171 0
153 174 0
153 173 0
153 173 0
148 167 0
149 169 0
140 159 0
151 174 0
146 168 0
150 169 0
148 168 0
154 175 0
157 178 0
150 169 0
145 166 0
147 166 0
151 171 0
153 173 0
152 172 0
155 175 0
146 165 0
153 171 0
157 176 0
159 179 0
143 162 0
155 178 0
159 176 0
149 171 0
156 177 0
149 166 0
148 167 0
148 168 0
147 166 0
155 175 0
144 162 0
149 168 0
154 173 0
153 173 0
144 163 0
145 163 0
161 180 0
142 161 0
161 180 0
158 178 0
142 161 0
153 172 0
145 162 0
160 180 0
150 169 0
148 165 0
148 168 0
143 162 0
153 172 0
150 169 0
149 167 0
149 168 0
155 175 0
152 170 0
156 174 0
153 172 0
144 161 0
150 168 0
148 166 0
150 169 0
151 168 0
141 160 0
154 172 0
152 172 0
144 159 0
149 167 0
150 169 0
150 168 0
140 158 0
152 169 0
151 168 0
154 170 0
152 172 0
154 173 0
140 157 0
149 165 0
153 170 0
154 172 0
152 169 0
148 164 0
149 166 0
149 165 0
151 171 0
151 169 0
143 159 0
149 164 0
154 170 0
155 170 0
150 166 0
151 168 0
148 165 0
148 165 0
150 165 0
148 166 0
154 169 0
151 167 0
148 163 0
148 165 0
152 164 0
156 171 0
150 166 0
155 170 0
154 171 0
157 174 0
151 168 0
151 164 0
155 173 0
147 164 0
151 164 0
152 168 0
151 167 0
155 170 0
159 174 0
157 172 0
155 169 0
154 169 0
152 164 0
161 176 0
156 170 0
151 166 0
157 171 0
157 170 0
151 166 0
147 161 0
151 166 0
147 161 0
159 175 0
153 168 0
156 172 0
155 168 0
157 171 0
154 167 0
157 169 0
147 161 0
155 169 0
154 169 0
147 159 0
156 170 0
156 171 0
159 173 0
155 171 0
152 170 0
153 165 0
155 170 0
163 182 0
158 179 0
160 181 0
156 177 0
157 179 0
161 181 0
159 179 0
156 175 0
164 184 0
158 179 0
159 181 0
158 179 0
164 185 0
161 181 0
159 180 0
158 178 0
155 176 0
154 174 0
163 184 0
164 184 0
156 177 0
160 180 0
156 177 0
160 181 0
162 183 0
159 180 0
162 182 0
157 178 0
159 178 0
156 176 0
157 177 0
161 182 0
157 177 0
151 172 0
155 175 0
155 175 0
159 180 0
157 178 0
160 180 0
157 178 0
157 178 0
161 183 0
156 177 0
155 176 0
153 173 0
153 174 0
157 177 0
154 174 0
156 176 0
154 175 0
155 175 0
156 177 0
157 178 0
155 175 0
160 181 0
158 179 0
157 178 0
154 176 0
155 176 0
155 175 0
161 182 0
154 175 0
159 180 0
154 174 0
160 181 0
156 176 0
155 177 0
156 177 0
154 174 0
155 177 0
154 176 0
152 173 0
153 174 0
151 173 0
154 175 0
153 175 0
160 182 0
153 174 0
157 179 0
154 175 0
151 172 0
154 176 0
158 179 0
152 175 0
152 173 0
152 175 0
158 179 0
158 180 0
155 176 0
157 179 0
154 176 0
153 176 0
153 174 0
144 167 0
155 177 0
154 174 0
159 182 0
152 175 0
160 183 0
144 165 0
149 170 0
150 171 0
148 170 0
155 176 0
154 176 0
152 173 0
153 176 0
149 171 0
157 180 0
153 175 0
159 181 0
154 176 0
151 172 0
151 173 0
152 173 0
154 177 0
154 175 0
151 173 0
154 176 0
155 176 0
152 173 0
152 174 0
153 174 0
155 177 0
157 179 0
146 168 0
158 181 0
155 175 0
146 168 0
157 180 0
144 166 0
159 181 0
144 166 0
145 166 0
149 172 0
155 176 0
149 172 0
153 174 0
145 168 0
146 168 0
153 175 0
145 167 0
149 168 0
147 170 0
151 174 0
150 172 0
150 173 0
156 178 0
147 170 0
153 175 0
149 172 0
148 169 0
149 170 0
146 168 0
147 169 0
152 173 0
149 170 0
155 177 0
154 175 0
145 166 0
156 179 0
156 178 0
143 164 0
151 173 0
149 172 0
153 174 0
153 174 0
151 173 0
156 177 0
154 175 0
148 170 0
149 170 0
150 173 0
155 176 0
152 173 0
145 166 0
145 167 0
146 168 0
155 177 0
147 168 0
146 168 0
136 157 0
152 174 0
143 165 0
150 171 0
147 168 0
143 165 0
150 171 0
145 166 0
141 163 0
156 178 0
149 171 0
137 159 0
153 173 0
150 172 0
150 171 0
146 167 0
144 165 0
153 176 0
145 167 0
148 169 0
151 173 0
153 173 0
143 165 0
152 175 0
144 165 0
141 162 0
156 178 0
152 171 0
152 175 0
150 173 0
148 169 0
156 178 0
145 166 0
146 166 0
151 171 0
152 174 0
144 166 0
140 159 0
148 169 0
148 170 0
149 170 0
152 172 0
152 174 0
148 169 0
149 169 0
145 166 0
151 174 0
147 168 0
143 164 0
146 167 0
152 172 0
148 170 0
145 166 0
146 167 0
149 170 0
150 172 0
152 174 0
147 169 0
148 168 0
149 169 0
152 171 0
157 177 0
143 164 0
155 175 0
141 161 0
153 173 0
147 168 0
153 172 0
147 168 0
150 171 0
146 166 0
147 167 0
155 176 0
151 170 0
149 169 0
154 174 0
150 170 0
151 170 0
153 174 0
145 164 0
145 164 0
143 163 0
154 176 0
155 175 0
143 162 0
149 168 0
153 175 0
149 170 0
148 168 0
157 176 0
143 162 0
147 166 0
141 163 0
145 164 0
150 168 0
153 174 0
144 164 0
159 179 0
157 178 0
154 174 0
152 172 0
146 167 0
150 168 0
156 177 0
154 173 0
156 176 0
148 168 0
156 176 0
156 177 0
148 168 0
151 170 0
145 164 0
155 174 0
152 170 0
146 165 0
149 169 0
146 163 0
153 172 0
150 168 0
152 172 0
151 171 0
160 180 0
152 170 0
154 173 0
153 171 0
156 173 0
148 168 0
155 176 0
154 171 0
147 165 0
149 168 0
155 173 0
153 172 0
158 177 0
149 165 0
153 173 0
157 176 0
150 166 0
149 167 0
145 161 0
153 170 0
145 159 0
156 175 0
155 173 0
151 169 0
158 176 0
149 168 0
159 175 0
156 176 0
149 165 0
154 172 0
155 172 0
150 168 0
153 168 0
156 174 0
158 173 0
157 172 0
142 158 0
150 166 0
151 166 0
152 168 0
149 166 0
154 169 0
150 168 0
150 166 0
148 164 0
151 167 0
152 166 0
149 165 0
151 167 0
156 174 0
156 171 0
154 172 0
160 177 0
155 171 0
154 171 0
150 165 0
156 172 0
154 168 0
151 167 0
152 170 0
159 177 0
154 168 0
149 166 0
150 164 0
150 167 0
148 162 0
143 157 0
156 170 0
154 169 0
152 168 0
153 167 0
156 172 0
156 172 0
151 167 0
147 163 0
150 161 0
150 163 0
150 163 0
151 162 0
153 168 0
151 165 0
152 168 0
157 171 0
152 166 0
153 166 0
154 169 0
144 158 0
154 166 0
153 166 0
145 160 0
149 162 0
157 173 0
150 166 0
161 177 0
156 169 0
157 174 0
149 160 0
153 166 0
158 178 0
162 182 0
158 177 0
157 177 0
162 182 0
157 177 0
162 182 0
157 176 0
159 180 0
159 179 0
161 182 0
158 179 0
159 179 0
162 182 0
163 184 0
159 180 0
158 178 0
156 176 0
154 175 0
159 180 0
156 176 0
164 184 0
161 182 0
163 184 0
160 180 0
163 184 0
156 178 0
158 178 0
157 177 0
157 178 0
156 177 0
159 180 0
154 175 0
159 180 0
157 178 0
153 173 0
153 173 0
157 177 0
159 181 0
151 172 0
156 178 0
151 171 0
156 177 0
156 177 0
151 172 0
154 175 0
158 179 0
157 178 0
156 176 0
157 177 0
151 172 0
153 174 0
150 171 0
156 178 0
156 178 0
155 177 0
159 180 0
155 176 0
150 173 0
152 172 0
154 174 0
154 175 0
156 178 0
144 166 0
153 175 0
158 180 0
151 171 0
153 173 0
150 172 0
154 176 0
150 172 0
155 176 0
160 183 0
144 165 0
152 173 0
158 180 0
159 180 0
150 172 0
157 178 0
157 180 0
157 178 0
150 171 0
157 179 0
154 176 0
151 173 0
154 176 0
151 174 0
151 172 0
156 178 0
157 178 0
154 175 0
157 179 0
152 174 0
159 181 0
154 176 0
153 174 0
156 179 0
156 179 0
158 180 0
158 179 0
145 166 0
153 175 0
146 169 0
155 177 0
154 176 0
151 172 0
151 171 0
154 176 0
156 178 0
151 173 0
151 172 0
147 169 0
144 166 0
156 178 0
154 176 0
157 179 0
151 172 0
144 167 0
154 176 0
158 179 0
150 172 0
148 170 0
152 173 0
154 175 0
153 175 0
150 172 0
150 172 0
151 173 0
153 175 0
153 175 0
157 178 0
144 165 0
156 176 0
147 170 0
153 176 0
151 173 0
145 166 0
154 177 0
152 174 0
159 182 0
148 170 0
153 175 0
157 179 0
153 176 0
154 176 0
153 174 0
147 169 0
151 174 0
148 170 0
146 166 0
150 171 0
152 174 0
150 172 0
147 168 0
148 169 0
150 171 0
157 180 0
153 175 0
149 171 0
149 170 0
146 168 0
155 176 0
157 178 0
148 170 0
147 167 0
150 171 0
150 172 0
150 171 0
149 171 0
153 176 0
147 168 0
154 176 0
144 165 0
146 168 0
150 172 0
146 167 0
154 176 0
153 175 0
155 178 0
149 170 0
148 170 0
140 162 0
149 171 0
149 170 0
149 170 0
147 168 0
150 172 0
150 171 0
147 168 0
147 168 0
154 175 0
151 173 0
152 174 0
152 174 0
150 172 0
149 171 0
147 169 0
147 169 0
147 169 0
147 168 0
151 172 0
149 170 0
158 180 0
149 170 0
142 162 0
157 181 0
142 164 0
153 174 0
150 172 0
154 175 0
145 166 0
152 173 0
154 174 0
150 172 0
142 163 0
142 163 0
147 170 0
149 169 0
155 176 0
155 176 0
154 174 0
154 175 0
147 167 0
151 174 0
149 171 0
152 174 0
149 170 0
144 164 0
155 177 0
153 174 0
154 175 0
146 167 0
155 175 0
145 167 0
143 163 0
154 174 0
151 170 0
156 178 0
154 175 0
157 177 0
146 168 0
148 169 0
148 169 0
150 169 0
146 167 0
154 174 0
146 167 0
147 169 0
153 175 0
153 173 0
141 162 0
150 170 0
158 180 0
151 172 0
146 166 0
153 173 0
155 176 0
146 167 0
152 174 0
151 171 0
146 167 0
150 171 0
148 170 0
155 175 0
151 170 0
147 166 0
153 173 0
150 171 0
148 169 0
143 162 0
150 171 0
152 172 0
154 174 0
144 164 0
158 178 0
154 173 0
151 170 0
141 161 0
149 168 0
153 173 0
150 170 0
146 168 0
151 171 0
149 168 0
156 177 0
155 174 0
151 169 0
150 169 0
145 164 0
156 176 0
148 167 0
152 172 0
144 163 0
156 177 0
138 158 0
153 174 0
158 177 0
152 172 0
151 169 0
156 175 0
152 170 0
150 169 0
156 174 0
153 172 0
153 172 0
140 159 0
157 177 0
159 179 0
150 170 0
145 165 0
147 165 0
156 176 0
150 169 0
147 165 0
154 171 0
150 169 0
154 172 0
150 168 0
159 179 0
149 168 0
154 170 0
150 170 0
154 172 0
151 169 0
150 168 0
156 175 0
152 172 0
153 170 0
144 158 0
154 173 0
160 177 0
156 173 0
156 174 0
155 171 0
157 174 0
158 178 0
147 165 0
152 169 0
153 171 0
154 173 0
153 168 0
148 165 0
150 166 0
155 173 0
150 164 0
153 170 0
154 170 0
157 174 0
156 174 0
148 164 0
159 177 0
148 164 0
156 171 0
150 166 0
154 169 0
148 163 0
152 168 0
147 162 0
149 164 0
155 171 0
154 169 0
153 169 0
158 175 0
152 167 0
157 173 0
152 167 0
155 168 0
148 165 0
154 172 0
153 170 0
154 168 0
151 166 0
151 167 0
153 167 0
153 168 0
152 167 0
152 167 0
156 173 0
157 173 0
152 164 0
154 168 0
155 172 0
152 167 0
155 171 0
152 166 0
149 163 0
153 170 0
148 162 0
157 173 0
152 165 0
159 173 0
154 168 0
157 172 0
155 171 0
159 177 0
156 168 0
152 168 0
161 176 0
156 171 0
153 169 0
160 180 0
161 182 0
156 176 0
161 182 0
160 180 0
161 182 0
158 178 0
155 175 0
159 180 0
158 179 0
157 177 0
157 178 0
154 174 0
154 174 0
157 177 0
165 186 0
161 182 0
160 179 0
154 175 0
161 182 0
165 186 0
160 180 0
157 178 0
158 179 0
160 181 0
155 175 0
157 178 0
160 181 0
155 176 0
157 178 0
160 182 0
156 175 0
160 181 0
154 175 0
159 181 0
156 175 0
157 178 0
162 182 0
159 179 0
153 173 0
156 177 0
153 174 0
159 180 0
160 180 0
158 178 0
155 175 0
158 179 0
161 182 0
150 170 0
156 177 0
157 179 0
160 182 0
155 176 0
156 178 0
156 178 0
153 174 0
153 174 0
159 180 0
163 184 0
158 179 0
150 170 0
155 177 0
153 174 0
152 174 0
149 170 0
156 177 0
154 175 0
158 179 0
154 176 0
162 182 0
159 181 0
159 180 0
159 181 0
157 177 0
149 171 0
156 178 0
155 177 0
149 171 0
152 172 0
153 175 0
160 181 0
153 175 0
153 173 0
152 172 0
154 176 0
159 181 0
145 166 0
154 177 0
159 181 0
153 176 0
158 179 0
153 175 0
157 179 0
153 174 0
160 182 0
160 182 0
155 177 0
151 172 0
154 176 0
151 172 0
151 173 0
150 173 0
160 183 0
149 171 0
157 180 0
144 166 0
147 169 0
151 172 0
159 181 0
154 175 0
152 174 0
153 175 0
157 179 0
158 180 0
149 171 0
153 174 0
155 177 0
145 167 0
158 181 0
143 165 0
153 176 0
145 166 0
149 172 0
158 181 0
151 173 0
157 179 0
154 177 0
149 171 0
153 174 0
152 173 0
150 172 0
144 166 0
148 170 0
151 173 0
147 170 0
152 174 0
159 181 0
156 178 0
144 164 0
147 168 0
157 179 0
146 168 0
146 169 0
151 173 0
143 164 0
146 168 0
151 173 0
149 171 0
153 175 0
152 173 0
158 180 0
148 170 0
156 178 0
149 170 0
150 171 0
151 171 0
150 173 0
152 174 0
150 172 0
156 178 0
153 175 0
153 176 0
152 173 0
152 175 0
151 173 0
147 168 0
158 181 0
147 169 0
149 170 0
147 169 0
151 173 0
155 177 0
142 163 0
152 173 0
144 165 0
151 174 0
146 168 0
156 178 0
139 161 0
149 171 0
150 171 0
150 172 0
148 170 0
144 166 0
154 176 0
155 177 0
149 171 0
151 173 0
153 174 0
149 170 0
148 169 0
149 169 0
150 171 0
155 176 0
151 171 0
154 175 0
146 168 0
148 170 0
150 171 0
158 179 0
151 172 0
152 173 0
149 170 0
156 178 0
142 164 0
147 169 0
151 172 0
144 164 0
149 169 0
153 175 0
147 168 0
150 172 0
149 169 0
143 164 0
152 174 0
147 168 0
154 176 0
146 167 0
154 176 0
147 169 0
151 172 0
149 170 0
148 169 0
153 174 0
154 175 0
144 164 0
153 174 0
154 176 0
138 160 0
150 172 0
147 169 0
149 169 0
149 171 0
150 171 0
147 168 0
147 168 0
152 172 0
150 171 0
148 170 0
151 172 0
148 169 0
157 176 0
151 172 0
155 177 0
149 171 0
152 174 0
152 173 0
151 171 0
152 172 0
157 180 0
156 177 0
154 173 0
152 173 0
155 175 0
148 166 0
146 166 0
147 167 0
148 168 0
155 177 0
156 176 0
149 169 0
154 173 0
146 166 0
151 171 0
148 168 0
145 164 0
152 173 0
147 167 0
148 168 0
155 177 0
139 158 0
150 170 0
149 170 0
153 174 0
152 171 0
151 172 0
152 172 0
147 167 0
150 171 0
153 172 0
145 164 0
146 167 0
153 173 0
157 177 0
153 175 0
152 170 0
156 174 0
152 170 0
151 169 0
150 170 0
148 166 0
152 171 0
143 162 0
150 170 0
154 173 0
158 176 0
146 165 0
151 170 0
157 176 0
154 173 0
150 168 0
146 165 0
151 172 0
152 173 0
150 170 0
147 167 0
146 166 0
152 171 0
148 168 0
155 174 0
154 172 0
156 175 0
151 169 0
152 170 0
152 168 0
151 167 0
143 161 0
148 166 0
150 166 0
153 170 0
152 169 0
150 166 0
151 167 0
157 176 0
153 170 0
153 172 0
147 165 0
157 176 0
148 166 0
154 171 0
149 166 0
158 176 0
153 170 0
150 166 0
157 176 0
151 169 0
152 170 0
155 173 0
152 171 0
154 172 0
148 165 0
153 172 0
159 178 0
149 167 0
149 165 0
150 169 0
152 168 0
157 175 0
160 177 0
150 167 0
148 163 0
157 174 0
157 173 0
153 170 0
159 176 0
152 169 0
151 168 0
153 168 0
157 173 0
150 167 0
144 161 0
152 168 0
153 168 0
148 161 0
160 178 0
154 170 0
158 173 0
153 168 0
152 165 0
157 174 0
151 168 0
154 172 0
153 168 0
149 166 0
152 166 0
151 162 0
154 168 0
152 168 0
153 169 0
158 174 0
151 165 0
160 178 0
153 169 0
154 166 0
155 172 0
158 173 0
152 166 0
150 165 0
154 168 0
157 169 0
156 173 0
153 169 0
153 168 0
154 169 0
152 166 0
153 167 0
155 170 0
154 169 0
153 170 0
156 170 0
158 179 0
157 177 0
160 181 0
162 182 0
157 178 0
163 184 0
158 179 0
162 183 0
164 184 0
161 181 0
160 180 0
157 177 0
160 181 0
161 182 0
157 177 0
156 175 0
158 179 0
156 176 0
162 184 0
157 178 0
161 182 0
156 176 0
151 172 0
158 181 0
162 183 0
154 174 0
156 176 0
155 177 0
156 177 0
155 176 0
157 178 0
157 178 0
154 175 0
158 180 0
160 181 0
156 177 0
153 174 0
156 176 0
156 178 0
159 180 0
163 185 0
159 180 0
155 176 0
152 173 0
157 177 0
152 173 0
153 174 0
158 180 0
156 177 0
150 171 0
155 176 0
156 177 0
159 180 0
157 178 0
156 177 0
154 175 0
158 180 0
160 182 0
156 177 0
153 174 0
157 179 0
157 177 0
166 188 0
154 174 0
148 168 0
158 180 0
158 180 0
158 180 0
160 182 0
154 175 0
152 173 0
155 176 0
161 182 0
157 178 0
154 175 0
154 174 0
152 173 0
157 179 0
160 181 0
156 178 0
160 183 0
156 177 0
153 175 0
161 183 0
151 172 0
156 179 0
147 169 0
153 175 0
150 172 0
152 173 0
155 176 0
154 175 0
152 174 0
154 176 0
154 175 0
155 177 0
154 176 0
158 180 0
151 174 0
151 171 0
153 174 0
154 176 0
149 171 0
157 179 0
153 175 0
151 172 0
150 171 0
151 172 0
149 170 0
159 181 0
154 176 0
154 175 0
156 178 0
160 182 0
157 179 0
157 178 0
153 174 0
152 174 0
154 177 0
153 176 0
149 171 0
152 174 0
154 176 0
157 179 0
149 171 0
146 168 0
152 175 0
152 175 0
145 166 0
145 166 0
148 170 0
144 166 0
146 168 0
154 175 0
150 172 0
150 172 0
148 170 0
156 177 0
152 174 0
151 172 0
148 170 0
153 175 0
153 175 0
148 170 0
148 170 0
154 177 0
152 173 0
150 172 0
153 175 0
153 175 0
144 165 0
155 178 0
147 169 0
147 169 0
153 175 0
151 173 0
152 174 0
152 173 0
153 175 0
148 170 0
155 177 0
152 174 0
150 174 0
151 174 0
151 173 0
153 176 0
152 174 0
159 182 0
147 169 0
149 171 0
152 173 0
148 169 0
147 170 0
149 171 0
145 167 0
147 169 0
154 175 0
149 171 0
157 179 0
147 169 0
151 173 0
153 173 0
144 165 0
154 176 0
146 168 0
148 171 0
153 175 0
152 175 0
152 174 0
155 177 0
149 171 0
146 167 0
146 167 0
155 178 0
151 173 0
151 173 0
158 180 0
148 171 0
151 172 0
153 175 0
148 169 0
150 170 0
152 175 0
154 176 0
150 171 0
153 174 0
153 173 0
150 171 0
147 169 0
141 162 0
148 169 0
149 170 0
152 174 0
145 165 0
145 166 0
142 163 0
152 172 0
156 178 0
140 162 0
149 171 0
150 172 0
155 177 0
146 168 0
152 173 0
145 166 0
150 171 0
143 164 0
147 169 0
154 175 0
156 177 0
148 169 0
148 169 0
156 178 0
145 165 0
157 179 0
150 171 0
149 170 0
144 166 0
155 175 0
149 170 0
154 176 0
153 175 0
150 171 0
153 175 0
146 167 0
145 165 0
159 181 0
154 173 0
145 164 0
144 165 0
150 171 0
150 168 0
146 167 0
159 180 0
153 174 0
152 174 0
151 173 0
148 167 0
149 170 0
153 174 0
156 177 0
152 174 0
143 162 0
153 174 0
146 166 0
159 180 0
151 172 0
148 169 0
147 166 0
155 177 0
152 173 0
148 170 0
152 173 0
145 163 0
161 183 0
150 170 0
152 174 0
153 173 0
152 173 0
146 165 0
150 169 0
154 174 0
150 169 0
151 172 0
156 177 0
152 171 0
157 176 0
151 171 0
153 173 0
144 163 0
143 160 0
155 175 0
150 169 0
152 171 0
154 174 0
158 177 0
151 168 0
150 170 0
155 174 0
148 169 0
150 169 0
154 173 0
142 162 0
151 170 0
157 176 0
151 169 0
151 170 0
150 169 0
151 168 0
154 173 0
152 174 0
151 171 0
156 173 0
158 176 0
151 170 0
149 167 0
150 169 0
151 171 0
146 165 0
153 171 0
153 171 0
156 176 0
156 174 0
152 172 0
153 170 0
146 165 0
155 174 0
157 177 0
152 169 0
159 177 0
149 166 0
154 173 0
149 168 0
146 164 0
157 175 0
156 175 0
160 177 0
153 170 0
152 172 0
150 168 0
156 174 0
155 171 0
156 174 0
145 161 0
146 162 0
152 170 0
149 167 0
154 170 0
152 169 0
151 169 0
152 170 0
157 172 0
150 167 0
157 174 0
152 167 0
156 173 0
160 176 0
148 165 0
150 165 0
154 171 0
150 167 0
154 171 0
148 163 0
149 165 0
156 170 0
152 166 0
150 167 0
154 170 0
154 169 0
150 164 0
152 167 0
155 170 0
154 170 0
147 162 0
160 175 0
157 174 0
152 167 0
153 168 0
151 164 0
154 169 0
149 162 0
153 167 0
153 168 0
157 173 0
154 169 0
156 171 0
154 171 0
157 171 0
151 166 0
151 165 0
155 169 0
156 172 0
156 171 0
153 166 0
156 172 0
157 173 0
153 166 0
156 173 0
156 171 0
156 171 0
161 182 0
153 174 0
157 177 0
162 183 0
156 177 0
152 172 0
162 182 0
159 181 0
159 179 0
156 178 0
158 177 0
153 172 0
159 178 0
161 182 0
161 181 0
157 177 0
152 172 0
156 177 0
157 177 0
160 180 0
161 183 0
156 176 0
165 185 0
163 183 0
161 181 0
160 181 0
160 181 0
153 173 0
154 174 0
154 174 0
163 183 0
161 181 0
155 176 0
158 179 0
153 175 0
158 179 0
162 183 0
150 171 0
156 178 0
161 183 0
156 177 0
163 184 0
159 181 0
159 180 0
160 181 0
154 175 0
153 175 0
155 175 0
162 183 0
153 173 0
155 177 0
154 176 0
154 175 0
154 174 0
157 178 0
158 180 0
157 178 0
149 169 0
157 179 0
156 178 0
160 183 0
154 176 0
158 180 0
155 177 0
160 181 0
151 172 0
152 174 0
151 172 0
154 177 0
156 177 0
156 178 0
157 178 0
157 179 0
155 177 0
158 178 0
156 178 0
156 178 0
158 179 0
155 176 0
156 178 0
162 184 0
156 177 0
153 175 0
155 177 0
160 182 0
152 172 0
154 176 0
154 178 0
152 173 0
152 173 0
151 171 0
155 177 0
153 175 0
159 181 0
163 185 0
153 175 0
150 172 0
152 174 0
160 183 0
156 178 0
151 173 0
154 176 0
148 170 0
156 179 0
148 171 0
154 177 0
157 179 0
151 172 0
158 180 0
162 185 0
155 176 0
152 174 0
154 176 0
155 177 0
160 182 0
160 181 0
151 174 0
151 173 0
155 176 0
156 178 0
155 178 0
150 172 0
152 174 0
154 176 0
159 181 0
152 174 0
152 174 0
149 172 0
149 171 0
158 180 0
154 176 0
150 173 0
157 180 0
151 172 0
146 168 0
155 176 0
154 177 0
149 172 0
150 172 0
155 177 0
152 175 0
153 175 0
146 168 0
150 171 0
147 169 0
150 172 0
151 173 0
152 174 0
149 172 0
156 178 0
146 168 0
153 175 0
147 169 0
148 170 0
150 172 0
156 178 0
153 175 0
151 174 0
153 175 0
153 177 0
151 171 0
145 166 0
150 172 0
150 172 0
150 171 0
154 177 0
148 169 0
152 175 0
152 175 0
152 174 0
155 176 0
152 175 0
153 175 0
159 182 0
147 169 0
149 170 0
151 172 0
151 174 0
152 174 0
158 179 0
164 185 0
151 173 0
154 176 0
147 170 0
161 182 0
157 179 0
151 173 0
150 171 0
152 173 0
153 174 0
154 174 0
150 172 0
149 171 0
151 173 0
149 170 0
152 173 0
153 174 0
144 166 0
148 169 0
147 168 0
154 176 0
157 179 0
155 177 0
148 170 0
147 168 0
151 172 0
150 172 0
142 164 0
153 175 0
149 169 0
154 175 0
155 177 0
152 175 0
148 169 0
148 167 0
150 171 0
145 166 0
151 173 0
148 168 0
148 168 0
141 162 0
155 177 0
149 170 0
146 168 0
152 174 0
156 178 0
155 177 0
151 171 0
149 170 0
149 171 0
155 176 0
158 180 0
150 171 0
152 173 0
149 170 0
151 171 0
147 168 0
151 169 0
154 173 0
153 174 0
151 173 0
150 171 0
153 174 0
149 171 0
157 179 0
152 175 0
145 166 0
150 171 0
143 164 0
157 178 0
143 165 0
152 173 0
149 169 0
152 174 0
148 169 0
149 167 0
146 167 0
148 169 0
147 168 0
150 169 0
152 172 0
151 172 0
149 170 0
153 174 0
153 174 0
148 167 0
150 170 0
144 163 0
146 166 0
149 169 0
148 169 0
149 168 0
153 173 0
146 165 0
146 165 0
147 167 0
154 174 0
152 171 0
149 168 0
153 173 0
153 174 0
147 166 0
156 174 0
149 170 0
149 169 0
144 164 0
154 173 0
153 172 0
154 175 0
153 170 0
156 176 0
155 174 0
157 178 0
154 176 0
149 167 0
152 170 0
155 175 0
147 166 0
150 169 0
155 175 0
155 173 0
147 168 0
149 167 0
158 179 0
148 166 0
152 171 0
153 172 0
149 168 0
153 172 0
152 172 0
159 179 0
155 174 0
156 176 0
152 170 0
148 167 0
148 166 0
150 168 0
156 176 0
155 174 0
154 171 0
155 172 0
157 176 0
157 174 0
156 175 0
150 170 0
156 174 0
146 165 0
151 168 0
152 169 0
147 166 0
153 172 0
150 170 0
151 171 0
155 174 0
154 172 0
153 171 0
149 168 0
153 170 0
155 174 0
158 175 0
150 167 0
150 167 0
154 173 0
148 165 0
151 168 0
158 173 0
153 172 0
153 167 0
147 162 0
153 169 0
148 166 0
151 167 0
152 168 0
152 168 0
157 174 0
159 173 0
153 170 0
147 161 0
151 168 0
150 165 0
155 173 0
156 174 0
153 169 0
148 164 0
150 165 0
155 170 0
154 169 0
159 175 0
150 165 0
161 178 0
157 170 0
153 166 0
148 161 0
162 176 0
148 162 0
152 168 0
161 174 0
152 168 0
154 168 0
154 169 0
156 172 0
155 171 0
159 173 0
154 167 0
159 176 0
157 173 0
153 167 0
154 169 0
150 163 0
158 174 0
151 165 0
155 168 0
154 168 0
153 168 0
155 169 0
157 172 0
163 180 0
158 173 0
149 164 0
157 173 0
162 182 0
162 182 0
161 182 0
155 176 0
162 182 0
159 180 0
155 175 0
164 184 0
157 178 0
164 185 0
159 181 0
161 182 0
160 181 0
160 181 0
161 181 0
162 183 0
159 179 0
157 177 0
160 182 0
162 182 0
158 178 0
155 176 0
160 181 0
151 173 0
158 179 0
153 175 0
159 179 0
157 177 0
157 179 0
164 184 0
155 177 0
154 175 0
160 180 0
158 178 0
159 180 0
157 178 0
157 178 0
156 177 0
160 181 0
159 180 0
158 178 0
156 176 0
159 181 0
156 176 0
158 179 0
160 182 0
151 173 0
152 173 0
159 180 0
158 180 0
162 184 0
152 173 0
152 173 0
161 181 0
151 173 0
156 178 0
156 178 0
159 180 0
163 185 0
156 177 0
158 179 0
150 172 0
162 183 0
156 178 0
155 177 0
157 179 0
158 179 0
155 177 0
157 179 0
155 177 0
152 175 0
158 179 0
155 177 0
155 177 0
148 169 0
153 175 0
153 174 0
151 172 0
163 184 0
155 176 0
155 178 0
157 179 0
154 175 0
155 177 0
155 176 0
157 178 0
149 171 0
158 179 0
162 183 0
156 177 0
160 182 0
148 171 0
150 171 0
153 176 0
150 173 0
153 175 0
147 168 0
159 182 0
147 168 0
155 176 0
159 182 0
159 181 0
156 179 0
152 175 0
156 178 0
159 181 0
154 176 0
146 168 0
158 179 0
153 175 0
161 183 0
151 172 0
146 168 0
147 169 0
151 172 0
152 174 0
154 176 0
154 176 0
149 170 0
156 177 0
139 160 0
142 162 0
153 176 0
153 175 0
153 175 0
153 176 0
159 181 0
155 176 0
160 183 0
147 169 0
152 173 0
152 174 0
155 176 0
155 178 0
151 173 0
152 174 0
155 178 0
154 175 0
159 181 0
159 181 0
157 179 0
146 167 0
154 178 0
152 174 0
152 175 0
149 170 0
153 176 0
152 172 0
150 173 0
152 173 0
149 171 0
149 170 0
152 174 0
154 176 0
154 176 0
152 174 0
151 173 0
152 174 0
147 169 0
160 181 0
152 173 0
154 177 0
151 173 0
153 175 0
153 175 0
146 170 0
154 176 0
155 176 0
147 170 0
150 171 0
150 172 0
154 176 0
155 177 0
155 176 0
153 175 0
155 178 0
155 177 0
143 164 0
150 171 0
150 171 0
145 167 0
155 176 0
151 174 0
151 173 0
147 168 0
148 170 0
146 167 0
154 176 0
148 170 0
147 167 0
157 178 0
157 179 0
149 169 0
148 168 0
151 174 0
148 170 0
153 175 0
157 178 0
140 161 0
148 171 0
155 176 0
144 165 0
152 172 0
152 172 0
152 174 0
142 164 0
151 171 0
144 167 0
157 180 0
152 174 0
153 175 0
151 172 0
157 179 0
148 169 0
146 166 0
150 173 0
147 168 0
154 176 0
152 173 0
153 174 0
158 179 0
148 168 0
154 176 0
149 170 0
152 174 0
145 167 0
153 173 0
157 178 0
152 174 0
153 175 0
151 173 0
151 172 0
153 175 0
157 178 0
148 168 0
146 167 0
152 172 0
151 173 0
148 168 0
150 170 0
146 167 0
147 168 0
153 175 0
152 174 0
149 170 0
147 169 0
146 167 0
151 173 0
148 169 0
150 171 0
151 172 0
151 171 0
153 174 0
151 171 0
151 172 0
151 173 0
148 169 0
148 169 0
145 165 0
145 164 0
153 174 0
154 176 0
152 173 0
148 170 0
156 175 0
151 173 0
150 171 0
152 171 0
153 173 0
150 170 0
154 175 0
151 171 0
148 168 0
150 171 0
149 169 0
159 180 0
154 174 0
153 172 0
153 173 0
157 178 0
153 171 0
147 168 0
146 168 0
153 172 0
155 174 0
146 165 0
153 171 0
150 169 0
149 167 0
156 177 0
155 175 0
156 177 0
151 169 0
150 169 0
154 173 0
158 178 0
152 173 0
157 177 0
149 168 0
150 170 0
162 181 0
154 173 0
151 169 0
155 173 0
152 172 0
150 169 0
144 163 0
154 172 0
153 173 0
155 174 0
155 175 0
152 171 0
152 171 0
152 172 0
148 167 0
152 171 0
153 173 0
151 173 0
145 162 0
153 172 0
159 179 0
154 173 0
148 165 0
149 168 0
157 175 0
151 167 0
154 171 0
148 168 0
157 175 0
150 166 0
153 171 0
146 165 0
152 170 0
152 170 0
157 175 0
148 164 0
155 172 0
154 173 0
153 173 0
151 166 0
154 173 0
156 172 0
164 181 0
152 170 0
153 169 0
157 175 0
149 166 0
143 159 0
152 168 0
154 171 0
160 180 0
155 171 0
151 167 0
150 168 0
155 172 0
148 163 0
158 177 0
155 170 0
152 170 0
154 170 0
151 169 0
155 170 0
156 175 0
149 165 0
166 185 0
144 158 0
150 164 0
150 165 0
157 173 0
147 163 0
160 178 0
158 176 0
156 174 0
152 166 0
157 173 0
155 173 0
157 172 0
153 170 0
159 175 0
157 174 0
155 170 0
153 169 0
153 168 0
156 172 0
159 176 0
156 172 0
152 166 0
161 175 0
155 171 0
155 171 0
161 177 0
158 175 0
158 174 0
156 173 0
161 176 0
156 171 0
155 171 0
156 172 0
149 163 0
159 173 0
